; generated by PrusaSlicer 2.3.1+x64 on 2023-02-16 at 18:28:13 UTC

; 

; external perimeters extrusion width = 0.45mm
; perimeters extrusion width = 0.45mm
; infill extrusion width = 0.45mm
; solid infill extrusion width = 0.45mm
; top infill extrusion width = 0.40mm
; support material extrusion width = 0.35mm
; first layer extrusion width = 0.42mm

M73 P0 R58
M73 Q0 S58
M201 X1000 Y1000 Z200 E5000 ; sets maximum accelerations, mm/sec^2
M203 X200 Y200 Z12 E120 ; sets maximum feedrates, mm/sec
M204 P1250 R1250 T1250 ; sets acceleration (P, T) and retract acceleration (R), mm/sec^2
M205 X8.00 Y8.00 Z0.40 E4.50 ; sets the jerk limits, mm/sec
M205 S0 T0 ; sets the minimum extruding and travel feed rate, mm/sec
M107
;TYPE:Custom
M862.3 P "MK3" ; printer model check
M862.1 P0.4 ; nozzle diameter check
M115 U3.9.3 ; tell printer latest fw version
G90 ; use absolute coordinates
M83 ; extruder relative mode
M104 S120 ; set extruder temp
M140 S85 ; set bed temp
M190 S85 ; wait for bed temp
M104 S240 ; set extruder temp
M109 S240 ; wait for extruder temp
G28 W ; home all without mesh bed level
G80 ; mesh bed leveling
G1 Y-3.0 F1000.0 ; go outside print area
G92 E0.0
G1 X60.0 E9.0 F1000.0 ; intro line
G1 X100.0 E12.5 F1000.0 ; intro line
G92 E0.0
M221 S95

; Don't change E values below. Excessive value can damage the printer.

M907 E538 ; set extruder motor current
G21 ; set units to millimeters
G90 ; use absolute coordinates
M83 ; use relative distances for extrusion
M900 K0.08 ; Filament gcode LA 1.5
M900 K45 ; Filament gcode LA 1.0
;LAYER_CHANGE
;Z:0.2
;HEIGHT:0.2
;BEFORE_LAYER_CHANGE
G92 E0.0
;0.2


G1 E-1.00000 F2100.000
G1 Z0.200 F10800.000
;AFTER_LAYER_CHANGE
;0.2
G1 Z0.400
G1 X89.508 Y135.664
G1 Z0.200
G1 E1.00000 F2100.000
M204 S1000
;TYPE:Skirt
;WIDTH:0.42
G1 F1200.000
G1 X179.986 Y135.616 E2.83687
G1 X180.514 Y135.676 E0.01668
G1 X181.016 Y135.853 E0.01669
G1 X181.467 Y136.137 E0.01668
G1 X181.842 Y136.513 E0.01668
G1 X188.940 Y146.645 E0.38788
G1 X189.251 Y147.284 E0.02225
G1 X189.359 Y147.973 E0.02190
G1 X189.342 Y158.278 E0.32309
M73 P0 R57
G1 X189.165 Y158.934 E0.02130
G1 X188.809 Y159.513 E0.02130
G1 X188.305 Y159.968 E0.02130
G1 X187.692 Y160.262 E0.02130
G1 X187.014 Y160.370 E0.02154
G1 X179.887 Y160.368 E0.22345
G1 X89.846 Y156.366 E2.82595
G1 X89.088 Y156.195 E0.02437
G1 X88.425 Y155.789 E0.02437
G1 X87.929 Y155.191 E0.02437
G1 X87.653 Y154.468 E0.02426
G1 X87.616 Y137.761 E0.52384
G1 X87.807 Y137.035 E0.02355
G1 X88.217 Y136.401 E0.02367
G1 X88.802 Y135.930 E0.02355
G1 X89.452 Y135.685 E0.02178
; printing object Antenna Arm v5.stl id:0 copy 0
;WIPE_START
G1 F8640.000
G1 X93.566 Y135.682 E-0.95000
;WIPE_END
G1 E-0.05000 F2100.000
G1 Z0.400 F10800.000
G1 X104.545 Y146.602
G1 Z0.200
G1 E1.00000 F2100.000
;TYPE:Support material
G1 F1200.000
G1 X104.545 Y145.723 E0.02756
G1 X103.791 Y144.417 E0.04729
G1 X103.791 Y147.569 E0.09883
G1 X103.036 Y148.875 E0.04729
G1 X103.036 Y143.111 E0.18075
G1 X102.341 Y141.907 E0.04360
G1 X102.282 Y141.907 E0.00185
G1 X102.282 Y150.079 E0.25626
G1 X101.528 Y150.079 E0.02365
G1 X101.528 Y141.907 E0.25626
G1 X100.774 Y141.907 E0.02365
G1 X100.774 Y150.079 E0.25626
G1 X100.020 Y150.079 E0.02365
G1 X100.020 Y141.907 E0.25626
G1 X99.266 Y141.907 E0.02365
G1 X99.266 Y150.079 E0.25626
G1 X98.512 Y150.079 E0.02365
G1 X98.512 Y141.907 E0.25626
G1 X97.757 Y141.907 E0.02365
G1 X97.757 Y150.079 E0.25626
G1 X97.623 Y150.079 E0.00422
G1 X97.003 Y149.007 E0.03884
G1 X97.003 Y142.979 E0.18898
G1 X96.249 Y144.286 E0.04729
G1 X96.249 Y147.700 E0.10707
G1 X95.495 Y146.394 E0.04729
G1 X95.495 Y145.253 E0.03579
;WIPE_START
G1 F8640.000
G1 X95.495 Y146.394 E-0.26359
G1 X96.249 Y147.700 E-0.34827
G1 X96.249 Y146.236 E-0.33813
;WIPE_END
G1 E-0.05000 F2100.000
G1 Z0.400 F10800.000
G1 X96.929 Y140.706
G1 Z0.200
G1 E1.00000 F2100.000
;TYPE:Perimeter
G1 F1200.000
G1 X103.034 Y140.706 E0.19142
G1 X103.638 Y141.752 E0.03787
G1 X106.087 Y145.993 E0.15355
G1 X103.034 Y151.280 E0.19142
G1 X96.929 Y151.280 E0.19142
G1 X93.877 Y145.993 E0.19142
G1 X96.899 Y140.758 E0.18954
G1 X97.147 Y141.083 F10800.000
;TYPE:External perimeter
G1 F1200.000
G1 X102.817 Y141.083 E0.17777
G1 X103.312 Y141.941 E0.03105
G1 X105.652 Y145.993 E0.14672
G1 X102.817 Y150.903 E0.17777
G1 X97.147 Y150.903 E0.17777
G1 X94.312 Y145.993 E0.17777
G1 X97.117 Y141.135 E0.17588
G1 X97.147 Y140.683 F10800.000
;WIPE_START
G1 F8640.000
G1 X101.231 Y141.097 E-0.95000
;WIPE_END
G1 E-0.05000 F2100.000
G1 Z0.400 F10800.000
G1 X179.195 Y154.780
G1 Z0.200
G1 E1.00000 F2100.000
;TYPE:Perimeter
G1 F1200.000
G1 X183.769 Y154.780 E0.14342
G1 X183.769 Y146.780 E0.25083
G1 X184.656 Y146.780 E0.02781
G1 X186.195 Y148.319 E0.06824
G1 X186.195 Y157.206 E0.27864
G1 X180.308 Y157.206 E0.18458
G1 X176.308 Y153.206 E0.17737
G1 X90.769 Y153.206 E2.68201
M73 P1 R57
M73 Q1 S57
G1 X90.769 Y138.780 E0.45231
G1 X179.195 Y138.780 E2.77253
G1 X179.195 Y154.720 E0.49979
G1 X179.572 Y154.403 F10800.000
;TYPE:External perimeter
G1 F1200.000
G1 X183.392 Y154.403 E0.11977
G1 X183.392 Y146.403 E0.25083
G1 X184.812 Y146.403 E0.04453
G1 X186.572 Y148.163 E0.07803
G1 X186.572 Y157.583 E0.29536
G1 X180.152 Y157.583 E0.20130
G1 X176.152 Y153.583 E0.17737
G1 X90.392 Y153.583 E2.68894
G1 X90.392 Y138.403 E0.47596
G1 X179.572 Y138.403 E2.79618
G1 X179.572 Y154.343 E0.49979
G1 X179.751 Y154.761 F10800.000
;WIPE_START
G1 F8640.000
G1 X183.392 Y154.403 E-0.88216
G1 X183.392 Y154.109 E-0.06784
;WIPE_END
G1 E-0.05000 F2100.000
G1 Z0.400 F10800.000
G1 X178.319 Y138.893
G1 Z0.200
G1 E1.00000 F2100.000
;TYPE:Solid infill
;WIDTH:0.420318
G1 F1200.000
G1 X178.912 Y139.486 E0.02633
G1 X178.912 Y140.020 E0.01675
G1 X177.955 Y139.063 E0.04248
G1 X177.421 Y139.063 E0.01675
G1 X178.912 Y140.554 E0.06617
G1 X178.912 Y141.088 E0.01675
G1 X176.887 Y139.063 E0.08986
G1 X176.354 Y139.063 E0.01675
G1 X178.912 Y141.621 E0.11354
G1 X178.912 Y142.155 E0.01675
G1 X175.820 Y139.063 E0.13723
G1 X175.286 Y139.063 E0.01675
G1 X178.912 Y142.689 E0.16091
G1 X178.912 Y143.223 E0.01675
G1 X174.752 Y139.063 E0.18460
G1 X174.219 Y139.063 E0.01675
G1 X178.912 Y143.756 E0.20829
G1 X178.912 Y144.290 E0.01675
G1 X173.685 Y139.063 E0.23197
G1 X173.151 Y139.063 E0.01675
G1 X178.912 Y144.824 E0.25566
G1 X178.912 Y145.357 E0.01675
G1 X172.618 Y139.063 E0.27934
G1 X172.084 Y139.063 E0.01675
G1 X178.912 Y145.891 E0.30303
G1 X178.912 Y146.425 E0.01675
G1 X171.550 Y139.063 E0.32672
G1 X171.016 Y139.063 E0.01675
G1 X178.912 Y146.959 E0.35040
G1 X178.912 Y147.492 E0.01675
G1 X170.483 Y139.063 E0.37409
G1 X169.949 Y139.063 E0.01675
G1 X178.912 Y148.026 E0.39778
G1 X178.912 Y148.560 E0.01675
G1 X169.415 Y139.063 E0.42146
G1 X168.882 Y139.063 E0.01675
G1 X178.912 Y149.093 E0.44515
G1 X178.912 Y149.627 E0.01675
G1 X168.348 Y139.063 E0.46883
G1 X167.814 Y139.063 E0.01675
G1 X178.912 Y150.161 E0.49252
G1 X178.912 Y150.695 E0.01675
G1 X167.280 Y139.063 E0.51621
G1 X166.747 Y139.063 E0.01675
G1 X178.912 Y151.228 E0.53989
G1 X178.912 Y151.762 E0.01675
G1 X166.213 Y139.063 E0.56358
G1 X165.679 Y139.063 E0.01675
G1 X178.912 Y152.296 E0.58726
G1 X178.912 Y152.829 E0.01675
G1 X165.145 Y139.063 E0.61095
G1 X164.612 Y139.063 E0.01675
G1 X178.912 Y153.363 E0.63464
M73 P2 R57
M73 Q2 S57
G1 X178.912 Y153.897 E0.01675
G1 X164.078 Y139.063 E0.65832
G1 X163.544 Y139.063 E0.01675
G1 X179.082 Y154.600 E0.68954
;WIPE_START
G1 F8640.000
G1 X176.173 Y151.691 E-0.95000
;WIPE_END
G1 E-0.05000 F2100.000
G1 Z0.400 F10800.000
G1 X184.184 Y146.893
G1 Z0.200
G1 E1.00000 F2100.000
G1 F1200.000
G1 X185.912 Y148.621 E0.07669
G1 X185.912 Y149.155 E0.01675
G1 X184.052 Y147.295 E0.08256
G1 X184.052 Y147.829 E0.01675
G1 X185.912 Y149.689 E0.08256
G1 X185.912 Y150.223 E0.01675
G1 X184.052 Y148.362 E0.08256
G1 X184.052 Y148.896 E0.01675
G1 X185.912 Y150.756 E0.08256
M73 P2 R56
G1 X185.912 Y151.290 E0.01675
G1 X184.052 Y149.430 E0.08256
G1 X184.052 Y149.963 E0.01675
G1 X185.912 Y151.824 E0.08256
G1 X185.912 Y152.357 E0.01675
G1 X184.052 Y150.497 E0.08256
G1 X184.052 Y151.031 E0.01675
G1 X185.912 Y152.891 E0.08256
G1 X185.912 Y153.425 E0.01675
G1 X184.052 Y151.565 E0.08256
G1 X184.052 Y152.098 E0.01675
G1 X185.912 Y153.959 E0.08256
G1 X185.912 Y154.492 E0.01675
G1 X184.052 Y152.632 E0.08256
G1 X184.052 Y153.166 E0.01675
G1 X185.912 Y155.026 E0.08256
G1 X185.912 Y155.560 E0.01675
G1 X184.052 Y153.699 E0.08256
G1 X184.052 Y154.233 E0.01675
G1 X185.912 Y156.093 E0.08256
G1 X185.912 Y156.627 E0.01675
G1 X184.052 Y154.767 E0.08256
G1 X184.052 Y155.063 E0.00929
G1 X183.814 Y155.063 E0.00746
G1 X185.674 Y156.923 E0.08256
G1 X185.141 Y156.923 E0.01675
G1 X183.280 Y155.063 E0.08256
G1 X182.747 Y155.063 E0.01675
G1 X184.607 Y156.923 E0.08256
G1 X184.073 Y156.923 E0.01675
G1 X182.213 Y155.063 E0.08256
G1 X181.679 Y155.063 E0.01675
G1 X183.539 Y156.923 E0.08256
G1 X183.006 Y156.923 E0.01675
G1 X181.145 Y155.063 E0.08256
G1 X180.612 Y155.063 E0.01675
G1 X182.472 Y156.923 E0.08256
G1 X181.938 Y156.923 E0.01675
G1 X180.078 Y155.063 E0.08256
G1 X179.544 Y155.063 E0.01675
G1 X181.405 Y156.923 E0.08256
G1 X180.871 Y156.923 E0.01675
G1 X163.011 Y139.063 E0.79262
G1 X162.477 Y139.063 E0.01675
G1 X176.337 Y152.923 E0.61511
G1 X175.803 Y152.923 E0.01675
G1 X161.943 Y139.063 E0.61511
G1 X161.409 Y139.063 E0.01675
G1 X175.270 Y152.923 E0.61511
G1 X174.736 Y152.923 E0.01675
G1 X160.876 Y139.063 E0.61511
G1 X160.342 Y139.063 E0.01675
G1 X174.202 Y152.923 E0.61511
G1 X173.668 Y152.923 E0.01675
G1 X159.808 Y139.063 E0.61511
G1 X159.275 Y139.063 E0.01675
G1 X173.135 Y152.923 E0.61511
G1 X172.601 Y152.923 E0.01675
G1 X158.741 Y139.063 E0.61511
G1 X158.207 Y139.063 E0.01675
G1 X172.067 Y152.923 E0.61511
G1 X171.534 Y152.923 E0.01675
G1 X157.673 Y139.063 E0.61511
G1 X157.140 Y139.063 E0.01675
G1 X171.000 Y152.923 E0.61511
G1 X170.466 Y152.923 E0.01675
G1 X156.606 Y139.063 E0.61511
G1 X156.072 Y139.063 E0.01675
G1 X169.932 Y152.923 E0.61511
G1 X169.399 Y152.923 E0.01675
G1 X155.538 Y139.063 E0.61511
G1 X155.005 Y139.063 E0.01675
M73 Q2 S56
G1 X168.865 Y152.923 E0.61511
G1 X168.331 Y152.923 E0.01675
G1 X154.471 Y139.063 E0.61511
G1 X153.937 Y139.063 E0.01675
G1 X167.798 Y152.923 E0.61511
G1 X167.264 Y152.923 E0.01675
G1 X153.404 Y139.063 E0.61511
G1 X152.870 Y139.063 E0.01675
G1 X166.730 Y152.923 E0.61511
G1 X166.196 Y152.923 E0.01675
G1 X152.336 Y139.063 E0.61511
G1 X151.802 Y139.063 E0.01675
G1 X165.663 Y152.923 E0.61511
G1 X165.129 Y152.923 E0.01675
G1 X151.269 Y139.063 E0.61511
G1 X150.735 Y139.063 E0.01675
G1 X164.595 Y152.923 E0.61511
G1 X164.062 Y152.923 E0.01675
G1 X150.201 Y139.063 E0.61511
G1 X149.668 Y139.063 E0.01675
G1 X163.528 Y152.923 E0.61511
G1 X162.994 Y152.923 E0.01675
G1 X149.134 Y139.063 E0.61511
M73 P3 R56
M73 Q3 S56
G1 X148.600 Y139.063 E0.01675
G1 X162.460 Y152.923 E0.61511
G1 X161.927 Y152.923 E0.01675
G1 X148.066 Y139.063 E0.61511
G1 X147.533 Y139.063 E0.01675
G1 X161.393 Y152.923 E0.61511
G1 X160.859 Y152.923 E0.01675
G1 X146.999 Y139.063 E0.61511
G1 X146.465 Y139.063 E0.01675
G1 X160.325 Y152.923 E0.61511
G1 X159.792 Y152.923 E0.01675
G1 X145.931 Y139.063 E0.61511
G1 X145.398 Y139.063 E0.01675
G1 X159.258 Y152.923 E0.61511
G1 X158.724 Y152.923 E0.01675
G1 X144.864 Y139.063 E0.61511
G1 X144.330 Y139.063 E0.01675
G1 X158.191 Y152.923 E0.61511
G1 X157.657 Y152.923 E0.01675
G1 X143.797 Y139.063 E0.61511
G1 X143.263 Y139.063 E0.01675
G1 X157.123 Y152.923 E0.61511
G1 X156.589 Y152.923 E0.01675
G1 X142.729 Y139.063 E0.61511
G1 X142.195 Y139.063 E0.01675
G1 X156.056 Y152.923 E0.61511
G1 X155.522 Y152.923 E0.01675
G1 X141.662 Y139.063 E0.61511
G1 X141.128 Y139.063 E0.01675
G1 X154.988 Y152.923 E0.61511
G1 X154.455 Y152.923 E0.01675
G1 X140.594 Y139.063 E0.61511
G1 X140.061 Y139.063 E0.01675
G1 X153.921 Y152.923 E0.61511
G1 X153.387 Y152.923 E0.01675
G1 X139.527 Y139.063 E0.61511
G1 X138.993 Y139.063 E0.01675
G1 X152.853 Y152.923 E0.61511
G1 X152.320 Y152.923 E0.01675
G1 X138.459 Y139.063 E0.61511
G1 X137.926 Y139.063 E0.01675
G1 X151.786 Y152.923 E0.61511
G1 X151.252 Y152.923 E0.01675
G1 X137.392 Y139.063 E0.61511
G1 X136.858 Y139.063 E0.01675
G1 X150.718 Y152.923 E0.61511
G1 X150.185 Y152.923 E0.01675
G1 X136.325 Y139.063 E0.61511
G1 X135.791 Y139.063 E0.01675
G1 X149.651 Y152.923 E0.61511
G1 X149.117 Y152.923 E0.01675
G1 X135.257 Y139.063 E0.61511
G1 X134.723 Y139.063 E0.01675
G1 X148.584 Y152.923 E0.61511
G1 X148.050 Y152.923 E0.01675
G1 X134.190 Y139.063 E0.61511
G1 X133.656 Y139.063 E0.01675
G1 X147.516 Y152.923 E0.61511
M73 P3 R55
G1 X146.982 Y152.923 E0.01675
G1 X133.122 Y139.063 E0.61511
G1 X132.588 Y139.063 E0.01675
G1 X146.449 Y152.923 E0.61511
G1 X145.915 Y152.923 E0.01675
G1 X132.055 Y139.063 E0.61511
G1 X131.521 Y139.063 E0.01675
G1 X145.381 Y152.923 E0.61511
G1 X144.848 Y152.923 E0.01675
G1 X130.987 Y139.063 E0.61511
M73 P4 R55
M73 Q4 S56
G1 X130.454 Y139.063 E0.01675
G1 X144.314 Y152.923 E0.61511
G1 X143.780 Y152.923 E0.01675
G1 X129.920 Y139.063 E0.61511
G1 X129.386 Y139.063 E0.01675
G1 X143.246 Y152.923 E0.61511
G1 X142.713 Y152.923 E0.01675
G1 X128.852 Y139.063 E0.61511
G1 X128.319 Y139.063 E0.01675
G1 X142.179 Y152.923 E0.61511
G1 X141.645 Y152.923 E0.01675
G1 X127.785 Y139.063 E0.61511
G1 X127.251 Y139.063 E0.01675
G1 X141.111 Y152.923 E0.61511
G1 X140.578 Y152.923 E0.01675
G1 X126.718 Y139.063 E0.61511
G1 X126.184 Y139.063 E0.01675
G1 X140.044 Y152.923 E0.61511
G1 X139.510 Y152.923 E0.01675
G1 X125.650 Y139.063 E0.61511
G1 X125.116 Y139.063 E0.01675
G1 X138.977 Y152.923 E0.61511
G1 X138.443 Y152.923 E0.01675
G1 X124.583 Y139.063 E0.61511
G1 X124.049 Y139.063 E0.01675
G1 X137.909 Y152.923 E0.61511
M73 Q4 S55
G1 X137.375 Y152.923 E0.01675
G1 X123.515 Y139.063 E0.61511
G1 X122.981 Y139.063 E0.01675
G1 X136.842 Y152.923 E0.61511
G1 X136.308 Y152.923 E0.01675
G1 X122.448 Y139.063 E0.61511
G1 X121.914 Y139.063 E0.01675
G1 X135.774 Y152.923 E0.61511
G1 X135.241 Y152.923 E0.01675
G1 X121.380 Y139.063 E0.61511
G1 X120.847 Y139.063 E0.01675
G1 X134.707 Y152.923 E0.61511
G1 X134.173 Y152.923 E0.01675
G1 X120.313 Y139.063 E0.61511
G1 X119.779 Y139.063 E0.01675
G1 X133.639 Y152.923 E0.61511
G1 X133.106 Y152.923 E0.01675
G1 X119.245 Y139.063 E0.61511
G1 X118.712 Y139.063 E0.01675
G1 X132.572 Y152.923 E0.61511
G1 X132.038 Y152.923 E0.01675
G1 X118.178 Y139.063 E0.61511
G1 X117.644 Y139.063 E0.01675
G1 X131.505 Y152.923 E0.61511
G1 X130.971 Y152.923 E0.01675
G1 X117.111 Y139.063 E0.61511
G1 X116.577 Y139.063 E0.01675
G1 X130.437 Y152.923 E0.61511
G1 X129.903 Y152.923 E0.01675
G1 X116.043 Y139.063 E0.61511
G1 X115.509 Y139.063 E0.01675
G1 X129.370 Y152.923 E0.61511
G1 X128.836 Y152.923 E0.01675
G1 X114.976 Y139.063 E0.61511
G1 X114.442 Y139.063 E0.01675
G1 X128.302 Y152.923 E0.61511
G1 X127.768 Y152.923 E0.01675
G1 X113.908 Y139.063 E0.61511
G1 X113.374 Y139.063 E0.01675
G1 X127.235 Y152.923 E0.61511
G1 X126.701 Y152.923 E0.01675
G1 X112.841 Y139.063 E0.61511
M73 P5 R55
M73 Q5 S55
G1 X112.307 Y139.063 E0.01675
G1 X126.167 Y152.923 E0.61511
G1 X125.634 Y152.923 E0.01675
G1 X111.773 Y139.063 E0.61511
G1 X111.240 Y139.063 E0.01675
G1 X125.100 Y152.923 E0.61511
G1 X124.566 Y152.923 E0.01675
G1 X110.706 Y139.063 E0.61511
G1 X110.172 Y139.063 E0.01675
G1 X124.032 Y152.923 E0.61511
G1 X123.499 Y152.923 E0.01675
G1 X109.638 Y139.063 E0.61511
G1 X109.105 Y139.063 E0.01675
G1 X122.965 Y152.923 E0.61511
G1 X122.431 Y152.923 E0.01675
G1 X108.571 Y139.063 E0.61511
G1 X108.037 Y139.063 E0.01675
G1 X121.898 Y152.923 E0.61511
G1 X121.364 Y152.923 E0.01675
G1 X107.504 Y139.063 E0.61511
G1 X106.970 Y139.063 E0.01675
G1 X120.830 Y152.923 E0.61511
G1 X120.296 Y152.923 E0.01675
G1 X106.436 Y139.063 E0.61511
G1 X105.902 Y139.063 E0.01675
G1 X119.763 Y152.923 E0.61511
G1 X119.229 Y152.923 E0.01675
G1 X105.369 Y139.063 E0.61511
G1 X104.835 Y139.063 E0.01675
G1 X118.695 Y152.923 E0.61511
G1 X118.161 Y152.923 E0.01675
G1 X104.301 Y139.063 E0.61511
G1 X103.768 Y139.063 E0.01675
G1 X117.628 Y152.923 E0.61511
G1 X117.094 Y152.923 E0.01675
G1 X103.234 Y139.063 E0.61511
G1 X102.700 Y139.063 E0.01675
G1 X116.560 Y152.923 E0.61511
G1 X116.027 Y152.923 E0.01675
G1 X102.166 Y139.063 E0.61511
