; generated by PrusaSlicer 2.3.1+x64 on 2023-02-16 at 03:27:50 UTC

; 

; external perimeters extrusion width = 0.45mm
; perimeters extrusion width = 0.45mm
; infill extrusion width = 0.45mm
; solid infill extrusion width = 0.45mm
; top infill extrusion width = 0.40mm
; first layer extrusion width = 0.42mm

M73 P0 R50
M73 Q0 S50
M201 X1000 Y1000 Z200 E5000 ; sets maximum accelerations, mm/sec^2
M203 X200 Y200 Z12 E120 ; sets maximum feedrates, mm/sec
M204 P1250 R1250 T1250 ; sets acceleration (P, T) and retract acceleration (R), mm/sec^2
M205 X8.00 Y8.00 Z0.40 E4.50 ; sets the jerk limits, mm/sec
M205 S0 T0 ; sets the minimum extruding and travel feed rate, mm/sec
M107
;TYPE:Custom
M862.3 P "MK3" ; printer model check
M862.1 P0.4 ; nozzle diameter check
M115 U3.9.3 ; tell printer latest fw version
G90 ; use absolute coordinates
M83 ; extruder relative mode
M104 S120 ; set extruder temp
M140 S85 ; set bed temp
M190 S85 ; wait for bed temp
M104 S240 ; set extruder temp
M109 S240 ; wait for extruder temp
G28 W ; home all without mesh bed level
G80 ; mesh bed leveling
G1 Y-3.0 F1000.0 ; go outside print area
G92 E0.0
G1 X60.0 E9.0 F1000.0 ; intro line
G1 X100.0 E12.5 F1000.0 ; intro line
G92 E0.0
M221 S95

; Don't change E values below. Excessive value can damage the printer.

M907 E538 ; set extruder motor current
G21 ; set units to millimeters
G90 ; use absolute coordinates
M83 ; use relative distances for extrusion
M900 K0.08 ; Filament gcode LA 1.5
M900 K45 ; Filament gcode LA 1.0
;LAYER_CHANGE
;Z:0.2
;HEIGHT:0.2
;BEFORE_LAYER_CHANGE
G92 E0.0
;0.2


G1 E-1.00000 F2100.000
G1 Z0.200 F10800.000
;AFTER_LAYER_CHANGE
;0.2
G1 Z0.400
G1 X142.333 Y145.365
G1 Z0.200
G1 E1.00000 F2100.000
M204 S1000
;TYPE:Skirt
;WIDTH:0.42
G1 F1200.000
G1 X141.897 Y144.655 E0.02614
G1 X141.734 Y143.837 E0.02614
G1 X142.234 Y78.652 E2.04390
G1 X142.345 Y77.128 E0.04791
G1 X142.850 Y74.929 E0.07075
G1 X143.751 Y72.848 E0.07110
G1 X145.017 Y70.966 E0.07111
G1 X146.602 Y69.350 E0.07099
G1 X148.462 Y68.045 E0.07122
G1 X150.517 Y67.106 E0.07087
G1 X152.717 Y66.555 E0.07110
G1 X154.920 Y66.414 E0.06920
G1 X157.172 Y66.678 E0.07110
G1 X158.783 Y67.136 E0.05250
G1 X160.772 Y68.052 E0.06866
G1 X161.971 Y68.837 E0.04494
G1 X162.667 Y69.392 E0.02791
G1 X164.208 Y70.972 E0.06920
G1 X165.473 Y72.854 E0.07110
G1 X166.372 Y74.932 E0.07099
G1 X166.880 Y77.158 E0.07158
G1 X166.973 Y79.374 E0.06956
G1 X164.464 Y142.116 E1.96881
G1 X164.252 Y142.817 E0.02296
G1 X163.837 Y143.420 E0.02296
G1 X163.258 Y143.868 E0.02296
G1 X162.566 Y144.120 E0.02308
G1 X147.364 Y146.150 E0.48089
G1 X143.780 Y146.141 E0.11237
G1 X142.988 Y145.882 E0.02614
G1 X142.380 Y145.403 E0.02426
; printing object Antenna Arm v3.stl id:0 copy 0
;WIPE_START
G1 F8640.000
G1 X141.897 Y144.655 E-0.20555
G1 X141.734 Y143.837 E-0.19249
G1 X141.752 Y141.447 E-0.55196
;WIPE_END
G1 E-0.05000 F2100.000
G1 Z0.400 F10800.000
G1 X153.957 Y82.772
G1 Z0.200
G1 E1.00000 F2100.000
;TYPE:Perimeter
G1 F1200.000
G1 X153.530 Y82.678 E0.01371
G1 X153.116 Y82.538 E0.01371
G1 X152.719 Y82.355 E0.01371
G1 X152.344 Y82.129 E0.01371
G1 X151.996 Y81.865 E0.01371
G1 X151.679 Y81.564 E0.01371
G1 X151.395 Y81.231 E0.01371
G1 X151.150 Y80.869 E0.01371
G1 X150.945 Y80.482 E0.01371
G1 X150.783 Y80.076 E0.01371
G1 X150.666 Y79.655 E0.01371
G1 X150.596 Y79.223 E0.01371
G1 X150.573 Y78.811 E0.01295
G1 X150.595 Y78.352 E0.01441
G1 X150.666 Y77.919 E0.01377
G1 X150.783 Y77.497 E0.01371
G1 X150.945 Y77.091 E0.01371
G1 X151.150 Y76.705 E0.01371
G1 X151.395 Y76.343 E0.01371
G1 X151.679 Y76.010 E0.01371
G1 X151.996 Y75.709 E0.01371
G1 X152.344 Y75.444 E0.01371
G1 X152.719 Y75.219 E0.01371
G1 X153.093 Y75.046 E0.01295
G1 X153.528 Y74.896 E0.01441
G1 X153.957 Y74.802 E0.01377
G1 X154.392 Y74.754 E0.01371
G1 X154.829 Y74.754 E0.01371
G1 X155.264 Y74.802 E0.01371
G1 X155.691 Y74.896 E0.01371
G1 X156.105 Y75.035 E0.01371
G1 X156.502 Y75.219 E0.01371
G1 X156.876 Y75.444 E0.01371
G1 X157.225 Y75.709 E0.01371
G1 X157.542 Y76.010 E0.01371
G1 X157.825 Y76.343 E0.01371
G1 X158.070 Y76.705 E0.01371
G1 X158.264 Y77.070 E0.01295
G1 X158.437 Y77.496 E0.01441
G1 X158.554 Y77.919 E0.01377
G1 X158.625 Y78.350 E0.01371
G1 X158.649 Y78.787 E0.01371
G1 X158.625 Y79.223 E0.01371
G1 X158.554 Y79.655 E0.01371
G1 X158.437 Y80.076 E0.01371
G1 X158.275 Y80.482 E0.01371
G1 X158.070 Y80.869 E0.01371
G1 X157.825 Y81.231 E0.01371
G1 X157.558 Y81.545 E0.01295
G1 X157.226 Y81.863 E0.01441
G1 X156.876 Y82.129 E0.01377
G1 X156.502 Y82.355 E0.01371
G1 X156.105 Y82.538 E0.01371
G1 X155.691 Y82.678 E0.01371
G1 X155.264 Y82.772 E0.01371
G1 X154.829 Y82.819 E0.01371
G1 X154.392 Y82.819 E0.01371
G1 X154.017 Y82.778 E0.01183
G1 X154.057 Y82.403 F10800.000
;TYPE:External perimeter
G1 F1200.000
G1 X153.631 Y82.314 E0.01366
G1 X153.255 Y82.187 E0.01243
G1 X152.896 Y82.021 E0.01243
G1 X152.556 Y81.817 E0.01243
G1 X152.240 Y81.577 E0.01243
G1 X151.953 Y81.304 E0.01243
G1 X151.696 Y81.002 E0.01243
G1 X151.474 Y80.674 E0.01243
G1 X151.288 Y80.324 E0.01243
G1 X151.141 Y79.956 E0.01243
G1 X151.035 Y79.574 E0.01243
G1 X150.971 Y79.183 E0.01243
G1 X150.951 Y78.810 E0.01170
G1 X150.971 Y78.392 E0.01313
G1 X151.035 Y78.000 E0.01245
G1 X151.141 Y77.618 E0.01243
G1 X151.288 Y77.250 E0.01243
G1 X151.474 Y76.899 E0.01243
G1 X151.696 Y76.571 E0.01243
G1 X151.953 Y76.269 E0.01243
G1 X152.240 Y75.997 E0.01243
G1 X152.556 Y75.757 E0.01243
G1 X152.896 Y75.553 E0.01243
G1 X153.234 Y75.396 E0.01170
G1 X153.630 Y75.260 E0.01313
G1 X154.018 Y75.174 E0.01245
G1 X154.412 Y75.131 E0.01243
G1 X154.808 Y75.131 E0.01243
G1 X155.203 Y75.174 E0.01243
G1 X155.590 Y75.260 E0.01243
G1 X155.965 Y75.386 E0.01243
G1 X156.325 Y75.553 E0.01243
G1 X156.665 Y75.757 E0.01243
G1 X156.980 Y75.997 E0.01243
G1 X157.268 Y76.269 E0.01243
G1 X157.524 Y76.571 E0.01243
G1 X157.747 Y76.899 E0.01243
G1 X157.922 Y77.229 E0.01170
G1 X158.079 Y77.617 E0.01313
G1 X158.185 Y78.000 E0.01245
G1 X158.249 Y78.391 E0.01243
G1 X158.271 Y78.787 E0.01243
G1 X158.249 Y79.183 E0.01243
G1 X158.185 Y79.574 E0.01243
G1 X158.079 Y79.956 E0.01243
G1 X157.933 Y80.324 E0.01243
G1 X157.747 Y80.674 E0.01243
G1 X157.524 Y81.002 E0.01243
G1 X157.283 Y81.286 E0.01170
G1 X156.981 Y81.576 E0.01313
G1 X156.665 Y81.817 E0.01245
G1 X156.325 Y82.021 E0.01243
G1 X155.965 Y82.187 E0.01243
G1 X155.590 Y82.314 E0.01243
M73 P0 R49
G1 X155.203 Y82.399 E0.01243
G1 X154.808 Y82.442 E0.01243
G1 X154.412 Y82.442 E0.01243
G1 X154.117 Y82.410 E0.00931
G1 X153.806 Y82.715 F10800.000
;WIPE_START
G1 F8640.000
G1 X153.631 Y82.314 E-0.11440
G1 X153.255 Y82.187 E-0.09152
G1 X152.896 Y82.021 E-0.09152
G1 X152.556 Y81.817 E-0.09152
G1 X152.240 Y81.577 E-0.09152
G1 X151.953 Y81.304 E-0.09152
G1 X151.696 Y81.002 E-0.09152
G1 X151.474 Y80.674 E-0.09152
G1 X151.288 Y80.324 E-0.09152
G1 X151.141 Y79.956 E-0.09152
G1 X151.128 Y79.906 E-0.01191
;WIPE_END
G1 E-0.05000 F2100.000
G1 Z0.400 F10800.000
G1 X147.897 Y85.117
G1 Z0.200
G1 E1.00000 F2100.000
;TYPE:Perimeter
G1 F1200.000
G1 X147.341 Y84.447 E0.02732
G1 X147.009 Y83.992 E0.01766
G1 X146.705 Y83.517 E0.01766
G1 X146.431 Y83.025 E0.01766
G1 X146.187 Y82.517 E0.01766
G1 X145.975 Y81.996 E0.01766
G1 X145.795 Y81.462 E0.01766
G1 X145.648 Y80.918 E0.01766
G1 X145.534 Y80.366 E0.01766
G1 X145.455 Y79.808 E0.01766
G1 X145.409 Y79.247 E0.01766
G1 X145.398 Y78.684 E0.01766
G1 X145.422 Y78.121 E0.01766
G1 X145.480 Y77.560 E0.01766
G1 X145.572 Y77.005 E0.01766
G1 X145.698 Y76.455 E0.01766
G1 X145.857 Y75.915 E0.01766
G1 X146.049 Y75.385 E0.01766
G1 X146.273 Y74.868 E0.01766
G1 X146.528 Y74.366 E0.01766
G1 X146.813 Y73.880 E0.01766
G1 X147.127 Y73.413 E0.01766
G1 X147.470 Y72.966 E0.01766
G1 X147.839 Y72.540 E0.01766
G1 X148.234 Y72.138 E0.01766
G1 X148.652 Y71.761 E0.01765
G1 X149.104 Y71.401 E0.01811
G1 X149.554 Y71.086 E0.01723
G1 X150.034 Y70.791 E0.01766
G1 X150.531 Y70.527 E0.01766
G1 X151.044 Y70.293 E0.01766
G1 X151.569 Y70.091 E0.01766
G1 X152.107 Y69.921 E0.01766
G1 X152.653 Y69.784 E0.01766
G1 X153.207 Y69.682 E0.01766
G1 X153.766 Y69.613 E0.01766
G1 X154.328 Y69.579 E0.01765
G1 X154.906 Y69.579 E0.01811
G1 X155.454 Y69.613 E0.01723
G1 X156.013 Y69.682 E0.01766
G1 X156.567 Y69.784 E0.01766
G1 X157.114 Y69.921 E0.01766
G1 X157.651 Y70.091 E0.01766
G1 X158.177 Y70.293 E0.01766
G1 X158.689 Y70.527 E0.01766
G1 X159.187 Y70.791 E0.01766
G1 X159.667 Y71.086 E0.01766
G1 X160.128 Y71.409 E0.01766
G1 X160.569 Y71.760 E0.01766
G1 X160.987 Y72.138 E0.01766
G1 X161.382 Y72.540 E0.01766
G1 X161.751 Y72.966 E0.01766
G1 X162.093 Y73.413 E0.01766
G1 X162.408 Y73.880 E0.01766
G1 X162.693 Y74.366 E0.01766
G1 X162.948 Y74.868 E0.01766
G1 X163.172 Y75.385 E0.01766
G1 X163.364 Y75.915 E0.01766
G1 X163.523 Y76.455 E0.01766
G1 X163.649 Y77.005 E0.01766
G1 X163.741 Y77.560 E0.01766
G1 X163.799 Y78.121 E0.01766
G1 X163.822 Y78.684 E0.01766
G1 X163.811 Y79.247 E0.01766
G1 X163.766 Y79.808 E0.01766
G1 X163.686 Y80.366 E0.01766
G1 X163.573 Y80.918 E0.01766
G1 X163.426 Y81.462 E0.01766
G1 X163.246 Y81.996 E0.01766
G1 X163.034 Y82.517 E0.01766
G1 X162.790 Y83.025 E0.01766
G1 X162.516 Y83.517 E0.01766
G1 X162.212 Y83.992 E0.01766
G1 X161.879 Y84.447 E0.01766
G1 X161.323 Y85.117 E0.02732
G1 X161.323 Y141.000 E1.75215
G1 X146.323 Y141.000 E0.47031
G1 X146.323 Y143.000 E0.06271
G1 X144.897 Y143.000 E0.04471
G1 X144.897 Y142.113 E0.02781
G1 X147.897 Y139.113 E0.13302
G1 X147.897 Y85.177 E1.69111
M73 Q1 S49
G1 X147.520 Y85.253 F10800.000
;TYPE:External perimeter
G1 F1200.000
G1 X147.044 Y84.678 E0.02342
G1 X146.698 Y84.205 E0.01839
G1 X146.381 Y83.711 E0.01839
G1 X146.096 Y83.199 E0.01839
G1 X145.842 Y82.670 E0.01839
G1 X145.621 Y82.127 E0.01839
G1 X145.434 Y81.571 E0.01839
G1 X145.281 Y81.005 E0.01839
M73 P1 R49
G1 X145.162 Y80.431 E0.01839
G1 X145.080 Y79.850 E0.01839
G1 X145.032 Y79.266 E0.01839
G1 X145.021 Y78.679 E0.01839
G1 X145.046 Y78.093 E0.01839
G1 X145.106 Y77.510 E0.01839
G1 X145.202 Y76.932 E0.01839
G1 X145.333 Y76.360 E0.01839
G1 X145.498 Y75.797 E0.01839
G1 X145.698 Y75.246 E0.01839
G1 X145.931 Y74.708 E0.01839
G1 X146.197 Y74.185 E0.01839
G1 X146.494 Y73.679 E0.01839
G1 X146.821 Y73.193 E0.01839
G1 X147.177 Y72.727 E0.01839
G1 X147.562 Y72.284 E0.01839
G1 X147.972 Y71.866 E0.01839
G1 X148.408 Y71.473 E0.01838
G1 X148.878 Y71.099 E0.01883
G1 X149.347 Y70.771 E0.01794
G1 X149.846 Y70.464 E0.01839
G1 X150.364 Y70.188 E0.01839
G1 X150.898 Y69.945 E0.01839
G1 X151.445 Y69.734 E0.01839
G1 X152.004 Y69.558 E0.01839
G1 X152.573 Y69.416 E0.01839
G1 X153.150 Y69.309 E0.01839
G1 X153.732 Y69.237 E0.01839
G1 X154.317 Y69.201 E0.01838
G1 X154.918 Y69.202 E0.01883
G1 X155.489 Y69.237 E0.01794
G1 X156.071 Y69.309 E0.01839
G1 X156.647 Y69.416 E0.01839
G1 X157.216 Y69.558 E0.01839
G1 X157.776 Y69.734 E0.01839
G1 X158.323 Y69.945 E0.01839
G1 X158.857 Y70.188 E0.01839
G1 X159.374 Y70.464 E0.01839
G1 X159.874 Y70.771 E0.01839
G1 X160.354 Y71.107 E0.01839
G1 X160.813 Y71.473 E0.01839
G1 X161.248 Y71.866 E0.01839
G1 X161.659 Y72.284 E0.01839
G1 X162.043 Y72.727 E0.01839
G1 X162.400 Y73.193 E0.01839
G1 X162.727 Y73.679 E0.01839
G1 X163.024 Y74.185 E0.01839
G1 X163.289 Y74.708 E0.01839
G1 X163.523 Y75.246 E0.01839
G1 X163.722 Y75.797 E0.01839
G1 X163.888 Y76.360 E0.01839
G1 X164.019 Y76.932 E0.01839
G1 X164.115 Y77.510 E0.01839
G1 X164.175 Y78.093 E0.01839
G1 X164.199 Y78.679 E0.01839
G1 X164.188 Y79.266 E0.01839
G1 X164.141 Y79.850 E0.01839
G1 X164.058 Y80.431 E0.01839
G1 X163.940 Y81.005 E0.01839
G1 X163.787 Y81.571 E0.01839
G1 X163.600 Y82.127 E0.01839
G1 X163.379 Y82.670 E0.01839
G1 X163.125 Y83.199 E0.01839
G1 X162.839 Y83.711 E0.01839
G1 X162.523 Y84.205 E0.01839
G1 X162.177 Y84.678 E0.01839
G1 X161.700 Y85.253 E0.02342
G1 X161.700 Y141.377 E1.75971
G1 X146.700 Y141.377 E0.47031
G1 X146.700 Y143.377 E0.06271
G1 X144.520 Y143.377 E0.06835
G1 X144.520 Y141.957 E0.04453
G1 X147.520 Y138.957 E0.13302
G1 X147.520 Y85.313 E1.68195
G1 X147.747 Y84.924 F10800.000
;WIPE_START
G1 F8640.000
G1 X147.044 Y84.678 E-0.18332
G1 X146.698 Y84.205 E-0.13541
G1 X146.381 Y83.711 E-0.13541
G1 X146.096 Y83.199 E-0.13541
G1 X145.842 Y82.670 E-0.13541
G1 X145.621 Y82.127 E-0.13541
G1 X145.497 Y81.759 E-0.08964
;WIPE_END
G1 E-0.05000 F2100.000
G1 Z0.400 F10800.000
G1 X162.153 Y73.704
G1 Z0.200
G1 E1.00000 F2100.000
;TYPE:Solid infill
;WIDTH:0.420874
G1 F1200.000
G1 X160.785 Y72.336 E0.06080
G1 X160.386 Y71.976 E0.01689
G1 X159.959 Y71.636 E0.01716
G1 X159.512 Y71.322 E0.01716
G1 X158.842 Y70.928 E0.02441
G1 X162.474 Y74.560 E0.16142
G1 X162.692 Y74.989 E0.01510
G1 X162.932 Y75.552 E0.01923
G1 X157.849 Y70.470 E0.22588
G1 X157.039 Y70.194 E0.02690
G1 X163.198 Y76.353 E0.27374
G1 X163.372 Y77.061 E0.02291
G1 X156.341 Y70.030 E0.31249
G1 X155.705 Y69.929 E0.02024
G1 X163.470 Y77.694 E0.34514
G1 X163.522 Y78.281 E0.01850
G1 X155.117 Y69.876 E0.37357
G1 X154.569 Y69.862 E0.01724
G1 X163.537 Y78.830 E0.39857
G1 X163.520 Y79.347 E0.01627
G1 X154.051 Y69.879 E0.42081
G1 X153.561 Y69.923 E0.01547
G1 X163.476 Y79.838 E0.44067
G1 X163.409 Y80.306 E0.01485
G1 X153.094 Y69.990 E0.45847
G1 X152.647 Y70.078 E0.01432
G1 X163.319 Y80.750 E0.47432
G1 X163.210 Y81.176 E0.01381
G1 X152.219 Y70.184 E0.48851
G1 X151.811 Y70.311 E0.01342
G1 X156.326 Y74.826 E0.20067
G1 X156.634 Y74.969 E0.01069
G1 X157.035 Y75.210 E0.01471
G1 X157.408 Y75.493 E0.01471
G1 X157.748 Y75.815 E0.01471
G1 X158.051 Y76.172 E0.01471
G1 X158.313 Y76.559 E0.01471
G1 X158.569 Y77.069 E0.01792
G1 X163.086 Y81.586 E0.20076
G1 X162.947 Y81.981 E0.01317
G1 X158.832 Y77.867 E0.18286
G1 X158.906 Y78.320 E0.01442
G1 X158.915 Y78.484 E0.00519
G1 X162.792 Y82.361 E0.17230
G1 X162.621 Y82.724 E0.01262
G1 X158.919 Y79.022 E0.16452
G1 X158.906 Y79.254 E0.00729
G1 X158.865 Y79.504 E0.00795
G1 X162.438 Y83.076 E0.15877
G1 X162.244 Y83.417 E0.01232
G1 X158.768 Y79.941 E0.15449
G1 X158.635 Y80.342 E0.01330
G1 X162.035 Y83.742 E0.15111
G1 X161.814 Y84.056 E0.01205
G1 X158.473 Y80.714 E0.14853
G1 X158.283 Y81.059 E0.01237
G1 X161.584 Y84.360 E0.14670
G1 X161.342 Y84.652 E0.01193
G1 X158.067 Y81.378 E0.14553
G1 X157.824 Y81.669 E0.01193
G1 X161.099 Y84.944 E0.14558
G1 X161.040 Y85.015 E0.00290
G1 X161.040 Y85.420 E0.01272
G1 X157.558 Y81.937 E0.15479
G1 X157.271 Y82.185 E0.01191
G1 X161.040 Y85.955 E0.16755
G1 X161.040 Y86.489 E0.01680
G1 X156.960 Y82.409 E0.18134
G1 X156.626 Y82.609 E0.01225
G1 X161.040 Y87.024 E0.19621
G1 X161.040 Y87.558 E0.01680
G1 X156.260 Y82.778 E0.21245
G1 X155.865 Y82.917 E0.01317
G1 X161.040 Y88.093 E0.23001
G1 X161.040 Y88.627 E0.01680
G1 X155.437 Y83.023 E0.24906
G1 X154.967 Y83.088 E0.01489
G1 X161.040 Y89.162 E0.26992
G1 X161.040 Y89.696 E0.01680
G1 X154.446 Y83.102 E0.29308
G1 X153.847 Y83.037 E0.01894
G1 X161.040 Y90.231 E0.31971
G1 X161.040 Y90.765 E0.01680
G1 X152.785 Y82.510 E0.36689
;WIPE_START
G1 F8640.000
G1 X155.695 Y85.419 E-0.95000
;WIPE_END
G1 E-0.05000 F2100.000
G1 Z0.400 F10800.000
G1 X155.768 Y74.802
G1 Z0.200
G1 E1.00000 F2100.000
G1 F1200.000
G1 X151.417 Y70.452 E0.19335
G1 X151.037 Y70.606 E0.01289
G1 X154.910 Y74.479 E0.17211
G1 X154.369 Y74.472 E0.01700
G1 X150.670 Y70.774 E0.16438
G1 X150.321 Y70.959 E0.01243
G1 X153.889 Y74.527 E0.15859
G1 X153.451 Y74.624 E0.01410
G1 X149.982 Y71.155 E0.15417
G1 X149.654 Y71.361 E0.01218
G1 X153.053 Y74.760 E0.15108
G1 X152.683 Y74.924 E0.01274
G1 X149.340 Y71.581 E0.14857
G1 X149.038 Y71.815 E0.01197
G1 X152.340 Y75.116 E0.14675
G1 X152.023 Y75.333 E0.01209
G1 X148.746 Y72.056 E0.14564
G1 X148.465 Y72.310 E0.01189
G1 X151.728 Y75.573 E0.14503
G1 X151.456 Y75.835 E0.01188
G1 X148.198 Y72.578 E0.14478
G1 X147.941 Y72.855 E0.01189
G1 X151.210 Y76.124 E0.14532
G1 X150.989 Y76.438 E0.01206
G1 X147.692 Y73.141 E0.14654
G1 X147.460 Y73.443 E0.01198
G1 X150.792 Y76.776 E0.14810
M73 Q2 S49
G1 X150.622 Y77.139 E0.01263
G1 X147.238 Y73.755 E0.15039
G1 X147.025 Y74.077 E0.01212
G1 X150.480 Y77.532 E0.15356
M73 P2 R49
G1 X150.373 Y77.960 E0.01385
G1 X146.827 Y74.414 E0.15759
G1 X146.643 Y74.764 E0.01243
G1 X150.309 Y78.430 E0.16292
G1 X150.298 Y78.954 E0.01647
G1 X146.470 Y75.125 E0.17015
G1 X146.308 Y75.499 E0.01278
G1 X150.363 Y79.553 E0.18022
