; generated by PrusaSlicer 2.3.1+x64 on 2023-02-16 at 20:59:42 UTC

; 

; external perimeters extrusion width = 0.45mm
; perimeters extrusion width = 0.45mm
; infill extrusion width = 0.45mm
; solid infill extrusion width = 0.45mm
; top infill extrusion width = 0.40mm
; support material extrusion width = 0.35mm
; first layer extrusion width = 0.42mm

M73 P0 R79
M73 Q0 S79
M201 X1000 Y1000 Z200 E5000 ; sets maximum accelerations, mm/sec^2
M203 X200 Y200 Z12 E120 ; sets maximum feedrates, mm/sec
M204 P1250 R1250 T1250 ; sets acceleration (P, T) and retract acceleration (R), mm/sec^2
M205 X8.00 Y8.00 Z0.40 E4.50 ; sets the jerk limits, mm/sec
M205 S0 T0 ; sets the minimum extruding and travel feed rate, mm/sec
M107
;TYPE:Custom
M862.3 P "MK3" ; printer model check
M862.1 P0.4 ; nozzle diameter check
M115 U3.9.3 ; tell printer latest fw version
G90 ; use absolute coordinates
M83 ; extruder relative mode
M104 S120 ; set extruder temp
M140 S85 ; set bed temp
M190 S85 ; wait for bed temp
M104 S240 ; set extruder temp
M109 S240 ; wait for extruder temp
G28 W ; home all without mesh bed level
G80 ; mesh bed leveling
G1 Y-3.0 F1000.0 ; go outside print area
G92 E0.0
G1 X60.0 E9.0 F1000.0 ; intro line
G1 X100.0 E12.5 F1000.0 ; intro line
G92 E0.0
M221 S95

; Don't change E values below. Excessive value can damage the printer.

M907 E538 ; set extruder motor current
G21 ; set units to millimeters
G90 ; use absolute coordinates
M83 ; use relative distances for extrusion
M900 K0.08 ; Filament gcode LA 1.5
M900 K45 ; Filament gcode LA 1.0
;LAYER_CHANGE
;Z:0.2
;HEIGHT:0.2
;BEFORE_LAYER_CHANGE
G92 E0.0
;0.2


G1 E-1.00000 F2100.000
G1 Z0.200 F10800.000
;AFTER_LAYER_CHANGE
;0.2
G1 Z0.400
G1 X142.605 Y79.022
G1 Z0.200
G1 E1.00000 F2100.000
M204 S1000
;TYPE:Skirt
;WIDTH:0.42
G1 F1200.000
G1 X233.083 Y78.975 E2.83687
G1 X233.612 Y79.035 E0.01668
G1 X234.114 Y79.212 E0.01669
G1 X234.564 Y79.495 E0.01668
G1 X234.940 Y79.872 E0.01668
G1 X242.037 Y90.004 E0.38788
G1 X242.348 Y90.642 E0.02225
G1 X242.456 Y91.332 E0.02190
G1 X242.439 Y101.637 E0.32309
G1 X242.262 Y102.293 E0.02130
G1 X241.907 Y102.872 E0.02130
G1 X241.402 Y103.327 E0.02130
G1 X240.789 Y103.620 E0.02130
G1 X240.111 Y103.729 E0.02154
G1 X232.984 Y103.727 E0.22345
G1 X142.943 Y99.725 E2.82595
G1 X142.185 Y99.554 E0.02437
G1 X141.522 Y99.148 E0.02437
G1 X141.026 Y98.549 E0.02437
G1 X140.750 Y97.827 E0.02426
G1 X140.713 Y81.120 E0.52384
G1 X140.904 Y80.393 E0.02355
G1 X141.314 Y79.760 E0.02367
G1 X141.899 Y79.288 E0.02355
G1 X142.549 Y79.043 E0.02178
; printing object Antenna Arm v6.stl id:0 copy 0
;WIPE_START
G1 F8640.000
G1 X146.663 Y79.040 E-0.95000
;WIPE_END
G1 E-0.05000 F2100.000
G1 Z0.400 F10800.000
G1 X157.642 Y89.961
G1 Z0.200
G1 E1.00000 F2100.000
;TYPE:Support material
G1 F1200.000
G1 X157.642 Y89.082 E0.02756
G1 X156.888 Y87.776 E0.04729
G1 X156.888 Y90.928 E0.09883
G1 X156.134 Y92.234 E0.04729
G1 X156.134 Y86.469 E0.18075
G1 X155.439 Y85.265 E0.04360
G1 X155.380 Y85.265 E0.00185
G1 X155.380 Y93.438 E0.25626
G1 X154.625 Y93.438 E0.02365
G1 X154.625 Y85.265 E0.25626
G1 X153.871 Y85.265 E0.02365
G1 X153.871 Y93.438 E0.25626
G1 X153.117 Y93.438 E0.02365
G1 X153.117 Y85.265 E0.25626
G1 X152.363 Y85.265 E0.02365
G1 X152.363 Y93.438 E0.25626
G1 X151.609 Y93.438 E0.02365
G1 X151.609 Y85.265 E0.25626
G1 X150.855 Y85.265 E0.02365
G1 X150.855 Y93.438 E0.25626
G1 X150.720 Y93.438 E0.00422
G1 X150.100 Y92.365 E0.03884
G1 X150.100 Y86.338 E0.18898
G1 X149.346 Y87.644 E0.04729
G1 X149.346 Y91.059 E0.10707
G1 X148.592 Y89.753 E0.04729
G1 X148.592 Y88.611 E0.03579
;WIPE_START
G1 F8640.000
G1 X148.592 Y89.753 E-0.26359
G1 X149.346 Y91.059 E-0.34827
G1 X149.346 Y89.595 E-0.33813
;WIPE_END
G1 E-0.05000 F2100.000
G1 Z0.400 F10800.000
G1 X150.027 Y84.065
G1 Z0.200
G1 E1.00000 F2100.000
;TYPE:Perimeter
G1 F1200.000
G1 X156.132 Y84.065 E0.19142
G1 X156.736 Y85.111 E0.03787
G1 X159.184 Y89.352 E0.15355
G1 X156.132 Y94.639 E0.19142
G1 X150.027 Y94.639 E0.19142
G1 X146.974 Y89.352 E0.19142
G1 X149.997 Y84.117 E0.18954
G1 X150.244 Y84.442 F10800.000
;TYPE:External perimeter
G1 F1200.000
G1 X155.914 Y84.442 E0.17777
G1 X156.409 Y85.299 E0.03105
G1 X158.749 Y89.352 E0.14672
G1 X155.914 Y94.262 E0.17777
G1 X150.244 Y94.262 E0.17777
G1 X147.410 Y89.352 E0.17777
G1 X150.214 Y84.494 E0.17588
G1 X150.244 Y84.042 F10800.000
;WIPE_START
G1 F8640.000
G1 X154.329 Y84.456 E-0.95000
;WIPE_END
G1 E-0.05000 F2100.000
G1 Z0.400 F10800.000
G1 X232.292 Y98.139
G1 Z0.200
G1 E1.00000 F2100.000
;TYPE:Perimeter
G1 F1200.000
G1 X236.866 Y98.139 E0.14342
G1 X236.866 Y90.139 E0.25083
G1 X237.753 Y90.139 E0.02781
G1 X239.292 Y91.678 E0.06824
G1 X239.292 Y100.565 E0.27864
G1 X233.405 Y100.565 E0.18458
G1 X229.405 Y96.565 E0.17737
G1 X143.866 Y96.565 E2.68201
M73 P0 R78
G1 X143.866 Y82.139 E0.45231
G1 X232.292 Y82.139 E2.77253
G1 X232.292 Y98.079 E0.49979
G1 X232.669 Y97.762 F10800.000
;TYPE:External perimeter
G1 F1200.000
G1 X236.489 Y97.762 E0.11977
G1 X236.489 Y89.762 E0.25083
G1 X237.909 Y89.762 E0.04453
G1 X239.669 Y91.522 E0.07803
G1 X239.669 Y100.942 E0.29536
G1 X233.249 Y100.942 E0.20130
G1 X229.249 Y96.942 E0.17737
G1 X143.489 Y96.942 E2.68894
M73 P1 R78
M73 Q1 S79
G1 X143.489 Y81.762 E0.47596
G1 X232.669 Y81.762 E2.79618
M73 Q1 S78
G1 X232.669 Y97.702 E0.49979
G1 X232.848 Y98.119 F10800.000
;WIPE_START
G1 F8640.000
G1 X236.489 Y97.762 E-0.88216
G1 X236.489 Y97.468 E-0.06784
;WIPE_END
G1 E-0.05000 F2100.000
G1 Z0.400 F10800.000
G1 X231.416 Y82.252
G1 Z0.200
G1 E1.00000 F2100.000
;TYPE:Solid infill
;WIDTH:0.420318
G1 F1200.000
G1 X232.009 Y82.845 E0.02633
G1 X232.009 Y83.379 E0.01675
G1 X231.052 Y82.422 E0.04248
G1 X230.518 Y82.422 E0.01675
G1 X232.009 Y83.913 E0.06617
G1 X232.009 Y84.446 E0.01675
G1 X229.985 Y82.422 E0.08986
G1 X229.451 Y82.422 E0.01675
G1 X232.009 Y84.980 E0.11354
G1 X232.009 Y85.514 E0.01675
G1 X228.917 Y82.422 E0.13723
G1 X228.383 Y82.422 E0.01675
G1 X232.009 Y86.047 E0.16091
G1 X232.009 Y86.581 E0.01675
G1 X227.850 Y82.422 E0.18460
G1 X227.316 Y82.422 E0.01675
G1 X232.009 Y87.115 E0.20829
G1 X232.009 Y87.649 E0.01675
G1 X226.782 Y82.422 E0.23197
G1 X226.249 Y82.422 E0.01675
G1 X232.009 Y88.182 E0.25566
G1 X232.009 Y88.716 E0.01675
G1 X225.715 Y82.422 E0.27934
G1 X225.181 Y82.422 E0.01675
G1 X232.009 Y89.250 E0.30303
G1 X232.009 Y89.784 E0.01675
G1 X224.647 Y82.422 E0.32672
G1 X224.114 Y82.422 E0.01675
G1 X232.009 Y90.317 E0.35040
G1 X232.009 Y90.851 E0.01675
G1 X223.580 Y82.422 E0.37409
G1 X223.046 Y82.422 E0.01675
G1 X232.009 Y91.385 E0.39778
G1 X232.009 Y91.918 E0.01675
G1 X222.512 Y82.422 E0.42146
G1 X221.979 Y82.422 E0.01675
G1 X232.009 Y92.452 E0.44515
G1 X232.009 Y92.986 E0.01675
G1 X221.445 Y82.422 E0.46883
G1 X220.911 Y82.422 E0.01675
G1 X232.009 Y93.520 E0.49252
G1 X232.009 Y94.053 E0.01675
G1 X220.378 Y82.422 E0.51621
G1 X219.844 Y82.422 E0.01675
G1 X232.009 Y94.587 E0.53989
G1 X232.009 Y95.121 E0.01675
G1 X219.310 Y82.422 E0.56358
G1 X218.776 Y82.422 E0.01675
G1 X232.009 Y95.654 E0.58726
G1 X232.009 Y96.188 E0.01675
G1 X218.243 Y82.422 E0.61095
G1 X217.709 Y82.422 E0.01675
G1 X232.009 Y96.722 E0.63464
G1 X232.009 Y97.256 E0.01675
G1 X217.175 Y82.422 E0.65832
G1 X216.642 Y82.422 E0.01675
G1 X232.179 Y97.959 E0.68954
;WIPE_START
G1 F8640.000
G1 X229.270 Y95.050 E-0.95000
;WIPE_END
G1 E-0.05000 F2100.000
G1 Z0.400 F10800.000
G1 X237.281 Y90.252
G1 Z0.200
G1 E1.00000 F2100.000
G1 F1200.000
G1 X239.009 Y91.980 E0.07669
G1 X239.009 Y92.514 E0.01675
G1 X237.149 Y90.654 E0.08256
G1 X237.149 Y91.187 E0.01675
G1 X239.009 Y93.047 E0.08256
G1 X239.009 Y93.581 E0.01675
G1 X237.149 Y91.721 E0.08256
G1 X237.149 Y92.255 E0.01675
G1 X239.009 Y94.115 E0.08256
G1 X239.009 Y94.649 E0.01675
G1 X237.149 Y92.788 E0.08256
G1 X237.149 Y93.322 E0.01675
G1 X239.009 Y95.182 E0.08256
G1 X239.009 Y95.716 E0.01675
G1 X237.149 Y93.856 E0.08256
G1 X237.149 Y94.390 E0.01675
G1 X239.009 Y96.250 E0.08256
G1 X239.009 Y96.784 E0.01675
G1 X237.149 Y94.923 E0.08256
G1 X237.149 Y95.457 E0.01675
G1 X239.009 Y97.317 E0.08256
G1 X239.009 Y97.851 E0.01675
G1 X237.149 Y95.991 E0.08256
G1 X237.149 Y96.524 E0.01675
G1 X239.009 Y98.385 E0.08256
G1 X239.009 Y98.918 E0.01675
G1 X237.149 Y97.058 E0.08256
G1 X237.149 Y97.592 E0.01675
G1 X239.009 Y99.452 E0.08256
G1 X239.009 Y99.986 E0.01675
G1 X237.149 Y98.126 E0.08256
G1 X237.149 Y98.422 E0.00929
G1 X236.911 Y98.422 E0.00746
G1 X238.772 Y100.282 E0.08256
G1 X238.238 Y100.282 E0.01675
G1 X236.378 Y98.422 E0.08256
G1 X235.844 Y98.422 E0.01675
G1 X237.704 Y100.282 E0.08256
G1 X237.170 Y100.282 E0.01675
G1 X235.310 Y98.422 E0.08256
G1 X234.776 Y98.422 E0.01675
G1 X236.637 Y100.282 E0.08256
G1 X236.103 Y100.282 E0.01675
G1 X234.243 Y98.422 E0.08256
G1 X233.709 Y98.422 E0.01675
G1 X235.569 Y100.282 E0.08256
G1 X235.035 Y100.282 E0.01675
G1 X233.175 Y98.422 E0.08256
G1 X232.642 Y98.422 E0.01675
G1 X234.502 Y100.282 E0.08256
G1 X233.968 Y100.282 E0.01675
G1 X216.108 Y82.422 E0.79262
G1 X215.574 Y82.422 E0.01675
G1 X229.434 Y96.282 E0.61511
G1 X228.901 Y96.282 E0.01675
G1 X215.040 Y82.422 E0.61511
G1 X214.507 Y82.422 E0.01675
G1 X228.367 Y96.282 E0.61511
G1 X227.833 Y96.282 E0.01675
G1 X213.973 Y82.422 E0.61511
G1 X213.439 Y82.422 E0.01675
G1 X227.299 Y96.282 E0.61511
G1 X226.766 Y96.282 E0.01675
G1 X212.905 Y82.422 E0.61511
G1 X212.372 Y82.422 E0.01675
G1 X226.232 Y96.282 E0.61511
G1 X225.698 Y96.282 E0.01675
G1 X211.838 Y82.422 E0.61511
G1 X211.304 Y82.422 E0.01675
G1 X225.165 Y96.282 E0.61511
G1 X224.631 Y96.282 E0.01675
G1 X210.771 Y82.422 E0.61511
G1 X210.237 Y82.422 E0.01675
G1 X224.097 Y96.282 E0.61511
G1 X223.563 Y96.282 E0.01675
G1 X209.703 Y82.422 E0.61511
G1 X209.169 Y82.422 E0.01675
G1 X223.030 Y96.282 E0.61511
G1 X222.496 Y96.282 E0.01675
G1 X208.636 Y82.422 E0.61511
G1 X208.102 Y82.422 E0.01675
G1 X221.962 Y96.282 E0.61511
G1 X221.429 Y96.282 E0.01675
G1 X207.568 Y82.422 E0.61511
G1 X207.035 Y82.422 E0.01675
G1 X220.895 Y96.282 E0.61511
M73 P1 R77
M73 Q2 S78
G1 X220.361 Y96.282 E0.01675
G1 X206.501 Y82.422 E0.61511
M73 P2 R77
G1 X205.967 Y82.422 E0.01675
G1 X219.827 Y96.282 E0.61511
G1 X219.294 Y96.282 E0.01675
G1 X205.433 Y82.422 E0.61511
G1 X204.900 Y82.422 E0.01675
G1 X218.760 Y96.282 E0.61511
G1 X218.226 Y96.282 E0.01675
G1 X204.366 Y82.422 E0.61511
G1 X203.832 Y82.422 E0.01675
G1 X217.692 Y96.282 E0.61511
G1 X217.159 Y96.282 E0.01675
G1 X203.298 Y82.422 E0.61511
G1 X202.765 Y82.422 E0.01675
G1 X216.625 Y96.282 E0.61511
G1 X216.091 Y96.282 E0.01675
G1 X202.231 Y82.422 E0.61511
G1 X201.697 Y82.422 E0.01675
G1 X215.558 Y96.282 E0.61511
G1 X215.024 Y96.282 E0.01675
G1 X201.164 Y82.422 E0.61511
G1 X200.630 Y82.422 E0.01675
G1 X214.490 Y96.282 E0.61511
G1 X213.956 Y96.282 E0.01675
G1 X200.096 Y82.422 E0.61511
G1 X199.562 Y82.422 E0.01675
G1 X213.423 Y96.282 E0.61511
M73 Q2 S77
G1 X212.889 Y96.282 E0.01675
G1 X199.029 Y82.422 E0.61511
G1 X198.495 Y82.422 E0.01675
G1 X212.355 Y96.282 E0.61511
G1 X211.822 Y96.282 E0.01675
G1 X197.961 Y82.422 E0.61511
G1 X197.428 Y82.422 E0.01675
G1 X211.288 Y96.282 E0.61511
G1 X210.754 Y96.282 E0.01675
G1 X196.894 Y82.422 E0.61511
G1 X196.360 Y82.422 E0.01675
G1 X210.220 Y96.282 E0.61511
G1 X209.687 Y96.282 E0.01675
G1 X195.826 Y82.422 E0.61511
G1 X195.293 Y82.422 E0.01675
G1 X209.153 Y96.282 E0.61511
G1 X208.619 Y96.282 E0.01675
G1 X194.759 Y82.422 E0.61511
G1 X194.225 Y82.422 E0.01675
G1 X208.085 Y96.282 E0.61511
G1 X207.552 Y96.282 E0.01675
G1 X193.692 Y82.422 E0.61511
G1 X193.158 Y82.422 E0.01675
G1 X207.018 Y96.282 E0.61511
G1 X206.484 Y96.282 E0.01675
G1 X192.624 Y82.422 E0.61511
G1 X192.090 Y82.422 E0.01675
G1 X205.951 Y96.282 E0.61511
G1 X205.417 Y96.282 E0.01675
G1 X191.557 Y82.422 E0.61511
G1 X191.023 Y82.422 E0.01675
G1 X204.883 Y96.282 E0.61511
G1 X204.349 Y96.282 E0.01675
G1 X190.489 Y82.422 E0.61511
G1 X189.955 Y82.422 E0.01675
G1 X203.816 Y96.282 E0.61511
G1 X203.282 Y96.282 E0.01675
G1 X189.422 Y82.422 E0.61511
G1 X188.888 Y82.422 E0.01675
G1 X202.748 Y96.282 E0.61511
G1 X202.215 Y96.282 E0.01675
G1 X188.354 Y82.422 E0.61511
G1 X187.821 Y82.422 E0.01675
G1 X201.681 Y96.282 E0.61511
G1 X201.147 Y96.282 E0.01675
G1 X187.287 Y82.422 E0.61511
G1 X186.753 Y82.422 E0.01675
G1 X200.613 Y96.282 E0.61511
G1 X200.080 Y96.282 E0.01675
G1 X186.219 Y82.422 E0.61511
G1 X185.686 Y82.422 E0.01675
G1 X199.546 Y96.282 E0.61511
G1 X199.012 Y96.282 E0.01675
G1 X185.152 Y82.422 E0.61511
G1 X184.618 Y82.422 E0.01675
G1 X198.478 Y96.282 E0.61511
G1 X197.945 Y96.282 E0.01675
G1 X184.085 Y82.422 E0.61511
G1 X183.551 Y82.422 E0.01675
G1 X197.411 Y96.282 E0.61511
G1 X196.877 Y96.282 E0.01675
G1 X183.017 Y82.422 E0.61511
G1 X182.483 Y82.422 E0.01675
G1 X196.344 Y96.282 E0.61511
G1 X195.810 Y96.282 E0.01675
G1 X181.950 Y82.422 E0.61511
M73 P3 R77
M73 Q3 S77
G1 X181.416 Y82.422 E0.01675
G1 X195.276 Y96.282 E0.61511
G1 X194.742 Y96.282 E0.01675
G1 X180.882 Y82.422 E0.61511
G1 X180.348 Y82.422 E0.01675
G1 X194.209 Y96.282 E0.61511
G1 X193.675 Y96.282 E0.01675
G1 X179.815 Y82.422 E0.61511
G1 X179.281 Y82.422 E0.01675
G1 X193.141 Y96.282 E0.61511
G1 X192.608 Y96.282 E0.01675
G1 X178.747 Y82.422 E0.61511
G1 X178.214 Y82.422 E0.01675
G1 X192.074 Y96.282 E0.61511
G1 X191.540 Y96.282 E0.01675
G1 X177.680 Y82.422 E0.61511
G1 X177.146 Y82.422 E0.01675
G1 X191.006 Y96.282 E0.61511
G1 X190.473 Y96.282 E0.01675
G1 X176.612 Y82.422 E0.61511
G1 X176.079 Y82.422 E0.01675
G1 X189.939 Y96.282 E0.61511
G1 X189.405 Y96.282 E0.01675
G1 X175.545 Y82.422 E0.61511
M73 P3 R76
G1 X175.011 Y82.422 E0.01675
G1 X188.872 Y96.282 E0.61511
G1 X188.338 Y96.282 E0.01675
G1 X174.478 Y82.422 E0.61511
G1 X173.944 Y82.422 E0.01675
G1 X187.804 Y96.282 E0.61511
G1 X187.270 Y96.282 E0.01675
G1 X173.410 Y82.422 E0.61511
G1 X172.876 Y82.422 E0.01675
G1 X186.737 Y96.282 E0.61511
G1 X186.203 Y96.282 E0.01675
G1 X172.343 Y82.422 E0.61511
G1 X171.809 Y82.422 E0.01675
G1 X185.669 Y96.282 E0.61511
G1 X185.135 Y96.282 E0.01675
G1 X171.275 Y82.422 E0.61511
G1 X170.741 Y82.422 E0.01675
G1 X184.602 Y96.282 E0.61511
G1 X184.068 Y96.282 E0.01675
G1 X170.208 Y82.422 E0.61511
G1 X169.674 Y82.422 E0.01675
G1 X183.534 Y96.282 E0.61511
G1 X183.001 Y96.282 E0.01675
G1 X169.140 Y82.422 E0.61511
G1 X168.607 Y82.422 E0.01675
G1 X182.467 Y96.282 E0.61511
G1 X181.933 Y96.282 E0.01675
G1 X168.073 Y82.422 E0.61511
M73 Q3 S76
G1 X167.539 Y82.422 E0.01675
G1 X181.399 Y96.282 E0.61511
G1 X180.866 Y96.282 E0.01675
G1 X167.005 Y82.422 E0.61511
G1 X166.472 Y82.422 E0.01675
G1 X180.332 Y96.282 E0.61511
G1 X179.798 Y96.282 E0.01675
G1 X165.938 Y82.422 E0.61511
G1 X165.404 Y82.422 E0.01675
G1 X179.265 Y96.282 E0.61511
G1 X178.731 Y96.282 E0.01675
G1 X164.871 Y82.422 E0.61511
G1 X164.337 Y82.422 E0.01675
G1 X178.197 Y96.282 E0.61511
G1 X177.663 Y96.282 E0.01675
G1 X163.803 Y82.422 E0.61511
G1 X163.269 Y82.422 E0.01675
G1 X177.130 Y96.282 E0.61511
G1 X176.596 Y96.282 E0.01675
G1 X162.736 Y82.422 E0.61511
G1 X162.202 Y82.422 E0.01675
G1 X176.062 Y96.282 E0.61511
G1 X175.528 Y96.282 E0.01675
G1 X161.668 Y82.422 E0.61511
G1 X161.135 Y82.422 E0.01675
G1 X174.995 Y96.282 E0.61511
G1 X174.461 Y96.282 E0.01675
G1 X160.601 Y82.422 E0.61511
G1 X160.067 Y82.422 E0.01675
G1 X173.927 Y96.282 E0.61511
G1 X173.394 Y96.282 E0.01675
G1 X159.533 Y82.422 E0.61511
G1 X159.000 Y82.422 E0.01675
G1 X172.860 Y96.282 E0.61511
G1 X172.326 Y96.282 E0.01675
G1 X158.466 Y82.422 E0.61511
G1 X157.932 Y82.422 E0.01675
G1 X171.792 Y96.282 E0.61511
G1 X171.259 Y96.282 E0.01675
G1 X157.398 Y82.422 E0.61511
G1 X156.865 Y82.422 E0.01675
G1 X170.725 Y96.282 E0.61511
M73 P4 R76
M73 Q4 S76
G1 X170.191 Y96.282 E0.01675
G1 X156.331 Y82.422 E0.61511
G1 X155.797 Y82.422 E0.01675
G1 X169.658 Y96.282 E0.61511
G1 X169.124 Y96.282 E0.01675
G1 X155.264 Y82.422 E0.61511
G1 X154.730 Y82.422 E0.01675
G1 X168.590 Y96.282 E0.61511
G1 X168.056 Y96.282 E0.01675
G1 X157.304 Y85.529 E0.47719
G1 X158.033 Y86.792 E0.04576
G1 X167.523 Y96.282 E0.42115
G1 X166.989 Y96.282 E0.01675
G1 X158.762 Y88.055 E0.36510
G1 X159.491 Y89.318 E0.04576
G1 X166.455 Y96.282 E0.30906
G1 X165.921 Y96.282 E0.01675
G1 X159.321 Y89.681 E0.29294
G1 X159.125 Y90.019 E0.01226
