; generated by PrusaSlicer 2.3.1+x64 on 2023-02-16 at 01:57:43 UTC

; 

; external perimeters extrusion width = 0.45mm
; perimeters extrusion width = 0.45mm
; infill extrusion width = 0.45mm
; solid infill extrusion width = 0.45mm
; top infill extrusion width = 0.40mm
; first layer extrusion width = 0.42mm

M73 P0 R45
M73 Q0 S45
M201 X1000 Y1000 Z200 E5000 ; sets maximum accelerations, mm/sec^2
M203 X200 Y200 Z12 E120 ; sets maximum feedrates, mm/sec
M204 P1250 R1250 T1250 ; sets acceleration (P, T) and retract acceleration (R), mm/sec^2
M205 X8.00 Y8.00 Z0.40 E4.50 ; sets the jerk limits, mm/sec
M205 S0 T0 ; sets the minimum extruding and travel feed rate, mm/sec
M107
;TYPE:Custom
M862.3 P "MK3" ; printer model check
M862.1 P0.4 ; nozzle diameter check
M115 U3.9.3 ; tell printer latest fw version
G90 ; use absolute coordinates
M83 ; extruder relative mode
M104 S120 ; set extruder temp
M140 S85 ; set bed temp
M190 S85 ; wait for bed temp
M104 S240 ; set extruder temp
M109 S240 ; wait for extruder temp
G28 W ; home all without mesh bed level
G80 ; mesh bed leveling
G1 Y-3.0 F1000.0 ; go outside print area
G92 E0.0
G1 X60.0 E9.0 F1000.0 ; intro line
G1 X100.0 E12.5 F1000.0 ; intro line
G92 E0.0
M221 S95

; Don't change E values below. Excessive value can damage the printer.

M907 E538 ; set extruder motor current
G21 ; set units to millimeters
G90 ; use absolute coordinates
M83 ; use relative distances for extrusion
M900 K0.08 ; Filament gcode LA 1.5
M900 K45 ; Filament gcode LA 1.0
;LAYER_CHANGE
;Z:0.2
;HEIGHT:0.2
;BEFORE_LAYER_CHANGE
G92 E0.0
;0.2


G1 E-1.00000 F2100.000
G1 Z0.200 F10800.000
;AFTER_LAYER_CHANGE
;0.2
G1 Z0.400
G1 X116.008 Y78.704
G1 Z0.200
G1 E1.00000 F2100.000
M204 S1000
;TYPE:Skirt
;WIDTH:0.42
G1 F1200.000
G1 X116.476 Y78.176 E0.02213
G1 X117.079 Y77.809 E0.02213
G1 X117.764 Y77.635 E0.02213
G1 X133.004 Y77.623 E0.47786
G1 X133.889 Y77.795 E0.02825
G1 X134.645 Y78.284 E0.02825
G1 X135.166 Y79.020 E0.02825
G1 X135.375 Y79.896 E0.02825
G1 X135.377 Y130.004 E1.57109
G1 X135.286 Y130.654 E0.02060
G1 X134.989 Y131.303 E0.02237
G1 X134.515 Y131.832 E0.02225
G1 X133.907 Y132.197 E0.02225
G1 X133.214 Y132.367 E0.02237
G1 X117.989 Y132.377 E0.47739
G1 X117.346 Y132.285 E0.02036
G1 X116.669 Y131.969 E0.02343
G1 X116.123 Y131.459 E0.02343
G1 X115.763 Y130.804 E0.02343
G1 X115.624 Y130.073 E0.02331
G1 X115.623 Y79.996 E1.57014
G1 X115.715 Y79.346 E0.02060
G1 X115.983 Y78.758 E0.02025
; printing object Antenna Arm v2.stl id:0 copy 0
;WIPE_START
G1 F8640.000
G1 X116.476 Y78.176 E-0.17627
G1 X117.079 Y77.809 E-0.16298
G1 X117.764 Y77.635 E-0.16298
G1 X119.703 Y77.633 E-0.44776
;WIPE_END
G1 E-0.05000 F2100.000
G1 Z0.400 F10800.000
G1 X124.213 Y120.295
G1 Z0.200
G1 E1.00000 F2100.000
;TYPE:Perimeter
G1 F1200.000
G1 X124.604 Y120.233 E0.01243
G1 X124.966 Y120.214 E0.01136
G1 X125.394 Y120.232 E0.01341
G1 X125.788 Y120.295 E0.01252
G1 X126.171 Y120.397 E0.01243
G1 X126.541 Y120.539 E0.01243
G1 X126.894 Y120.719 E0.01243
G1 X127.227 Y120.935 E0.01243
G1 X127.535 Y121.185 E0.01243
G1 X127.816 Y121.465 E0.01243
G1 X128.065 Y121.773 E0.01243
G1 X128.281 Y122.106 E0.01243
G1 X128.461 Y122.459 E0.01243
G1 X128.603 Y122.829 E0.01243
G1 X128.706 Y123.212 E0.01243
G1 X128.768 Y123.604 E0.01243
G1 X128.789 Y124.000 E0.01243
G1 X128.768 Y124.396 E0.01243
G1 X128.706 Y124.788 E0.01243
G1 X128.603 Y125.171 E0.01243
G1 X128.461 Y125.541 E0.01243
G1 X128.281 Y125.894 E0.01243
G1 X128.065 Y126.227 E0.01243
G1 X127.816 Y126.535 E0.01243
G1 X127.535 Y126.815 E0.01243
G1 X127.227 Y127.065 E0.01243
G1 X126.894 Y127.281 E0.01243
G1 X126.541 Y127.461 E0.01243
G1 X126.203 Y127.591 E0.01136
G1 X125.791 Y127.705 E0.01341
G1 X125.396 Y127.767 E0.01252
G1 X125.000 Y127.788 E0.01243
G1 X124.604 Y127.767 E0.01243
G1 X124.246 Y127.711 E0.01136
G1 X123.832 Y127.604 E0.01341
G1 X123.460 Y127.461 E0.01251
G1 X123.106 Y127.281 E0.01243
G1 X122.774 Y127.065 E0.01243
G1 X122.466 Y126.815 E0.01243
G1 X122.185 Y126.535 E0.01243
G1 X121.936 Y126.227 E0.01243
G1 X121.720 Y125.894 E0.01243
G1 X121.540 Y125.541 E0.01243
G1 X121.398 Y125.171 E0.01243
G1 X121.295 Y124.788 E0.01243
G1 X121.233 Y124.396 E0.01243
G1 X121.212 Y124.000 E0.01243
G1 X121.233 Y123.604 E0.01243
G1 X121.295 Y123.212 E0.01243
G1 X121.398 Y122.829 E0.01243
G1 X121.540 Y122.459 E0.01243
G1 X121.720 Y122.106 E0.01243
G1 X121.936 Y121.773 E0.01243
G1 X122.185 Y121.465 E0.01243
G1 X122.466 Y121.185 E0.01243
G1 X122.774 Y120.935 E0.01243
G1 X123.106 Y120.719 E0.01243
G1 X123.460 Y120.539 E0.01243
G1 X123.830 Y120.397 E0.01243
G1 X124.155 Y120.310 E0.01055
G1 X124.252 Y120.674 F10800.000
;TYPE:External perimeter
G1 F1200.000
G1 X124.644 Y120.608 E0.01245
G1 X124.968 Y120.591 E0.01018
G1 X125.356 Y120.608 E0.01217
G1 X125.709 Y120.664 E0.01122
G1 X126.054 Y120.756 E0.01119
G1 X126.388 Y120.884 E0.01119
G1 X126.706 Y121.046 E0.01119
G1 X127.005 Y121.241 E0.01119
G1 X127.282 Y121.465 E0.01119
G1 X127.535 Y121.718 E0.01119
G1 X127.760 Y121.995 E0.01119
G1 X127.954 Y122.295 E0.01119
G1 X128.116 Y122.613 E0.01119
G1 X128.244 Y122.946 E0.01119
G1 X128.336 Y123.291 E0.01119
G1 X128.392 Y123.643 E0.01119
G1 X128.411 Y124.000 E0.01119
G1 X128.392 Y124.357 E0.01119
G1 X128.336 Y124.709 E0.01119
G1 X128.244 Y125.054 E0.01119
G1 X128.116 Y125.387 E0.01119
G1 X127.954 Y125.705 E0.01119
G1 X127.760 Y126.005 E0.01119
G1 X127.535 Y126.282 E0.01119
G1 X127.282 Y126.535 E0.01119
G1 X127.005 Y126.759 E0.01119
G1 X126.706 Y126.954 E0.01119
G1 X126.388 Y127.116 E0.01119
G1 X126.085 Y127.232 E0.01018
G1 X125.710 Y127.336 E0.01217
G1 X125.357 Y127.392 E0.01122
G1 X125.000 Y127.411 E0.01119
G1 X124.644 Y127.392 E0.01119
G1 X124.323 Y127.341 E0.01018
G1 X123.947 Y127.244 E0.01217
G1 X123.613 Y127.116 E0.01122
G1 X123.295 Y126.954 E0.01119
G1 X122.996 Y126.759 E0.01119
G1 X122.718 Y126.535 E0.01119
G1 X122.466 Y126.282 E0.01119
G1 X122.241 Y126.005 E0.01119
G1 X122.047 Y125.705 E0.01119
G1 X121.885 Y125.387 E0.01119
G1 X121.757 Y125.054 E0.01119
G1 X121.664 Y124.709 E0.01119
G1 X121.608 Y124.357 E0.01119
G1 X121.590 Y124.000 E0.01119
G1 X121.608 Y123.643 E0.01119
G1 X121.664 Y123.291 E0.01119
G1 X121.757 Y122.946 E0.01119
G1 X121.885 Y122.613 E0.01119
G1 X122.047 Y122.295 E0.01119
G1 X122.241 Y121.995 E0.01119
G1 X122.466 Y121.718 E0.01119
G1 X122.718 Y121.465 E0.01119
G1 X122.996 Y121.241 E0.01119
G1 X123.295 Y121.046 E0.01119
G1 X123.613 Y120.884 E0.01119
G1 X123.946 Y120.756 E0.01119
G1 X124.194 Y120.690 E0.00805
G1 X124.372 Y120.296 F10800.000
;WIPE_START
G1 F8640.000
G1 X124.644 Y120.608 E-0.10548
G1 X124.968 Y120.591 E-0.07496
G1 X125.356 Y120.608 E-0.08965
G1 X125.709 Y120.664 E-0.08265
G1 X126.054 Y120.756 E-0.08243
G1 X126.388 Y120.884 E-0.08243
G1 X126.706 Y121.046 E-0.08243
G1 X127.005 Y121.241 E-0.08243
G1 X127.282 Y121.465 E-0.08243
G1 X127.535 Y121.718 E-0.08243
G1 X127.760 Y121.995 E-0.08243
G1 X127.807 Y122.069 E-0.02026
;WIPE_END
G1 E-0.05000 F2100.000
G1 Z0.400 F10800.000
G1 X118.787 Y129.213
G1 Z0.200
G1 E1.00000 F2100.000
;TYPE:Perimeter
G1 F1200.000
G1 X118.787 Y80.787 E1.51836
G1 X132.213 Y80.787 E0.42096
G1 X132.213 Y129.213 E1.51836
G1 X118.847 Y129.213 E0.41908
G1 X118.410 Y129.590 F10800.000
;TYPE:External perimeter
G1 F1200.000
G1 X118.410 Y80.410 E1.54200
G1 X132.590 Y80.410 E0.44460
M73 P1 R45
M73 Q1 S45
G1 X132.590 Y129.590 E1.54200
G1 X118.470 Y129.590 E0.44272
G1 X118.448 Y129.192 F10800.000
;WIPE_START
G1 F8640.000
G1 X118.465 Y125.476 E-0.95000
;WIPE_END
G1 E-0.05000 F2100.000
G1 Z0.400 F10800.000
G1 X132.100 Y81.664
G1 Z0.200
G1 E1.00000 F2100.000
;TYPE:Solid infill
;WIDTH:0.420912
G1 F1200.000
G1 X131.506 Y81.070 E0.02643
G1 X130.971 Y81.070 E0.01680
G1 X131.930 Y82.029 E0.04264
G1 X131.930 Y82.564 E0.01680
G1 X130.437 Y81.070 E0.06640
G1 X129.902 Y81.070 E0.01680
G1 X131.930 Y83.098 E0.09017
G1 X131.930 Y83.633 E0.01680
G1 X129.367 Y81.070 E0.11393
G1 X128.833 Y81.070 E0.01680
G1 X131.930 Y84.168 E0.13769
G1 X131.930 Y84.702 E0.01680
G1 X128.298 Y81.070 E0.16145
G1 X127.764 Y81.070 E0.01680
G1 X131.930 Y85.237 E0.18521
G1 X131.930 Y85.771 E0.01680
G1 X127.229 Y81.070 E0.20897
G1 X126.695 Y81.070 E0.01680
G1 X131.930 Y86.306 E0.23273
G1 X131.930 Y86.840 E0.01680
G1 X126.160 Y81.070 E0.25649
G1 X125.625 Y81.070 E0.01680
G1 X131.930 Y87.375 E0.28025
G1 X131.930 Y87.909 E0.01680
G1 X125.091 Y81.070 E0.30401
G1 X124.556 Y81.070 E0.01680
G1 X131.930 Y88.444 E0.32777
G1 X131.930 Y88.979 E0.01680
G1 X124.022 Y81.070 E0.35153
G1 X123.487 Y81.070 E0.01680
G1 X131.930 Y89.513 E0.37529
G1 X131.930 Y90.048 E0.01680
G1 X122.953 Y81.070 E0.39905
G1 X122.418 Y81.070 E0.01680
G1 X131.930 Y90.582 E0.42282
G1 X131.930 Y91.117 E0.01680
G1 X121.884 Y81.070 E0.44658
G1 X121.349 Y81.070 E0.01680
G1 X131.930 Y91.651 E0.47034
G1 X131.930 Y92.186 E0.01680
G1 X120.814 Y81.070 E0.49410
G1 X120.280 Y81.070 E0.01680
G1 X131.930 Y92.721 E0.51786
M73 P1 R44
G1 X131.930 Y93.255 E0.01680
G1 X119.745 Y81.070 E0.54162
G1 X119.211 Y81.070 E0.01680
G1 X131.930 Y93.790 E0.56538
G1 X131.930 Y94.324 E0.01680
G1 X119.070 Y81.464 E0.57162
G1 X119.070 Y81.999 E0.01680
G1 X131.930 Y94.859 E0.57162
G1 X131.930 Y95.393 E0.01680
G1 X119.070 Y82.533 E0.57162
M73 Q1 S44
G1 X119.070 Y83.068 E0.01680
G1 X131.930 Y95.928 E0.57162
G1 X131.930 Y96.462 E0.01680
G1 X119.070 Y83.602 E0.57162
G1 X119.070 Y84.137 E0.01680
G1 X131.930 Y96.997 E0.57162
G1 X131.930 Y97.532 E0.01680
G1 X119.070 Y84.671 E0.57162
G1 X119.070 Y85.206 E0.01680
G1 X131.930 Y98.066 E0.57162
G1 X131.930 Y98.601 E0.01680
G1 X119.070 Y85.740 E0.57162
G1 X119.070 Y86.275 E0.01680
G1 X131.930 Y99.135 E0.57162
G1 X131.930 Y99.670 E0.01680
G1 X119.070 Y86.810 E0.57162
G1 X119.070 Y87.344 E0.01680
G1 X131.930 Y100.204 E0.57162
M73 P2 R44
M73 Q2 S44
G1 X131.930 Y100.739 E0.01680
G1 X119.070 Y87.879 E0.57162
G1 X119.070 Y88.413 E0.01680
G1 X131.930 Y101.273 E0.57162
G1 X131.930 Y101.808 E0.01680
G1 X119.070 Y88.948 E0.57162
G1 X119.070 Y89.482 E0.01680
G1 X131.930 Y102.343 E0.57162
G1 X131.930 Y102.877 E0.01680
G1 X119.070 Y90.017 E0.57162
G1 X119.070 Y90.551 E0.01680
G1 X131.930 Y103.412 E0.57162
G1 X131.930 Y103.946 E0.01680
G1 X119.070 Y91.086 E0.57162
G1 X119.070 Y91.621 E0.01680
G1 X131.930 Y104.481 E0.57162
G1 X131.930 Y105.015 E0.01680
G1 X119.070 Y92.155 E0.57162
G1 X119.070 Y92.690 E0.01680
G1 X131.930 Y105.550 E0.57162
G1 X131.930 Y106.085 E0.01680
G1 X119.070 Y93.224 E0.57162
G1 X119.070 Y93.759 E0.01680
G1 X131.930 Y106.619 E0.57162
G1 X131.930 Y107.154 E0.01680
G1 X119.070 Y94.293 E0.57162
G1 X119.070 Y94.828 E0.01680
G1 X131.930 Y107.688 E0.57162
G1 X131.930 Y108.223 E0.01680
G1 X119.070 Y95.363 E0.57162
G1 X119.070 Y95.897 E0.01680
G1 X131.930 Y108.757 E0.57162
G1 X131.930 Y109.292 E0.01680
G1 X119.070 Y96.432 E0.57162
G1 X119.070 Y96.966 E0.01680
G1 X131.930 Y109.826 E0.57162
G1 X131.930 Y110.361 E0.01680
G1 X119.070 Y97.501 E0.57162
G1 X119.070 Y98.035 E0.01680
G1 X131.930 Y110.896 E0.57162
G1 X131.930 Y111.430 E0.01680
G1 X119.070 Y98.570 E0.57162
G1 X119.070 Y99.104 E0.01680
G1 X131.930 Y111.965 E0.57162
G1 X131.930 Y112.499 E0.01680
G1 X119.070 Y99.639 E0.57162
G1 X119.070 Y100.174 E0.01680
G1 X131.930 Y113.034 E0.57162
G1 X131.930 Y113.568 E0.01680
G1 X119.070 Y100.708 E0.57162
G1 X119.070 Y101.243 E0.01680
G1 X131.930 Y114.103 E0.57162
G1 X131.930 Y114.638 E0.01680
G1 X119.070 Y101.777 E0.57162
G1 X119.070 Y102.312 E0.01680
G1 X131.930 Y115.172 E0.57162
M73 Q3 S44
G1 X131.930 Y115.707 E0.01680
G1 X119.070 Y102.846 E0.57162
M73 P3 R44
G1 X119.070 Y103.381 E0.01680
G1 X131.930 Y116.241 E0.57162
G1 X131.930 Y116.776 E0.01680
G1 X119.070 Y103.916 E0.57162
G1 X119.070 Y104.450 E0.01680
G1 X131.930 Y117.310 E0.57162
G1 X131.930 Y117.845 E0.01680
G1 X119.070 Y104.985 E0.57162
G1 X119.070 Y105.519 E0.01680
G1 X131.930 Y118.379 E0.57162
G1 X131.930 Y118.914 E0.01680
G1 X119.070 Y106.054 E0.57162
G1 X119.070 Y106.588 E0.01680
G1 X131.930 Y119.449 E0.57162
G1 X131.930 Y119.983 E0.01680
G1 X119.070 Y107.123 E0.57162
G1 X119.070 Y107.657 E0.01680
G1 X131.930 Y120.518 E0.57162
G1 X131.930 Y121.052 E0.01680
G1 X119.070 Y108.192 E0.57162
G1 X119.070 Y108.727 E0.01680
G1 X131.930 Y121.587 E0.57162
G1 X131.930 Y122.121 E0.01680
G1 X119.070 Y109.261 E0.57162
G1 X119.070 Y109.796 E0.01680
G1 X131.930 Y122.656 E0.57162
G1 X131.930 Y123.191 E0.01680
G1 X119.070 Y110.330 E0.57162
G1 X119.070 Y110.865 E0.01680
G1 X131.930 Y123.725 E0.57162
G1 X131.930 Y124.260 E0.01680
G1 X119.070 Y111.399 E0.57162
G1 X119.070 Y111.934 E0.01680
G1 X131.930 Y124.794 E0.57162
G1 X131.930 Y125.329 E0.01680
G1 X119.070 Y112.469 E0.57162
G1 X119.070 Y113.003 E0.01680
G1 X126.172 Y120.105 E0.31566
G1 X125.847 Y120.018 E0.01058
G1 X125.494 Y119.962 E0.01121
G1 X119.070 Y113.538 E0.28555
G1 X119.070 Y114.072 E0.01680
G1 X124.930 Y119.932 E0.26048
G1 X124.436 Y119.973 E0.01558
G1 X119.070 Y114.607 E0.23852
M73 P3 R43
G1 X119.070 Y115.141 E0.01680
G1 X123.990 Y120.061 E0.21869
G1 X123.583 Y120.189 E0.01341
G1 X119.070 Y115.676 E0.20060
G1 X119.070 Y116.210 E0.01680
G1 X123.209 Y120.349 E0.18398
G1 X122.864 Y120.539 E0.01237
G1 X119.070 Y116.745 E0.16865
G1 X119.070 Y117.280 E0.01680
G1 X122.546 Y120.756 E0.15451
G1 X122.253 Y120.997 E0.01194
G1 X119.070 Y117.814 E0.14148
G1 X119.070 Y118.349 E0.01680
G1 X121.986 Y121.264 E0.12960
G1 X121.746 Y121.559 E0.01194
G1 X119.070 Y118.883 E0.11892
G1 X119.070 Y119.418 E0.01680
G1 X121.531 Y121.878 E0.10936
G1 X121.342 Y122.224 E0.01239
G1 X119.070 Y119.952 E0.10098
G1 X119.070 Y120.487 E0.01680
G1 X121.183 Y122.600 E0.09391
G1 X121.057 Y123.008 E0.01344
G1 X119.070 Y121.021 E0.08831
G1 X119.070 Y121.556 E0.01680
G1 X120.970 Y123.456 E0.08445
G1 X120.932 Y123.952 E0.01564
G1 X119.070 Y122.091 E0.08273
G1 X119.070 Y122.625 E0.01680
G1 X120.967 Y124.521 E0.08429
G1 X121.018 Y124.846 E0.01034
G1 X121.114 Y125.203 E0.01160
G1 X118.901 Y122.990 E0.09836
;WIPE_START
G1 F8640.000
G1 X121.114 Y125.203 E-0.72263
G1 X121.018 Y124.846 E-0.08523
G1 X120.967 Y124.521 E-0.07599
G1 X120.764 Y124.319 E-0.06615
;WIPE_END
G1 E-0.05000 F2100.000
G1 Z0.400 F10800.000
G1 X128.617 Y122.550
G1 Z0.200
G1 E1.00000 F2100.000
G1 F1200.000
G1 X131.930 Y125.863 E0.14728
G1 X131.930 Y126.398 E0.01680
G1 X129.039 Y123.506 E0.12854
G1 X129.068 Y124.070 E0.01775
M73 Q3 S43
G1 X131.930 Y126.932 E0.12723
G1 X131.930 Y127.467 E0.01680
G1 X129.027 Y124.564 E0.12904
G1 X128.939 Y125.010 E0.01429
G1 X131.930 Y128.002 E0.13297
G1 X131.930 Y128.536 E0.01680
G1 X128.811 Y125.417 E0.13864
G1 X128.651 Y125.791 E0.01279
G1 X131.790 Y128.930 E0.13953
G1 X131.255 Y128.930 E0.01680
G1 X128.461 Y126.136 E0.12420
G1 X128.245 Y126.454 E0.01209
G1 X130.721 Y128.930 E0.11006
G1 X130.186 Y128.930 E0.01680
G1 X128.003 Y126.747 E0.09704
G1 X127.736 Y127.014 E0.01188
G1 X129.652 Y128.930 E0.08515
G1 X129.117 Y128.930 E0.01680
G1 X127.442 Y127.255 E0.07447
G1 X127.122 Y127.470 E0.01210
G1 X128.583 Y128.930 E0.06491
G1 X128.048 Y128.930 E0.01680
M73 Q4 S43
G1 X126.776 Y127.658 E0.05653
G1 X126.401 Y127.817 E0.01282
G1 X127.513 Y128.930 E0.04946
G1 X126.979 Y128.930 E0.01680
G1 X125.991 Y127.943 E0.04389
G1 X125.544 Y128.030 E0.01432
M73 P4 R43
G1 X126.444 Y128.930 E0.04000
G1 X125.910 Y128.930 E0.01680
G1 X125.048 Y128.069 E0.03828
G1 X124.479 Y128.034 E0.01793
G1 X125.375 Y128.930 E0.03984
G1 X124.841 Y128.930 E0.01680
G1 X123.513 Y127.602 E0.05902
;WIPE_START
G1 F8640.000
G1 X124.841 Y128.930 E-0.43362
G1 X125.375 Y128.930 E-0.12343
G1 X124.479 Y128.034 E-0.29267
G1 X124.912 Y128.060 E-0.10027
;WIPE_END
G1 E-0.05000 F2100.000
G1 Z0.400 F10800.000
G1 X124.476 Y129.100
G1 Z0.200
G1 E1.00000 F2100.000
G1 F1200.000
G1 X119.070 Y123.694 E0.24027
G1 X119.070 Y124.229 E0.01680
G1 X123.772 Y128.930 E0.20897
G1 X123.237 Y128.930 E0.01680
G1 X119.070 Y124.763 E0.18521
G1 X119.070 Y125.298 E0.01680
G1 X122.702 Y128.930 E0.16145
G1 X122.168 Y128.930 E0.01680
G1 X119.070 Y125.833 E0.13768
G1 X119.070 Y126.367 E0.01680
G1 X121.633 Y128.930 E0.11392
G1 X121.099 Y128.930 E0.01680
G1 X119.070 Y126.902 E0.09016
G1 X119.070 Y127.436 E0.01680
G1 X120.564 Y128.930 E0.06640
G1 X120.030 Y128.930 E0.01680
