; generated by PrusaSlicer 2.3.1+x64 on 2023-02-16 at 00:38:51 UTC

; 

; external perimeters extrusion width = 0.45mm
; perimeters extrusion width = 0.45mm
; infill extrusion width = 0.45mm
; solid infill extrusion width = 0.45mm
; top infill extrusion width = 0.40mm
; first layer extrusion width = 0.42mm

M73 P0 R18
M73 Q0 S18
M201 X1000 Y1000 Z200 E5000 ; sets maximum accelerations, mm/sec^2
M203 X200 Y200 Z12 E120 ; sets maximum feedrates, mm/sec
M204 P1250 R1250 T1250 ; sets acceleration (P, T) and retract acceleration (R), mm/sec^2
M205 X8.00 Y8.00 Z0.40 E4.50 ; sets the jerk limits, mm/sec
M205 S0 T0 ; sets the minimum extruding and travel feed rate, mm/sec
M107
;TYPE:Custom
M862.3 P "MK3" ; printer model check
M862.1 P0.4 ; nozzle diameter check
M115 U3.9.3 ; tell printer latest fw version
G90 ; use absolute coordinates
M83 ; extruder relative mode
M104 S120 ; set extruder temp
M140 S85 ; set bed temp
M190 S85 ; wait for bed temp
M104 S240 ; set extruder temp
M109 S240 ; wait for extruder temp
G28 W ; home all without mesh bed level
G80 ; mesh bed leveling
G1 Y-3.0 F1000.0 ; go outside print area
G92 E0.0
G1 X60.0 E9.0 F1000.0 ; intro line
G1 X100.0 E12.5 F1000.0 ; intro line
G92 E0.0
M221 S95

; Don't change E values below. Excessive value can damage the printer.

M907 E538 ; set extruder motor current
G21 ; set units to millimeters
G90 ; use absolute coordinates
M83 ; use relative distances for extrusion
M900 K0.08 ; Filament gcode LA 1.5
M900 K45 ; Filament gcode LA 1.0
;LAYER_CHANGE
;Z:0.2
;HEIGHT:0.2
;BEFORE_LAYER_CHANGE
G92 E0.0
;0.2


G1 E-1.00000 F2100.000
G1 Z0.200 F10800.000
;AFTER_LAYER_CHANGE
;0.2
G1 Z0.400
G1 X128.967 Y80.921
G1 Z0.200
G1 E1.00000 F2100.000
M204 S1000
;TYPE:Skirt
;WIDTH:0.42
G1 F1200.000
G1 X129.805 Y81.420 E0.03056
G1 X130.418 Y82.182 E0.03069
G1 X130.727 Y83.111 E0.03069
G1 X133.725 Y119.785 E1.15371
G1 X133.737 Y121.035 E0.03920
G1 X133.454 Y122.773 E0.05522
G1 X132.813 Y124.449 E0.05625
G1 X131.842 Y125.962 E0.05637
G1 X130.628 Y127.204 E0.05445
G1 X129.143 Y128.210 E0.05624
G1 X127.875 Y128.768 E0.04343
G1 X126.187 Y129.173 E0.05445
G1 X124.382 Y129.232 E0.05663
G1 X122.626 Y128.926 E0.05586
G1 X121.010 Y128.291 E0.05445
G1 X119.506 Y127.314 E0.05624
G1 X118.496 Y126.358 E0.04359
G1 X117.472 Y124.968 E0.05416
G1 X116.716 Y123.331 E0.05650
G1 X116.313 Y121.583 E0.05625
G1 X116.274 Y119.798 E0.05599
G1 X119.255 Y83.272 E1.14906
M73 P1 R18
M73 Q1 S18
G1 X119.362 Y82.709 E0.01796
G1 X119.661 Y82.046 E0.02282
G1 X120.121 Y81.487 E0.02269
G1 X120.710 Y81.067 E0.02269
G1 X121.388 Y80.815 E0.02269
G1 X121.969 Y80.746 E0.01835
G1 X128.004 Y80.746 E0.18921
G1 X128.908 Y80.910 E0.02881
G1 X128.839 Y81.276 F10800.000
G1 F1200.000
G1 X129.566 Y81.712 E0.02661
G1 X130.095 Y82.376 E0.02661
G1 X130.356 Y83.184 E0.02661
G1 X133.349 Y119.815 E1.15237
G1 X133.361 Y121.009 E0.03744
G1 X133.090 Y122.674 E0.05288
G1 X132.475 Y124.281 E0.05395
G1 X131.545 Y125.728 E0.05395
G1 X130.382 Y126.918 E0.05217
G1 X128.957 Y127.882 E0.05395
G1 X127.759 Y128.409 E0.04104
G1 X126.137 Y128.799 E0.05229
G1 X124.410 Y128.856 E0.05419
G1 X122.726 Y128.563 E0.05360
G1 X121.174 Y127.952 E0.05229
G1 X119.736 Y127.015 E0.05383
G1 X118.782 Y126.112 E0.04116
G1 X117.797 Y124.777 E0.05205
G1 X117.074 Y123.211 E0.05407
G1 X116.687 Y121.538 E0.05383
G1 X116.650 Y119.825 E0.05372
G1 X119.719 Y82.832 E1.16389
G1 X119.981 Y82.246 E0.02012
G1 X120.390 Y81.751 E0.02012
G1 X120.913 Y81.386 E0.02000
G1 X121.518 Y81.172 E0.02012
G1 X128.004 Y81.123 E0.20337
G1 X128.780 Y81.265 E0.02473
; printing object Antenna Arm.stl id:0 copy 0
;WIPE_START
G1 F8640.000
G1 X129.566 Y81.712 E-0.20898
G1 X130.095 Y82.376 E-0.19595
G1 X130.356 Y83.184 E-0.19595
G1 X130.479 Y84.691 E-0.34911
;WIPE_END
G1 E-0.05000 F2100.000
G1 Z0.400 F10800.000
G1 X125.434 Y117.240
G1 Z0.200
G1 E1.00000 F2100.000
;TYPE:Perimeter
G1 F1200.000
G1 X125.780 Y117.306 E0.01106
G1 X126.115 Y117.407 E0.01097
G1 X126.438 Y117.543 E0.01097
G1 X126.744 Y117.712 E0.01097
G1 X127.031 Y117.914 E0.01097
G1 X127.294 Y118.144 E0.01097
G1 X127.531 Y118.401 E0.01097
G1 X127.740 Y118.682 E0.01097
G1 X127.918 Y118.984 E0.01097
G1 X128.062 Y119.303 E0.01097
G1 X128.172 Y119.635 E0.01097
G1 X128.246 Y119.977 E0.01097
G1 X128.284 Y120.325 E0.01097
G1 X128.284 Y120.675 E0.01097
G1 X128.246 Y121.023 E0.01097
G1 X128.172 Y121.365 E0.01097
G1 X128.062 Y121.697 E0.01097
G1 X127.918 Y122.016 E0.01097
G1 X127.740 Y122.318 E0.01097
G1 X127.531 Y122.599 E0.01097
G1 X127.294 Y122.856 E0.01097
G1 X127.031 Y123.086 E0.01097
G1 X126.744 Y123.288 E0.01097
G1 X126.438 Y123.457 E0.01097
G1 X126.115 Y123.593 E0.01097
G1 X125.780 Y123.694 E0.01097
G1 X125.436 Y123.759 E0.01097
G1 X125.088 Y123.787 E0.01097
G1 X124.738 Y123.778 E0.01097
G1 X124.391 Y123.731 E0.01097
G1 X124.051 Y123.648 E0.01097
G1 X123.721 Y123.529 E0.01097
G1 X123.407 Y123.376 E0.01097
G1 X123.110 Y123.191 E0.01097
G1 X122.835 Y122.975 E0.01097
G1 X122.584 Y122.730 E0.01097
G1 X122.361 Y122.461 E0.01097
G1 X122.184 Y122.195 E0.01000
G1 X122.007 Y121.861 E0.01186
G1 X121.878 Y121.533 E0.01106
G1 X121.786 Y121.195 E0.01097
G1 X121.730 Y120.850 E0.01097
G1 X121.712 Y120.500 E0.01097
G1 X121.730 Y120.150 E0.01097
G1 X121.786 Y119.805 E0.01097
G1 X121.878 Y119.467 E0.01097
G1 X122.006 Y119.141 E0.01097
G1 X122.167 Y118.831 E0.01097
G1 X122.361 Y118.539 E0.01097
G1 X122.584 Y118.270 E0.01097
G1 X122.835 Y118.025 E0.01097
G1 X123.110 Y117.809 E0.01097
G1 X123.407 Y117.624 E0.01097
G1 X123.721 Y117.471 E0.01097
G1 X124.051 Y117.352 E0.01097
G1 X124.391 Y117.269 E0.01097
G1 X124.738 Y117.222 E0.01097
G1 X125.056 Y117.214 E0.01000
G1 X125.374 Y117.236 E0.00998
G1 X125.347 Y117.612 F10800.000
;TYPE:External perimeter
G1 F1200.000
G1 X125.691 Y117.673 E0.01093
G1 X125.987 Y117.762 E0.00971
G1 X126.273 Y117.882 E0.00971
G1 X126.544 Y118.033 E0.00971
G1 X126.797 Y118.211 E0.00971
G1 X127.031 Y118.415 E0.00971
G1 X127.241 Y118.642 E0.00971
G1 X127.425 Y118.891 E0.00971
G1 X127.583 Y119.158 E0.00971
G1 X127.711 Y119.440 E0.00971
G1 X127.808 Y119.734 E0.00971
G1 X127.874 Y120.037 E0.00971
G1 X127.906 Y120.345 E0.00971
G1 X127.906 Y120.655 E0.00971
G1 X127.874 Y120.963 E0.00971
G1 X127.808 Y121.266 E0.00971
G1 X127.711 Y121.560 E0.00971
G1 X127.583 Y121.842 E0.00971
G1 X127.425 Y122.109 E0.00971
G1 X127.241 Y122.358 E0.00971
G1 X127.031 Y122.585 E0.00971
G1 X126.797 Y122.789 E0.00971
G1 X126.544 Y122.967 E0.00971
G1 X126.273 Y123.118 E0.00971
G1 X125.987 Y123.238 E0.00971
G1 X125.691 Y123.327 E0.00971
G1 X125.386 Y123.385 E0.00971
G1 X125.077 Y123.410 E0.00971
G1 X124.768 Y123.401 E0.00971
G1 X124.461 Y123.360 E0.00971
G1 X124.160 Y123.287 E0.00971
G1 X123.868 Y123.182 E0.00971
G1 X123.590 Y123.046 E0.00971
G1 X123.327 Y122.882 E0.00971
G1 X123.083 Y122.690 E0.00971
G1 X122.861 Y122.474 E0.00971
G1 X122.664 Y122.236 E0.00971
G1 X122.509 Y122.002 E0.00879
G1 X122.350 Y121.704 E0.01060
G1 X122.237 Y121.414 E0.00975
G1 X122.155 Y121.115 E0.00971
G1 X122.106 Y120.809 E0.00971
G1 X122.089 Y120.500 E0.00971
G1 X122.106 Y120.191 E0.00971
G1 X122.155 Y119.885 E0.00971
G1 X122.237 Y119.586 E0.00971
G1 X122.350 Y119.297 E0.00971
G1 X122.492 Y119.022 E0.00971
G1 X122.664 Y118.764 E0.00971
G1 X122.861 Y118.526 E0.00971
G1 X123.083 Y118.310 E0.00971
G1 X123.327 Y118.118 E0.00971
G1 X123.590 Y117.954 E0.00971
G1 X123.868 Y117.818 E0.00971
G1 X124.160 Y117.713 E0.00971
G1 X124.461 Y117.640 E0.00971
G1 X124.768 Y117.599 E0.00971
G1 X125.048 Y117.591 E0.00879
G1 X125.287 Y117.608 E0.00752
G1 X125.558 Y117.334 F10800.000
;WIPE_START
G1 F8640.000
G1 X125.691 Y117.673 E-0.09430
G1 X125.987 Y117.762 E-0.07154
G1 X126.273 Y117.882 E-0.07154
G1 X126.544 Y118.033 E-0.07154
G1 X126.797 Y118.211 E-0.07154
G1 X127.031 Y118.415 E-0.07154
G1 X127.241 Y118.642 E-0.07154
G1 X127.425 Y118.891 E-0.07154
G1 X127.583 Y119.158 E-0.07154
G1 X127.711 Y119.440 E-0.07154
G1 X127.808 Y119.734 E-0.07154
G1 X127.874 Y120.037 E-0.07154
G1 X127.905 Y120.333 E-0.06879
;WIPE_END
G1 E-0.05000 F2100.000
G1 Z0.400 F10800.000
G1 X127.213 Y115.740
G1 Z0.200
G1 E1.00000 F2100.000
;TYPE:Perimeter
G1 F1200.000
G1 X127.911 Y116.176 E0.02579
M73 Q2 S18
G1 X128.202 Y116.387 E0.01126
G1 X128.736 Y116.865 E0.02250
G1 X128.978 Y117.131 E0.01126
G1 X129.403 Y117.709 E0.02250
G1 X129.744 Y118.341 E0.02250
G1 X129.882 Y118.672 E0.01126
G1 X129.996 Y119.013 E0.01126
G1 X130.153 Y119.713 E0.02250
G1 X130.212 Y120.428 E0.02250
G1 X130.172 Y121.145 E0.02250
M73 P2 R18
G1 X130.116 Y121.499 E0.01126
G1 X129.930 Y122.192 E0.02250
G1 X129.802 Y122.528 E0.01126
G1 X129.651 Y122.854 E0.01126
G1 X129.283 Y123.470 E0.02250
G1 X128.835 Y124.030 E0.02250
G1 X128.583 Y124.286 E0.01126
G1 X128.029 Y124.742 E0.02250
G1 X127.417 Y125.118 E0.02250
G1 X127.094 Y125.273 E0.01126
G1 X126.418 Y125.516 E0.02250
G1 X126.070 Y125.602 E0.01126
G1 X125.716 Y125.663 E0.01126
G1 X125.000 Y125.712 E0.02249
G1 X124.635 Y125.699 E0.01147
G1 X123.930 Y125.602 E0.02230
G1 X123.582 Y125.516 E0.01126
G1 X122.906 Y125.273 E0.02250
G1 X122.270 Y124.941 E0.02250
G1 X121.686 Y124.524 E0.02250
G1 X121.165 Y124.030 E0.02250
G1 X120.717 Y123.470 E0.02250
G1 X120.349 Y122.854 E0.02250
G1 X120.070 Y122.192 E0.02250
G1 X119.965 Y121.849 E0.01126
G1 X119.828 Y121.145 E0.02250
G1 X119.788 Y120.428 E0.02250
G1 X119.847 Y119.713 E0.02250
G1 X120.004 Y119.013 E0.02250
G1 X120.256 Y118.341 E0.02250
G1 X120.597 Y117.709 E0.02250
G1 X121.022 Y117.131 E0.02250
G1 X121.523 Y116.617 E0.02250
G1 X122.089 Y116.176 E0.02250
G1 X122.787 Y115.740 E0.02579
G1 X122.787 Y84.287 E0.98620
G1 X127.213 Y84.287 E0.13877
G1 X127.213 Y115.680 E0.98431
G1 X127.590 Y115.531 F10800.000
;TYPE:External perimeter
G1 F1200.000
G1 X128.121 Y115.863 E0.01964
G1 X128.433 Y116.089 E0.01207
G1 X128.729 Y116.336 E0.01207
G1 X129.007 Y116.602 E0.01207
G1 X129.265 Y116.887 E0.01207
G1 X129.504 Y117.190 E0.01207
G1 X129.721 Y117.507 E0.01207
G1 X129.916 Y117.840 E0.01207
G1 X130.088 Y118.184 E0.01207
G1 X130.235 Y118.540 E0.01207
G1 X130.357 Y118.905 E0.01207
G1 X130.454 Y119.278 E0.01207
G1 X130.526 Y119.656 E0.01207
G1 X130.571 Y120.038 E0.01207
G1 X130.589 Y120.423 E0.01207
G1 X130.581 Y120.808 E0.01207
G1 X130.547 Y121.191 E0.01207
G1 X130.486 Y121.572 E0.01207
G1 X130.399 Y121.947 E0.01207
G1 X130.287 Y122.315 E0.01207
G1 X130.149 Y122.675 E0.01207
G1 X129.987 Y123.024 E0.01207
G1 X129.802 Y123.361 E0.01207
G1 X129.594 Y123.685 E0.01207
G1 X129.363 Y123.994 E0.01207
G1 X129.113 Y124.286 E0.01207
G1 X128.842 Y124.560 E0.01207
G1 X128.554 Y124.815 E0.01207
G1 X128.248 Y125.049 E0.01207
G1 X127.927 Y125.262 E0.01207
G1 X127.592 Y125.452 E0.01207
G1 X127.245 Y125.619 E0.01207
G1 X126.888 Y125.761 E0.01207
G1 X126.521 Y125.879 E0.01207
G1 X126.147 Y125.971 E0.01207
G1 X125.768 Y126.037 E0.01207
G1 X125.385 Y126.076 E0.01207
G1 X125.000 Y126.090 E0.01207
G1 X124.608 Y126.076 E0.01229
G1 X124.232 Y126.037 E0.01186
G1 X123.853 Y125.971 E0.01207
G1 X123.479 Y125.879 E0.01207
G1 X123.112 Y125.761 E0.01207
G1 X122.755 Y125.619 E0.01207
G1 X122.408 Y125.452 E0.01207
G1 X122.073 Y125.262 E0.01207
G1 X121.752 Y125.049 E0.01207
G1 X121.446 Y124.815 E0.01207
G1 X121.158 Y124.560 E0.01207
G1 X120.887 Y124.286 E0.01207
G1 X120.637 Y123.994 E0.01207
G1 X120.406 Y123.685 E0.01207
G1 X120.198 Y123.361 E0.01207
G1 X120.013 Y123.024 E0.01207
G1 X119.851 Y122.675 E0.01207
G1 X119.713 Y122.315 E0.01207
G1 X119.601 Y121.947 E0.01207
G1 X119.514 Y121.572 E0.01207
G1 X119.453 Y121.191 E0.01207
G1 X119.419 Y120.808 E0.01207
G1 X119.411 Y120.423 E0.01207
G1 X119.429 Y120.038 E0.01207
G1 X119.474 Y119.656 E0.01207
G1 X119.546 Y119.278 E0.01207
G1 X119.643 Y118.905 E0.01207
G1 X119.765 Y118.540 E0.01207
G1 X119.912 Y118.184 E0.01207
G1 X120.084 Y117.840 E0.01207
G1 X120.279 Y117.507 E0.01207
G1 X120.496 Y117.190 E0.01207
G1 X120.735 Y116.887 E0.01207
G1 X120.993 Y116.602 E0.01207
G1 X121.271 Y116.336 E0.01207
G1 X121.567 Y116.089 E0.01207
G1 X121.879 Y115.863 E0.01207
G1 X122.410 Y115.531 E0.01964
G1 X122.410 Y83.910 E0.99146
G1 X127.590 Y83.910 E0.16242
G1 X127.590 Y115.471 E0.98958
G1 X127.465 Y115.911 F10800.000
;WIPE_START
G1 F8640.000
G1 X128.121 Y115.863 E-0.15246
G1 X128.433 Y116.089 E-0.08890
G1 X128.729 Y116.336 E-0.08890
G1 X129.007 Y116.602 E-0.08890
G1 X129.265 Y116.887 E-0.08890
G1 X129.504 Y117.190 E-0.08890
G1 X129.721 Y117.507 E-0.08890
G1 X129.916 Y117.840 E-0.08890
G1 X130.088 Y118.184 E-0.08890
G1 X130.231 Y118.530 E-0.08631
;WIPE_END
G1 E-0.05000 F2100.000
G1 Z0.400 F10800.000
G1 X127.100 Y85.165
G1 Z0.200
G1 E1.00000 F2100.000
;TYPE:Solid infill
;WIDTH:0.421172
G1 F1200.000
G1 X126.505 Y84.570 E0.02647
G1 X125.970 Y84.570 E0.01682
G1 X126.930 Y85.530 E0.04271
G1 X126.930 Y86.065 E0.01682
G1 X125.435 Y84.570 E0.06651
G1 X124.900 Y84.570 E0.01682
G1 X126.930 Y86.600 E0.09030
G1 X126.930 Y87.135 E0.01682
G1 X124.365 Y84.570 E0.11409
M73 Q3 S18
G1 X123.830 Y84.570 E0.01682
G1 X126.930 Y87.670 E0.13789
M73 P3 R18
G1 X126.930 Y88.205 E0.01682
G1 X123.295 Y84.570 E0.16168
G1 X123.070 Y84.570 E0.00709
G1 X123.070 Y84.880 E0.00974
G1 X126.930 Y88.740 E0.17170
G1 X126.930 Y89.275 E0.01682
G1 X123.070 Y85.414 E0.17170
G1 X123.070 Y85.949 E0.01682
G1 X126.930 Y89.810 E0.17170
G1 X126.930 Y90.345 E0.01682
G1 X123.070 Y86.484 E0.17170
G1 X123.070 Y87.019 E0.01682
G1 X126.930 Y90.879 E0.17170
G1 X126.930 Y91.414 E0.01682
G1 X123.070 Y87.554 E0.17170
G1 X123.070 Y88.089 E0.01682
G1 X126.930 Y91.949 E0.17170
G1 X126.930 Y92.484 E0.01682
G1 X123.070 Y88.624 E0.17170
G1 X123.070 Y89.159 E0.01682
G1 X126.930 Y93.019 E0.17170
G1 X126.930 Y93.554 E0.01682
G1 X123.070 Y89.694 E0.17170
G1 X123.070 Y90.229 E0.01682
G1 X126.930 Y94.089 E0.17170
G1 X126.930 Y94.624 E0.01682
G1 X123.070 Y90.764 E0.17170
G1 X123.070 Y91.299 E0.01682
G1 X126.930 Y95.159 E0.17170
G1 X126.930 Y95.694 E0.01682
G1 X123.070 Y91.834 E0.17170
G1 X123.070 Y92.369 E0.01682
G1 X126.930 Y96.229 E0.17170
G1 X126.930 Y96.764 E0.01682
G1 X123.070 Y92.903 E0.17170
G1 X123.070 Y93.438 E0.01682
G1 X126.930 Y97.299 E0.17170
G1 X126.930 Y97.834 E0.01682
G1 X123.070 Y93.973 E0.17170
G1 X123.070 Y94.508 E0.01682
G1 X126.930 Y98.368 E0.17170
G1 X126.930 Y98.903 E0.01682
G1 X123.070 Y95.043 E0.17170
G1 X123.070 Y95.578 E0.01682
G1 X126.930 Y99.438 E0.17170
G1 X126.930 Y99.973 E0.01682
G1 X123.070 Y96.113 E0.17170
G1 X123.070 Y96.648 E0.01682
G1 X126.930 Y100.508 E0.17170
G1 X126.930 Y101.043 E0.01682
G1 X123.070 Y97.183 E0.17170
G1 X123.070 Y97.718 E0.01682
G1 X126.930 Y101.578 E0.17170
G1 X126.930 Y102.113 E0.01682
G1 X123.070 Y98.253 E0.17170
G1 X123.070 Y98.788 E0.01682
G1 X126.930 Y102.648 E0.17170
G1 X126.930 Y103.183 E0.01682
G1 X123.070 Y99.323 E0.17170
G1 X123.070 Y99.858 E0.01682
G1 X126.930 Y103.718 E0.17170
G1 X126.930 Y104.253 E0.01682
G1 X123.070 Y100.392 E0.17170
G1 X123.070 Y100.927 E0.01682
G1 X126.930 Y104.788 E0.17170
G1 X126.930 Y105.323 E0.01682
G1 X123.070 Y101.462 E0.17170
G1 X123.070 Y101.997 E0.01682
G1 X126.930 Y105.857 E0.17170
G1 X126.930 Y106.392 E0.01682
G1 X123.070 Y102.532 E0.17170
M73 Q4 S18
G1 X123.070 Y103.067 E0.01682
G1 X126.930 Y106.927 E0.17170
M73 P4 R18
G1 X126.930 Y107.462 E0.01682
G1 X123.070 Y103.602 E0.17170
G1 X123.070 Y104.137 E0.01682
G1 X126.930 Y107.997 E0.17170
G1 X126.930 Y108.532 E0.01682
G1 X123.070 Y104.672 E0.17170
G1 X123.070 Y105.207 E0.01682
G1 X126.930 Y109.067 E0.17170
G1 X126.930 Y109.602 E0.01682
G1 X123.070 Y105.742 E0.17170
G1 X123.070 Y106.277 E0.01682
G1 X126.930 Y110.137 E0.17170
G1 X126.930 Y110.672 E0.01682
G1 X123.070 Y106.812 E0.17170
G1 X123.070 Y107.347 E0.01682
G1 X126.930 Y111.207 E0.17170
G1 X126.930 Y111.742 E0.01682
G1 X123.070 Y107.881 E0.17170
G1 X123.070 Y108.416 E0.01682
G1 X126.930 Y112.277 E0.17170
G1 X126.930 Y112.812 E0.01682
G1 X123.070 Y108.951 E0.17170
G1 X123.070 Y109.486 E0.01682
G1 X126.930 Y113.347 E0.17170
G1 X126.930 Y113.881 E0.01682
G1 X123.070 Y110.021 E0.17170
G1 X123.070 Y110.556 E0.01682
G1 X126.930 Y114.416 E0.17170
G1 X126.930 Y114.951 E0.01682
G1 X123.070 Y111.091 E0.17170
G1 X123.070 Y111.626 E0.01682
G1 X126.930 Y115.486 E0.17170
