; generated by PrusaSlicer 2.3.1+x64 on 2023-02-16 at 14:20:15 UTC

; 

; external perimeters extrusion width = 0.45mm
; perimeters extrusion width = 0.45mm
; infill extrusion width = 0.45mm
; solid infill extrusion width = 0.45mm
; top infill extrusion width = 0.40mm
; first layer extrusion width = 0.42mm

M73 P0 R66
M73 Q0 S66
M201 X1000 Y1000 Z200 E5000 ; sets maximum accelerations, mm/sec^2
M203 X200 Y200 Z12 E120 ; sets maximum feedrates, mm/sec
M204 P1250 R1250 T1250 ; sets acceleration (P, T) and retract acceleration (R), mm/sec^2
M205 X8.00 Y8.00 Z0.40 E4.50 ; sets the jerk limits, mm/sec
M205 S0 T0 ; sets the minimum extruding and travel feed rate, mm/sec
M107
;TYPE:Custom
M862.3 P "MK3" ; printer model check
M862.1 P0.4 ; nozzle diameter check
M115 U3.9.3 ; tell printer latest fw version
G90 ; use absolute coordinates
M83 ; extruder relative mode
M104 S120 ; set extruder temp
M140 S85 ; set bed temp
M190 S85 ; wait for bed temp
M104 S240 ; set extruder temp
M109 S240 ; wait for extruder temp
G28 W ; home all without mesh bed level
G80 ; mesh bed leveling
G1 Y-3.0 F1000.0 ; go outside print area
G92 E0.0
G1 X60.0 E9.0 F1000.0 ; intro line
G1 X100.0 E12.5 F1000.0 ; intro line
G92 E0.0
M221 S95

; Don't change E values below. Excessive value can damage the printer.

M907 E538 ; set extruder motor current
G21 ; set units to millimeters
G90 ; use absolute coordinates
M83 ; use relative distances for extrusion
M900 K0.08 ; Filament gcode LA 1.5
M900 K45 ; Filament gcode LA 1.0
;LAYER_CHANGE
;Z:0.2
;HEIGHT:0.2
;BEFORE_LAYER_CHANGE
G92 E0.0
;0.2


G1 E-1.00000 F2100.000
G1 Z0.200 F10800.000
;AFTER_LAYER_CHANGE
;0.2
G1 Z0.400
G1 X89.509 Y144.359
G1 Z0.200
G1 E1.00000 F2100.000
M204 S1000
;TYPE:Skirt
;WIDTH:0.42
G1 F1200.000
G1 X88.884 Y145.079 E0.02989
G1 X81.239 Y150.182 E0.28821
G1 X80.710 Y150.442 E0.01846
G1 X79.959 Y150.571 E0.02390
G1 X69.182 Y150.558 E0.33792
G1 X68.361 Y150.314 E0.02684
G1 X67.679 Y149.795 E0.02684
G1 X67.226 Y149.069 E0.02684
G1 X67.059 Y148.233 E0.02673
G1 X67.559 Y63.198 E2.66626
G1 X67.656 Y61.651 E0.04861
G1 X67.807 Y60.734 E0.02912
G1 X68.187 Y59.304 E0.04641
G1 X68.862 Y57.669 E0.05547
G1 X69.599 Y56.389 E0.04629
G1 X70.112 Y55.666 E0.02781
G1 X71.122 Y54.507 E0.04820
G1 X71.763 Y53.899 E0.02769
G1 X72.450 Y53.339 E0.02781
G1 X73.681 Y52.515 E0.04641
G1 X75.267 Y51.733 E0.05545
G1 X76.661 Y51.259 E0.04619
G1 X77.524 Y51.054 E0.02781
G1 X79.048 Y50.850 E0.04820
G1 X79.938 Y50.817 E0.02793
G1 X80.824 Y50.850 E0.02780
G1 X82.348 Y51.054 E0.04821
G1 X83.211 Y51.259 E0.02781
G1 X84.606 Y51.733 E0.04617
G1 X86.192 Y52.515 E0.05547
G1 X87.422 Y53.339 E0.04641
G1 X88.110 Y53.900 E0.02781
G1 X89.198 Y54.985 E0.04820
G1 X89.761 Y55.666 E0.02769
G1 X90.274 Y56.389 E0.02781
G1 X91.012 Y57.672 E0.04641
G1 X91.685 Y59.304 E0.05535
G1 X92.066 Y60.735 E0.04641
G1 X92.217 Y61.655 E0.02924
G1 X92.312 Y63.285 E0.05118
G1 X89.799 Y143.451 E2.51479
G1 X89.527 Y144.302 E0.02801
; printing object Antenna Arm v4.stl id:0 copy 0
;WIPE_START
G1 F8640.000
G1 X88.884 Y145.079 E-0.23294
G1 X86.301 Y146.803 E-0.71706
;WIPE_END
G1 E-0.05000 F2100.000
G1 Z0.400 F10800.000
G1 X80.511 Y67.191
G1 Z0.200
G1 E1.00000 F2100.000
;TYPE:Perimeter
G1 F1200.000
G1 X80.052 Y67.231 E0.01446
G1 X79.591 Y67.218 E0.01446
G1 X79.134 Y67.152 E0.01446
G1 X78.688 Y67.035 E0.01446
G1 X78.259 Y66.868 E0.01446
G1 X77.851 Y66.652 E0.01446
G1 X77.470 Y66.392 E0.01446
G1 X77.122 Y66.090 E0.01446
G1 X76.810 Y65.750 E0.01446
G1 X76.539 Y65.377 E0.01446
G1 X76.312 Y64.976 E0.01446
G1 X76.133 Y64.551 E0.01446
G1 X76.003 Y64.109 E0.01446
G1 X75.924 Y63.654 E0.01446
G1 X75.898 Y63.194 E0.01446
G1 X75.924 Y62.734 E0.01446
G1 X76.003 Y62.279 E0.01446
G1 X76.133 Y61.837 E0.01446
G1 X76.312 Y61.412 E0.01446
G1 X76.539 Y61.011 E0.01446
G1 X76.810 Y60.638 E0.01446
G1 X77.122 Y60.298 E0.01446
G1 X77.470 Y59.996 E0.01446
G1 X77.851 Y59.736 E0.01446
G1 X78.259 Y59.521 E0.01446
G1 X78.688 Y59.353 E0.01446
G1 X79.134 Y59.236 E0.01446
G1 X79.591 Y59.171 E0.01446
G1 X80.026 Y59.158 E0.01365
G1 X80.509 Y59.196 E0.01520
G1 X80.963 Y59.288 E0.01452
G1 X81.401 Y59.431 E0.01446
G1 X81.821 Y59.622 E0.01446
G1 X82.216 Y59.861 E0.01446
G1 X82.581 Y60.142 E0.01446
G1 X82.911 Y60.463 E0.01446
G1 X83.203 Y60.820 E0.01446
G1 X83.453 Y61.208 E0.01446
G1 X83.656 Y61.622 E0.01446
G1 X83.811 Y62.056 E0.01446
G1 X83.915 Y62.506 E0.01446
G1 X83.968 Y62.964 E0.01446
G1 X83.968 Y63.425 E0.01446
G1 X83.915 Y63.883 E0.01446
G1 X83.811 Y64.332 E0.01446
G1 X83.665 Y64.742 E0.01365
G1 X83.454 Y65.178 E0.01520
G1 X83.203 Y65.568 E0.01452
G1 X82.911 Y65.925 E0.01446
G1 X82.581 Y66.246 E0.01446
G1 X82.236 Y66.512 E0.01365
G1 X81.823 Y66.765 E0.01520
G1 X81.401 Y66.957 E0.01452
G1 X80.963 Y67.100 E0.01446
G1 X80.570 Y67.179 E0.01258
G1 X80.495 Y66.810 F10800.000
;TYPE:External perimeter
G1 F1200.000
G1 X80.041 Y66.853 E0.01430
G1 X79.623 Y66.841 E0.01311
G1 X79.209 Y66.782 E0.01311
G1 X78.805 Y66.676 E0.01310
G1 X78.416 Y66.524 E0.01311
G1 X78.046 Y66.329 E0.01311
G1 X77.701 Y66.093 E0.01311
G1 X77.385 Y65.819 E0.01311
G1 X77.102 Y65.511 E0.01311
G1 X76.857 Y65.173 E0.01310
G1 X76.651 Y64.809 E0.01311
G1 X76.488 Y64.424 E0.01310
G1 X76.371 Y64.023 E0.01311
G1 X76.299 Y63.611 E0.01311
G1 X76.276 Y63.194 E0.01311
G1 X76.299 Y62.777 E0.01311
G1 X76.371 Y62.365 E0.01311
G1 X76.488 Y61.964 E0.01311
G1 X76.651 Y61.579 E0.01310
G1 X76.857 Y61.215 E0.01311
G1 X77.102 Y60.877 E0.01310
G1 X77.385 Y60.569 E0.01311
G1 X77.701 Y60.295 E0.01311
G1 X78.046 Y60.059 E0.01311
G1 X78.416 Y59.864 E0.01311
G1 X78.805 Y59.713 E0.01311
G1 X79.209 Y59.606 E0.01310
G1 X79.623 Y59.547 E0.01311
G1 X80.016 Y59.536 E0.01234
G1 X80.457 Y59.571 E0.01385
G1 X80.867 Y59.654 E0.01313
G1 X81.264 Y59.783 E0.01311
G1 X81.645 Y59.957 E0.01310
G1 X82.002 Y60.172 E0.01311
G1 X82.333 Y60.428 E0.01311
G1 X82.633 Y60.719 E0.01311
G1 X82.898 Y61.042 E0.01311
G1 X83.124 Y61.394 E0.01310
G1 X83.308 Y61.769 E0.01311
G1 X83.449 Y62.163 E0.01311
G1 X83.543 Y62.570 E0.01311
G1 X83.591 Y62.985 E0.01310
G1 X83.591 Y63.403 E0.01311
G1 X83.543 Y63.818 E0.01310
G1 X83.449 Y64.225 E0.01311
G1 X83.316 Y64.596 E0.01234
G1 X83.124 Y64.994 E0.01385
G1 X82.898 Y65.346 E0.01313
G1 X82.633 Y65.669 E0.01311
G1 X82.333 Y65.961 E0.01311
G1 X82.022 Y66.201 E0.01234
G1 X81.645 Y66.431 E0.01385
G1 X81.264 Y66.605 E0.01313
G1 X80.867 Y66.735 E0.01311
G1 X80.554 Y66.798 E0.01002
G1 X80.349 Y67.182 F10800.000
;WIPE_START
G1 F8640.000
G1 X80.041 Y66.853 E-0.11912
G1 X79.623 Y66.841 E-0.09651
G1 X79.209 Y66.782 E-0.09651
G1 X78.805 Y66.676 E-0.09651
G1 X78.416 Y66.524 E-0.09651
G1 X78.046 Y66.329 E-0.09651
G1 X77.701 Y66.093 E-0.09651
G1 X77.385 Y65.819 E-0.09651
G1 X77.102 Y65.511 E-0.09651
G1 X76.953 Y65.305 E-0.05880
;WIPE_END
G1 E-0.05000 F2100.000
G1 Z0.400 F10800.000
G1 X86.649 Y69.526
G1 Z0.200
G1 E1.00000 F2100.000
;TYPE:Perimeter
G1 F1200.000
G1 X86.649 Y142.407 E2.28514
G1 X71.649 Y142.407 E0.47031
G1 X71.649 Y145.981 E0.11207
G1 X79.149 Y145.981 E0.23516
G1 X79.149 Y147.407 E0.04471
G1 X70.223 Y147.407 E0.27986
G1 X70.223 Y143.520 E0.12187
G1 X73.223 Y140.520 E0.13302
G1 X73.223 Y69.526 E2.22598
G1 X72.643 Y68.822 E0.02860
G1 X72.290 Y68.332 E0.01892
G1 X71.970 Y67.821 E0.01892
G1 X71.684 Y67.289 E0.01892
G1 X71.433 Y66.740 E0.01892
G1 X71.220 Y66.176 E0.01892
G1 X71.043 Y65.598 E0.01892
G1 X70.905 Y65.011 E0.01892
G1 X70.805 Y64.416 E0.01892
G1 X70.745 Y63.815 E0.01893
G1 X70.724 Y63.212 E0.01892
G1 X70.742 Y62.608 E0.01892
G1 X70.800 Y62.008 E0.01892
G1 X70.898 Y61.412 E0.01892
G1 X71.034 Y60.824 E0.01893
G1 X71.208 Y60.246 E0.01892
G1 X71.420 Y59.681 E0.01893
G1 X71.668 Y59.131 E0.01892
G1 X71.952 Y58.598 E0.01892
G1 X72.270 Y58.085 E0.01892
G1 X72.621 Y57.594 E0.01891
G1 X73.014 Y57.116 E0.01940
G1 X73.416 Y56.686 E0.01846
G1 X73.856 Y56.273 E0.01892
G1 X74.322 Y55.890 E0.01892
G1 X74.813 Y55.538 E0.01892
G1 X75.325 Y55.219 E0.01892
G1 X75.857 Y54.934 E0.01892
G1 X76.407 Y54.685 E0.01892
G1 X76.972 Y54.472 E0.01892
G1 X77.549 Y54.296 E0.01892
G1 X78.137 Y54.159 E0.01892
G1 X78.732 Y54.061 E0.01892
G1 X79.333 Y54.001 E0.01891
G1 X79.951 Y53.982 E0.01940
G1 X80.539 Y54.001 E0.01846
G1 X81.140 Y54.061 E0.01892
G1 X81.736 Y54.159 E0.01892
G1 X82.323 Y54.296 E0.01892
G1 X82.901 Y54.472 E0.01892
G1 X83.466 Y54.685 E0.01892
G1 X84.015 Y54.934 E0.01892
G1 X84.548 Y55.219 E0.01892
G1 X85.060 Y55.538 E0.01892
G1 X85.550 Y55.890 E0.01892
G1 X86.017 Y56.273 E0.01892
G1 X86.457 Y56.686 E0.01892
G1 X86.869 Y57.127 E0.01892
G1 X87.251 Y57.594 E0.01892
G1 X87.602 Y58.085 E0.01891
G1 X87.927 Y58.611 E0.01940
G1 X88.204 Y59.131 E0.01846
G1 X88.453 Y59.681 E0.01892
G1 X88.664 Y60.246 E0.01893
G1 X88.839 Y60.824 E0.01892
G1 X88.975 Y61.412 E0.01892
G1 X89.072 Y62.008 E0.01892
G1 X89.130 Y62.608 E0.01892
G1 X89.149 Y63.212 E0.01892
G1 X89.128 Y63.815 E0.01892
G1 X89.067 Y64.416 E0.01893
G1 X88.968 Y65.011 E0.01892
G1 X88.829 Y65.598 E0.01892
G1 X88.653 Y66.176 E0.01892
G1 X88.439 Y66.740 E0.01892
G1 X88.189 Y67.289 E0.01892
G1 X87.903 Y67.821 E0.01892
G1 X87.583 Y68.332 E0.01892
G1 X87.230 Y68.822 E0.01892
G1 X86.687 Y69.479 E0.02672
G1 X87.026 Y69.661 F10800.000
;TYPE:External perimeter
G1 F1200.000
G1 X87.026 Y142.784 E2.29272
G1 X72.026 Y142.784 E0.47031
G1 X72.026 Y145.604 E0.08842
M73 Q1 S66
G1 X79.526 Y145.604 E0.23516
G1 X79.526 Y147.784 E0.06835
G1 X69.846 Y147.784 E0.30351
M73 P1 R66
G1 X69.846 Y143.364 E0.13859
G1 X72.846 Y140.364 E0.13302
G1 X72.846 Y69.661 E2.21684
G1 X72.344 Y69.053 E0.02474
G1 X71.977 Y68.543 E0.01970
G1 X71.643 Y68.010 E0.01970
G1 X71.346 Y67.457 E0.01970
G1 X71.085 Y66.885 E0.01970
G1 X70.863 Y66.298 E0.01970
G1 X70.679 Y65.697 E0.01970
G1 X70.535 Y65.085 E0.01970
G1 X70.431 Y64.466 E0.01970
M73 P1 R65
G1 X70.368 Y63.840 E0.01970
G1 X70.346 Y63.212 E0.01970
G1 X70.366 Y62.584 E0.01970
G1 X70.426 Y61.959 E0.01970
G1 X70.528 Y61.339 E0.01970
G1 X70.669 Y60.727 E0.01970
G1 X70.851 Y60.125 E0.01970
G1 X71.071 Y59.537 E0.01970
G1 X71.330 Y58.964 E0.01970
G1 X71.625 Y58.410 E0.01970
G1 X71.956 Y57.876 E0.01970
G1 X72.322 Y57.365 E0.01969
G1 X72.730 Y56.868 E0.02018
G1 X73.149 Y56.420 E0.01923
G1 X73.607 Y55.990 E0.01970
G1 X74.092 Y55.591 E0.01970
G1 X74.603 Y55.224 E0.01970
G1 X75.136 Y54.892 E0.01970
G1 X75.690 Y54.596 E0.01970
G1 X76.262 Y54.336 E0.01970
G1 X76.850 Y54.115 E0.01970
G1 X77.451 Y53.932 E0.01970
G1 X78.063 Y53.789 E0.01970
G1 X78.683 Y53.687 E0.01970
G1 X79.308 Y53.625 E0.01969
G1 X79.951 Y53.605 E0.02018
G1 X80.564 Y53.625 E0.01923
G1 X81.189 Y53.687 E0.01970
G1 X81.809 Y53.789 E0.01970
G1 X82.421 Y53.932 E0.01970
G1 X83.022 Y54.115 E0.01970
G1 X83.610 Y54.336 E0.01970
G1 X84.182 Y54.596 E0.01970
G1 X84.736 Y54.892 E0.01970
G1 X85.270 Y55.224 E0.01970
G1 X85.780 Y55.591 E0.01970
G1 X86.266 Y55.990 E0.01970
G1 X86.724 Y56.420 E0.01970
G1 X87.153 Y56.879 E0.01970
G1 X87.551 Y57.365 E0.01970
G1 X87.916 Y57.876 E0.01969
G1 X88.254 Y58.423 E0.02018
G1 X88.543 Y58.964 E0.01923
G1 X88.801 Y59.537 E0.01970
G1 X89.022 Y60.125 E0.01970
G1 X89.203 Y60.727 E0.01970
G1 X89.345 Y61.339 E0.01970
G1 X89.446 Y61.959 E0.01970
G1 X89.507 Y62.584 E0.01970
G1 X89.526 Y63.212 E0.01970
G1 X89.504 Y63.840 E0.01970
G1 X89.441 Y64.466 E0.01970
G1 X89.338 Y65.085 E0.01970
G1 X89.194 Y65.697 E0.01970
G1 X89.010 Y66.298 E0.01970
G1 X88.787 Y66.885 E0.01970
G1 X88.527 Y67.457 E0.01970
G1 X88.229 Y68.010 E0.01970
G1 X87.896 Y68.543 E0.01970
G1 X87.528 Y69.053 E0.01970
G1 X87.064 Y69.615 E0.02286
G1 X86.644 Y69.781 F10800.000
;WIPE_START
G1 F8640.000
G1 X87.062 Y73.729 E-0.95000
;WIPE_END
G1 E-0.05000 F2100.000
G1 Z0.400 F10800.000
G1 X87.483 Y58.113
G1 Z0.200
G1 E1.00000 F2100.000
;TYPE:Solid infill
;WIDTH:0.420492
G1 F1200.000
G1 X86.252 Y56.882 E0.05467
G1 X85.830 Y56.486 E0.01817
G1 X85.378 Y56.114 E0.01837
G1 X84.903 Y55.773 E0.01837
G1 X84.178 Y55.342 E0.02648
G1 X87.789 Y58.953 E0.16033
G1 X87.950 Y59.256 E0.01077
G1 X88.251 Y59.949 E0.02372
G1 X83.182 Y54.880 E0.22505
G1 X82.810 Y54.740 E0.01249
G1 X82.376 Y54.608 E0.01424
G1 X88.522 Y60.754 E0.27288
G1 X88.696 Y61.462 E0.02288
G1 X81.669 Y54.435 E0.31200
G1 X81.035 Y54.334 E0.02016
G1 X88.796 Y62.096 E0.34462
G1 X88.849 Y62.683 E0.01850
G1 X80.448 Y54.281 E0.37304
G1 X79.899 Y54.267 E0.01723
G1 X88.865 Y63.233 E0.39809
G1 X88.847 Y63.749 E0.01621
G1 X79.381 Y54.283 E0.42028
G1 X78.893 Y54.329 E0.01539
G1 X88.801 Y64.237 E0.43990
G1 X88.733 Y64.702 E0.01477
G1 X78.428 Y54.398 E0.45752
G1 X77.982 Y54.486 E0.01427
G1 X88.645 Y65.148 E0.47343
M73 Q1 S65
G1 X88.540 Y65.578 E0.01387
G1 X77.553 Y54.591 E0.48782
G1 X77.144 Y54.715 E0.01344
G1 X81.672 Y59.244 E0.20108
G1 X81.953 Y59.372 E0.00969
G1 X82.376 Y59.627 E0.01549
G1 X82.766 Y59.928 E0.01549
G1 X83.120 Y60.272 E0.01549
G1 X83.433 Y60.654 E0.01549
G1 X83.699 Y61.069 E0.01549
G1 X83.894 Y61.466 E0.01388
G1 X88.415 Y65.987 E0.20072
G1 X88.273 Y66.379 E0.01310
G1 X84.147 Y62.252 E0.18322
G1 X84.195 Y62.457 E0.00660
G1 X84.243 Y62.883 E0.01345
G1 X88.120 Y66.759 E0.17210
G1 X87.952 Y67.126 E0.01265
G1 X84.251 Y63.424 E0.16435
G1 X84.198 Y63.905 E0.01518
G1 X87.768 Y67.475 E0.15851
G1 X87.573 Y67.814 E0.01228
G1 X84.099 Y64.341 E0.15424
G1 X83.965 Y64.741 E0.01324
G1 X87.368 Y68.143 E0.15106
G1 X87.146 Y68.455 E0.01202
G1 X83.801 Y65.110 E0.14852
G1 X83.612 Y65.455 E0.01235
G1 X86.915 Y68.759 E0.14668
G1 X86.674 Y69.051 E0.01191
G1 X83.399 Y65.776 E0.14543
G1 X83.158 Y66.070 E0.01191
G1 X86.433 Y69.344 E0.14537
G1 X86.366 Y69.424 E0.00327
G1 X86.366 Y69.811 E0.01216
G1 X82.892 Y66.338 E0.15424
G1 X82.605 Y66.584 E0.01189
G1 X86.366 Y70.345 E0.16699
G1 X86.366 Y70.879 E0.01676
G1 X82.295 Y66.808 E0.18078
G1 X81.963 Y67.010 E0.01219
G1 X86.366 Y71.413 E0.19549
G1 X86.366 Y71.947 E0.01676
G1 X81.598 Y67.179 E0.21173
G1 X81.204 Y67.319 E0.01312
G1 X86.366 Y72.481 E0.22921
G1 X86.366 Y73.015 E0.01676
G1 X80.777 Y67.426 E0.24816
G1 X80.551 Y67.472 E0.00723
G1 X80.310 Y67.493 E0.00761
G1 X86.366 Y73.549 E0.26892
G1 X86.366 Y74.083 E0.01676
G1 X79.789 Y67.506 E0.29201
G1 X79.566 Y67.500 E0.00700
G1 X79.196 Y67.447 E0.01175
G1 X86.366 Y74.617 E0.31837
G1 X86.366 Y75.151 E0.01676
G1 X78.157 Y66.942 E0.36449
;WIPE_START
G1 F8640.000
G1 X81.066 Y69.851 E-0.95000
;WIPE_END
G1 E-0.05000 F2100.000
G1 Z0.400 F10800.000
G1 X81.113 Y59.218
G1 Z0.200
G1 E1.00000 F2100.000
G1 F1200.000
G1 X76.751 Y54.857 E0.19364
G1 X76.372 Y55.011 E0.01287
G1 X80.253 Y58.893 E0.17234
G1 X80.033 Y58.875 E0.00693
G1 X79.711 Y58.884 E0.01012
G1 X76.004 Y55.178 E0.16457
G1 X75.655 Y55.363 E0.01240
G1 X79.229 Y58.937 E0.15869
G1 X78.792 Y59.034 E0.01406
G1 X75.316 Y55.557 E0.15434
G1 X74.987 Y55.762 E0.01217
G1 X78.391 Y59.166 E0.15111
G1 X78.018 Y59.328 E0.01274
G1 X74.675 Y55.985 E0.14844
G1 X74.372 Y56.215 E0.01196
G1 X77.672 Y59.515 E0.14653
G1 X77.355 Y59.732 E0.01206
G1 X74.079 Y56.456 E0.14547
G1 X73.801 Y56.712 E0.01186
G1 X77.063 Y59.974 E0.14484
G1 X76.793 Y60.238 E0.01185
G1 X73.531 Y56.977 E0.14481
G1 X73.273 Y57.253 E0.01186
G1 X76.544 Y60.523 E0.14520
G1 X76.319 Y60.832 E0.01200
G1 X73.030 Y57.543 E0.14606
G1 X72.793 Y57.840 E0.01193
G1 X76.124 Y61.171 E0.14789
G1 X75.954 Y61.535 E0.01261
G1 X72.570 Y58.151 E0.15021
G1 X72.361 Y58.476 E0.01212
G1 X75.812 Y61.927 E0.15322
G1 X75.703 Y62.352 E0.01379
G1 X72.160 Y58.809 E0.15731
G1 X71.975 Y59.157 E0.01239
G1 X75.636 Y62.819 E0.16257
G1 X75.623 Y63.340 E0.01636
G1 X71.803 Y59.520 E0.16961
G1 X71.642 Y59.893 E0.01276
G1 X75.686 Y63.937 E0.17954
G1 X75.727 Y64.173 E0.00752
G1 X75.869 Y64.654 E0.01574
G1 X71.497 Y60.282 E0.19413
G1 X71.370 Y60.689 E0.01339
G1 X86.366 Y75.685 E0.66583
G1 X86.366 Y76.219 E0.01676
G1 X71.258 Y61.111 E0.67081
G1 X71.162 Y61.549 E0.01408
G1 X86.366 Y76.753 E0.67507
G1 X86.366 Y77.287 E0.01676
G1 X71.087 Y62.008 E0.67840
G1 X71.038 Y62.492 E0.01530
G1 X86.366 Y77.821 E0.68059
G1 X86.366 Y78.355 E0.01676
G1 X71.013 Y63.002 E0.68168
G1 X71.018 Y63.541 E0.01692
G1 X86.366 Y78.889 E0.68146
G1 X86.366 Y79.423 E0.01676
G1 X71.059 Y64.116 E0.67964
G1 X71.086 Y64.378 E0.00828
G1 X71.145 Y64.736 E0.01139
G1 X86.366 Y79.957 E0.67581
M73 Q2 S65
G1 X86.366 Y80.491 E0.01676
