; generated by PrusaSlicer 2.3.1+x64 on 2023-02-16 at 23:22:59 UTC

; 

; external perimeters extrusion width = 0.45mm
; perimeters extrusion width = 0.45mm
; infill extrusion width = 0.45mm
; solid infill extrusion width = 0.45mm
; top infill extrusion width = 0.40mm
; support material extrusion width = 0.35mm
; first layer extrusion width = 0.42mm

M73 P0 R62
M73 Q0 S63
M201 X1000 Y1000 Z200 E5000 ; sets maximum accelerations, mm/sec^2
M203 X200 Y200 Z12 E120 ; sets maximum feedrates, mm/sec
M204 P1250 R1250 T1250 ; sets acceleration (P, T) and retract acceleration (R), mm/sec^2
M205 X8.00 Y8.00 Z0.40 E4.50 ; sets the jerk limits, mm/sec
M205 S0 T0 ; sets the minimum extruding and travel feed rate, mm/sec
M107
;TYPE:Custom
M862.3 P "MK3" ; printer model check
M862.1 P0.4 ; nozzle diameter check
M115 U3.9.3 ; tell printer latest fw version
G90 ; use absolute coordinates
M83 ; extruder relative mode
M104 S120 ; set extruder temp
M140 S85 ; set bed temp
M190 S85 ; wait for bed temp
M104 S240 ; set extruder temp
M109 S240 ; wait for extruder temp
G28 W ; home all without mesh bed level
G80 ; mesh bed leveling
G1 Y-3.0 F1000.0 ; go outside print area
G92 E0.0
G1 X60.0 E9.0 F1000.0 ; intro line
G1 X100.0 E12.5 F1000.0 ; intro line
G92 E0.0
M221 S95

; Don't change E values below. Excessive value can damage the printer.

M907 E538 ; set extruder motor current
G21 ; set units to millimeters
G90 ; use absolute coordinates
M83 ; use relative distances for extrusion
M900 K0.08 ; Filament gcode LA 1.5
M900 K45 ; Filament gcode LA 1.0
;LAYER_CHANGE
;Z:0.2
;HEIGHT:0.2
;BEFORE_LAYER_CHANGE
G92 E0.0
;0.2


G1 E-1.00000 F2100.000
G1 Z0.200 F10800.000
;AFTER_LAYER_CHANGE
;0.2
G1 Z0.400
G1 X61.673 Y115.492
G1 Z0.200
G1 E1.00000 F2100.000
M204 S1000
;TYPE:Skirt
;WIDTH:0.42
G1 F1200.000
G1 X61.851 Y114.926 E0.01858
G1 X62.163 Y114.422 E0.01858
G1 X62.590 Y114.011 E0.01858
G1 X63.105 Y113.719 E0.01858
G1 X147.249 Y83.665 E2.80149
G1 X147.951 Y83.540 E0.02237
G1 X152.016 Y83.539 E0.12746
G1 X152.630 Y83.620 E0.01941
G1 X153.201 Y83.858 E0.01941
G1 X153.693 Y84.235 E0.01941
G1 X154.070 Y84.726 E0.01941
G1 X170.188 Y114.958 E1.07422
G1 X170.388 Y115.841 E0.02837
G1 X170.355 Y120.318 E0.14038
G1 X170.186 Y120.878 E0.01835
G1 X169.885 Y121.380 E0.01835
G1 X169.471 Y121.793 E0.01835
G1 X168.968 Y122.092 E0.01835
G1 X168.279 Y122.278 E0.02237
G1 X109.197 Y128.884 E1.86403
M73 Q0 S62
G1 X96.761 Y128.681 E0.38997
G1 X63.489 Y122.235 E1.06261
G1 X62.956 Y122.045 E0.01775
G1 X62.482 Y121.735 E0.01775
G1 X62.095 Y121.322 E0.01775
G1 X61.816 Y120.825 E0.01787
G1 X61.636 Y119.980 E0.02708
G1 X61.673 Y115.552 E0.13886
; printing object Battery Bracket v2.stl id:0 copy 0
;WIPE_START
G1 F8640.000
G1 X61.851 Y114.926 E-0.15015
G1 X62.163 Y114.422 E-0.13685
G1 X62.590 Y114.011 E-0.13685
G1 X63.105 Y113.719 E-0.13685
G1 X64.693 Y113.151 E-0.38931
;WIPE_END
G1 E-0.05000 F2100.000
G1 Z0.400 F10800.000
G1 X109.225 Y126.507
G1 Z0.200
G1 E1.00000 F2100.000
;TYPE:Support material
G1 F1200.000
G1 X109.225 Y120.329 E0.19370
G1 X108.471 Y120.329 E0.02365
G1 X108.470 Y126.337 E0.18838
G1 X107.716 Y126.337 E0.02365
G1 X107.716 Y120.329 E0.18838
G1 X106.962 Y120.329 E0.02365
G1 X106.962 Y126.337 E0.18838
G1 X106.208 Y126.337 E0.02365
G1 X106.208 Y120.329 E0.18838
G1 X105.454 Y120.329 E0.02365
G1 X105.454 Y126.337 E0.18838
G1 X104.700 Y126.337 E0.02365
G1 X104.700 Y120.329 E0.18838
G1 X103.946 Y120.329 E0.02365
G1 X103.946 Y126.337 E0.18838
G1 X103.191 Y126.337 E0.02365
G1 X103.191 Y120.329 E0.18838
G1 X102.437 Y120.329 E0.02365
G1 X102.437 Y126.337 E0.18838
G1 X101.683 Y126.337 E0.02365
G1 X101.683 Y120.329 E0.18838
G1 X100.929 Y120.329 E0.02365
G1 X100.929 Y126.337 E0.18838
G1 X100.175 Y126.337 E0.02365
G1 X100.175 Y120.329 E0.18838
G1 X99.421 Y120.329 E0.02365
G1 X99.421 Y126.337 E0.18838
G1 X98.666 Y126.337 E0.02365
G1 X98.666 Y120.329 E0.18838
G1 X97.912 Y120.329 E0.02365
G1 X97.912 Y126.337 E0.18838
G1 X97.158 Y126.337 E0.02365
G1 X97.158 Y120.160 E0.19370
;WIPE_START
G1 F8640.000
G1 X97.158 Y124.274 E-0.95000
;WIPE_END
G1 E-0.05000 F2100.000
G1 Z0.400 F10800.000
G1 X151.225 Y116.703
G1 Z0.200
G1 E1.00000 F2100.000
;TYPE:Perimeter
G1 F1200.000
G1 X167.225 Y116.703 E0.50167
G1 X167.225 Y119.129 E0.07606
G1 X64.799 Y119.129 E3.21149
G1 X64.799 Y116.703 E0.07606
G1 X140.338 Y116.703 E2.36847
M73 P1 R61
M73 Q1 S62
G1 X148.799 Y108.242 E0.37518
G1 X148.799 Y86.703 E0.67534
G1 X151.225 Y86.703 E0.07606
G1 X151.225 Y116.643 E0.93875
G1 X151.602 Y116.326 F10800.000
;TYPE:External perimeter
G1 F1200.000
G1 X167.602 Y116.326 E0.50167
G1 X167.602 Y119.506 E0.09971
G1 X64.422 Y119.506 E3.23514
G1 X64.422 Y116.326 E0.09971
G1 X140.182 Y116.326 E2.37540
G1 X148.422 Y108.086 E0.36538
G1 X148.422 Y86.326 E0.68226
G1 X151.602 Y86.326 E0.09971
G1 X151.602 Y116.266 E0.93875
G1 X151.616 Y116.726 F10800.000
;WIPE_START
G1 F8640.000
G1 X155.716 Y116.281 E-0.95000
;WIPE_END
G1 E-0.05000 F2100.000
G1 Z0.400 F10800.000
G1 X150.349 Y86.816
G1 Z0.200
G1 E1.00000 F2100.000
;TYPE:Solid infill
;WIDTH:0.420281
G1 F1200.000
G1 X150.942 Y87.409 E0.02632
G1 X150.942 Y87.943 E0.01675
G1 X149.985 Y86.986 E0.04247
G1 X149.451 Y86.986 E0.01675
G1 X150.942 Y88.477 E0.06616
G1 X150.942 Y89.010 E0.01675
G1 X149.082 Y87.150 E0.08255
G1 X149.082 Y87.684 E0.01675
G1 X150.942 Y89.544 E0.08255
G1 X150.942 Y90.078 E0.01675
G1 X149.082 Y88.217 E0.08255
G1 X149.082 Y88.751 E0.01675
G1 X150.942 Y90.611 E0.08255
G1 X150.942 Y91.145 E0.01675
G1 X149.082 Y89.285 E0.08255
G1 X149.082 Y89.818 E0.01675
G1 X150.942 Y91.679 E0.08255
G1 X150.942 Y92.212 E0.01675
G1 X149.082 Y90.352 E0.08255
G1 X149.082 Y90.886 E0.01675
G1 X150.942 Y92.746 E0.08255
G1 X150.942 Y93.280 E0.01675
G1 X149.082 Y91.419 E0.08255
G1 X149.082 Y91.953 E0.01675
G1 X150.942 Y93.813 E0.08255
G1 X150.942 Y94.347 E0.01675
G1 X149.082 Y92.487 E0.08255
G1 X149.082 Y93.020 E0.01675
G1 X150.942 Y94.881 E0.08255
G1 X150.942 Y95.414 E0.01675
G1 X149.082 Y93.554 E0.08255
G1 X149.082 Y94.088 E0.01675
G1 X150.942 Y95.948 E0.08255
G1 X150.942 Y96.482 E0.01675
G1 X149.082 Y94.621 E0.08255
G1 X149.082 Y95.155 E0.01675
G1 X150.942 Y97.015 E0.08255
G1 X150.942 Y97.549 E0.01675
G1 X149.082 Y95.689 E0.08255
G1 X149.082 Y96.222 E0.01675
G1 X150.942 Y98.083 E0.08255
G1 X150.942 Y98.616 E0.01675
G1 X149.082 Y96.756 E0.08255
G1 X149.082 Y97.290 E0.01675
G1 X150.942 Y99.150 E0.08255
G1 X150.942 Y99.684 E0.01675
G1 X149.082 Y97.823 E0.08255
G1 X149.082 Y98.357 E0.01675
G1 X150.942 Y100.217 E0.08255
G1 X150.942 Y100.751 E0.01675
G1 X149.082 Y98.891 E0.08255
G1 X149.082 Y99.424 E0.01675
G1 X150.942 Y101.285 E0.08255
G1 X150.942 Y101.818 E0.01675
G1 X149.082 Y99.958 E0.08255
G1 X149.082 Y100.492 E0.01675
G1 X150.942 Y102.352 E0.08255
G1 X150.942 Y102.886 E0.01675
G1 X149.082 Y101.025 E0.08255
G1 X149.082 Y101.559 E0.01675
G1 X150.942 Y103.419 E0.08255
G1 X150.942 Y103.953 E0.01675
G1 X149.082 Y102.093 E0.08255
G1 X149.082 Y102.626 E0.01675
G1 X150.942 Y104.487 E0.08255
G1 X150.942 Y105.020 E0.01675
G1 X149.082 Y103.160 E0.08255
G1 X149.082 Y103.694 E0.01675
G1 X150.942 Y105.554 E0.08255
G1 X150.942 Y106.088 E0.01675
G1 X149.082 Y104.227 E0.08255
G1 X149.082 Y104.761 E0.01675
G1 X150.942 Y106.621 E0.08255
G1 X150.942 Y107.155 E0.01675
G1 X149.082 Y105.295 E0.08255
G1 X149.082 Y105.828 E0.01675
G1 X150.942 Y107.689 E0.08255
G1 X150.942 Y108.222 E0.01675
G1 X149.082 Y106.362 E0.08255
G1 X149.082 Y106.896 E0.01675
G1 X150.942 Y108.756 E0.08255
G1 X150.942 Y109.290 E0.01675
G1 X149.082 Y107.429 E0.08255
G1 X149.082 Y107.963 E0.01675
G1 X150.942 Y109.823 E0.08255
G1 X150.942 Y110.357 E0.01675
G1 X149.013 Y108.428 E0.08560
G1 X148.746 Y108.695 E0.01184
G1 X150.942 Y110.891 E0.09744
G1 X150.942 Y111.424 E0.01675
G1 X148.479 Y108.962 E0.10929
G1 X148.213 Y109.228 E0.01184
G1 X150.942 Y111.958 E0.12113
G1 X150.942 Y112.492 E0.01675
G1 X147.946 Y109.495 E0.13297
G1 X147.679 Y109.762 E0.01184
G1 X150.942 Y113.025 E0.14481
G1 X150.942 Y113.559 E0.01675
G1 X147.412 Y110.029 E0.15665
G1 X147.145 Y110.296 E0.01184
G1 X150.942 Y114.093 E0.16849
G1 X150.942 Y114.626 E0.01675
G1 X146.878 Y110.563 E0.18033
G1 X146.612 Y110.829 E0.01184
G1 X150.942 Y115.160 E0.19217
G1 X150.942 Y115.694 E0.01675
G1 X146.345 Y111.096 E0.20401
G1 X146.078 Y111.363 E0.01184
G1 X151.112 Y116.397 E0.22338
;WIPE_START
G1 F8640.000
G1 X148.203 Y113.488 E-0.95000
;WIPE_END
G1 E-0.05000 F2100.000
G1 Z0.400 F10800.000
G1 X166.474 Y116.816
G1 Z0.200
G1 E1.00000 F2100.000
G1 F1200.000
G1 X166.942 Y117.285 E0.02079
G1 X166.942 Y117.818 E0.01675
G1 X166.110 Y116.986 E0.03694
G1 X165.576 Y116.986 E0.01675
G1 X166.942 Y118.352 E0.06063
G1 X166.942 Y118.846 E0.01550
G1 X166.903 Y118.846 E0.00124
G1 X165.042 Y116.986 E0.08255
G1 X164.509 Y116.986 E0.01675
G1 X166.369 Y118.846 E0.08255
G1 X165.835 Y118.846 E0.01675
G1 X163.975 Y116.986 E0.08255
G1 X163.441 Y116.986 E0.01675
G1 X165.302 Y118.846 E0.08255
G1 X164.768 Y118.846 E0.01675
G1 X162.908 Y116.986 E0.08255
G1 X162.374 Y116.986 E0.01675
G1 X164.234 Y118.846 E0.08255
G1 X163.701 Y118.846 E0.01675
G1 X161.840 Y116.986 E0.08255
G1 X161.307 Y116.986 E0.01675
G1 X163.167 Y118.846 E0.08255
G1 X162.633 Y118.846 E0.01675
G1 X160.773 Y116.986 E0.08255
G1 X160.239 Y116.986 E0.01675
G1 X162.100 Y118.846 E0.08255
G1 X161.566 Y118.846 E0.01675
G1 X159.706 Y116.986 E0.08255
G1 X159.172 Y116.986 E0.01675
G1 X161.032 Y118.846 E0.08255
G1 X160.499 Y118.846 E0.01675
G1 X158.638 Y116.986 E0.08255
G1 X158.105 Y116.986 E0.01675
G1 X159.965 Y118.846 E0.08255
G1 X159.431 Y118.846 E0.01675
G1 X157.571 Y116.986 E0.08255
G1 X157.037 Y116.986 E0.01675
G1 X158.898 Y118.846 E0.08255
G1 X158.364 Y118.846 E0.01675
G1 X156.504 Y116.986 E0.08255
G1 X155.970 Y116.986 E0.01675
G1 X157.830 Y118.846 E0.08255
G1 X157.297 Y118.846 E0.01675
G1 X155.436 Y116.986 E0.08255
G1 X154.903 Y116.986 E0.01675
G1 X156.763 Y118.846 E0.08255
G1 X156.229 Y118.846 E0.01675
G1 X154.369 Y116.986 E0.08255
G1 X153.835 Y116.986 E0.01675
G1 X155.696 Y118.846 E0.08255
G1 X155.162 Y118.846 E0.01675
G1 X153.302 Y116.986 E0.08255
G1 X152.768 Y116.986 E0.01675
G1 X154.628 Y118.846 E0.08255
G1 X154.095 Y118.846 E0.01675
G1 X152.234 Y116.986 E0.08255
G1 X151.701 Y116.986 E0.01675
G1 X153.561 Y118.846 E0.08255
G1 X153.027 Y118.846 E0.01675
G1 X145.811 Y111.630 E0.32021
G1 X145.544 Y111.897 E0.01184
G1 X152.493 Y118.846 E0.30837
G1 X151.960 Y118.846 E0.01675
G1 X145.277 Y112.164 E0.29653
G1 X145.011 Y112.430 E0.01184
G1 X151.426 Y118.846 E0.28469
G1 X150.892 Y118.846 E0.01675
G1 X144.744 Y112.697 E0.27285
G1 X144.477 Y112.964 E0.01184
G1 X150.359 Y118.846 E0.26101
G1 X149.825 Y118.846 E0.01675
G1 X144.210 Y113.231 E0.24917
G1 X143.943 Y113.498 E0.01184
G1 X149.291 Y118.846 E0.23733
G1 X148.758 Y118.846 E0.01675
G1 X143.676 Y113.765 E0.22549
M73 P2 R61
M73 Q2 S62
G1 X143.410 Y114.031 E0.01184
G1 X148.224 Y118.846 E0.21365
M73 Q2 S61
G1 X147.690 Y118.846 E0.01675
G1 X143.143 Y114.298 E0.20180
G1 X142.876 Y114.565 E0.01184
G1 X147.157 Y118.846 E0.18996
G1 X146.623 Y118.846 E0.01675
G1 X142.609 Y114.832 E0.17812
G1 X142.342 Y115.099 E0.01184
G1 X146.089 Y118.846 E0.16628
G1 X145.556 Y118.846 E0.01675
G1 X142.075 Y115.366 E0.15444
G1 X141.809 Y115.632 E0.01184
G1 X145.022 Y118.846 E0.14260
G1 X144.488 Y118.846 E0.01675
G1 X141.542 Y115.899 E0.13076
G1 X141.275 Y116.166 E0.01184
G1 X143.955 Y118.846 E0.11892
G1 X143.421 Y118.846 E0.01675
G1 X141.008 Y116.433 E0.10708
G1 X140.741 Y116.700 E0.01184
G1 X142.887 Y118.846 E0.09524
G1 X142.354 Y118.846 E0.01675
G1 X140.474 Y116.967 E0.08340
G1 X140.455 Y116.986 E0.00085
G1 X139.960 Y116.986 E0.01554
G1 X141.820 Y118.846 E0.08255
G1 X141.286 Y118.846 E0.01675
G1 X139.426 Y116.986 E0.08255
G1 X138.893 Y116.986 E0.01675
G1 X140.753 Y118.846 E0.08255
G1 X140.219 Y118.846 E0.01675
G1 X138.359 Y116.986 E0.08255
G1 X137.825 Y116.986 E0.01675
G1 X139.685 Y118.846 E0.08255
G1 X139.152 Y118.846 E0.01675
G1 X137.292 Y116.986 E0.08255
G1 X136.758 Y116.986 E0.01675
G1 X138.618 Y118.846 E0.08255
G1 X138.084 Y118.846 E0.01675
G1 X136.224 Y116.986 E0.08255
G1 X135.691 Y116.986 E0.01675
G1 X137.551 Y118.846 E0.08255
G1 X137.017 Y118.846 E0.01675
G1 X135.157 Y116.986 E0.08255
G1 X134.623 Y116.986 E0.01675
G1 X136.483 Y118.846 E0.08255
G1 X135.950 Y118.846 E0.01675
G1 X134.090 Y116.986 E0.08255
G1 X133.556 Y116.986 E0.01675
G1 X135.416 Y118.846 E0.08255
G1 X134.882 Y118.846 E0.01675
G1 X133.022 Y116.986 E0.08255
G1 X132.489 Y116.986 E0.01675
G1 X134.349 Y118.846 E0.08255
G1 X133.815 Y118.846 E0.01675
G1 X131.955 Y116.986 E0.08255
G1 X131.421 Y116.986 E0.01675
G1 X133.281 Y118.846 E0.08255
G1 X132.748 Y118.846 E0.01675
G1 X130.887 Y116.986 E0.08255
G1 X130.354 Y116.986 E0.01675
G1 X132.214 Y118.846 E0.08255
G1 X131.680 Y118.846 E0.01675
G1 X129.820 Y116.986 E0.08255
G1 X129.286 Y116.986 E0.01675
G1 X131.147 Y118.846 E0.08255
G1 X130.613 Y118.846 E0.01675
G1 X128.753 Y116.986 E0.08255
G1 X128.219 Y116.986 E0.01675
G1 X130.079 Y118.846 E0.08255
G1 X129.546 Y118.846 E0.01675
G1 X127.685 Y116.986 E0.08255
G1 X127.152 Y116.986 E0.01675
G1 X129.012 Y118.846 E0.08255
G1 X128.478 Y118.846 E0.01675
G1 X126.618 Y116.986 E0.08255
G1 X126.084 Y116.986 E0.01675
G1 X127.945 Y118.846 E0.08255
G1 X127.411 Y118.846 E0.01675
G1 X125.551 Y116.986 E0.08255
G1 X125.017 Y116.986 E0.01675
G1 X126.877 Y118.846 E0.08255
G1 X126.344 Y118.846 E0.01675
G1 X124.483 Y116.986 E0.08255
G1 X123.950 Y116.986 E0.01675
G1 X125.810 Y118.846 E0.08255
G1 X125.276 Y118.846 E0.01675
G1 X123.416 Y116.986 E0.08255
G1 X122.882 Y116.986 E0.01675
G1 X124.743 Y118.846 E0.08255
G1 X124.209 Y118.846 E0.01675
G1 X122.349 Y116.986 E0.08255
G1 X121.815 Y116.986 E0.01675
G1 X123.675 Y118.846 E0.08255
G1 X123.142 Y118.846 E0.01675
G1 X121.281 Y116.986 E0.08255
G1 X120.748 Y116.986 E0.01675
G1 X122.608 Y118.846 E0.08255
G1 X122.074 Y118.846 E0.01675
G1 X120.214 Y116.986 E0.08255
G1 X119.680 Y116.986 E0.01675
G1 X121.541 Y118.846 E0.08255
G1 X121.007 Y118.846 E0.01675
G1 X119.147 Y116.986 E0.08255
G1 X118.613 Y116.986 E0.01675
G1 X120.473 Y118.846 E0.08255
G1 X119.940 Y118.846 E0.01675
G1 X118.079 Y116.986 E0.08255
G1 X117.546 Y116.986 E0.01675
G1 X119.406 Y118.846 E0.08255
G1 X118.872 Y118.846 E0.01675
G1 X117.012 Y116.986 E0.08255
G1 X116.478 Y116.986 E0.01675
G1 X118.339 Y118.846 E0.08255
G1 X117.805 Y118.846 E0.01675
G1 X115.945 Y116.986 E0.08255
G1 X115.411 Y116.986 E0.01675
G1 X117.271 Y118.846 E0.08255
G1 X116.738 Y118.846 E0.01675
G1 X114.877 Y116.986 E0.08255
G1 X114.344 Y116.986 E0.01675
G1 X116.204 Y118.846 E0.08255
G1 X115.670 Y118.846 E0.01675
G1 X113.810 Y116.986 E0.08255
G1 X113.276 Y116.986 E0.01675
G1 X115.137 Y118.846 E0.08255
G1 X114.603 Y118.846 E0.01675
G1 X112.743 Y116.986 E0.08255
G1 X112.209 Y116.986 E0.01675
G1 X114.069 Y118.846 E0.08255
G1 X113.536 Y118.846 E0.01675
G1 X111.675 Y116.986 E0.08255
G1 X111.142 Y116.986 E0.01675
G1 X113.002 Y118.846 E0.08255
G1 X112.468 Y118.846 E0.01675
G1 X110.608 Y116.986 E0.08255
G1 X110.074 Y116.986 E0.01675
G1 X111.935 Y118.846 E0.08255
G1 X111.401 Y118.846 E0.01675
G1 X109.541 Y116.986 E0.08255
G1 X109.007 Y116.986 E0.01675
G1 X110.867 Y118.846 E0.08255
G1 X110.334 Y118.846 E0.01675
G1 X108.473 Y116.986 E0.08255
G1 X107.940 Y116.986 E0.01675
G1 X109.800 Y118.846 E0.08255
G1 X109.266 Y118.846 E0.01675
G1 X107.406 Y116.986 E0.08255
G1 X106.872 Y116.986 E0.01675
G1 X108.733 Y118.846 E0.08255
G1 X108.199 Y118.846 E0.01675
G1 X106.339 Y116.986 E0.08255
G1 X105.805 Y116.986 E0.01675
G1 X107.665 Y118.846 E0.08255
G1 X107.132 Y118.846 E0.01675
G1 X105.271 Y116.986 E0.08255
G1 X104.738 Y116.986 E0.01675
G1 X106.598 Y118.846 E0.08255
G1 X106.064 Y118.846 E0.01675
G1 X104.204 Y116.986 E0.08255
G1 X103.670 Y116.986 E0.01675
G1 X105.531 Y118.846 E0.08255
G1 X104.997 Y118.846 E0.01675
G1 X103.137 Y116.986 E0.08255
G1 X102.603 Y116.986 E0.01675
G1 X104.463 Y118.846 E0.08255
G1 X103.930 Y118.846 E0.01675
G1 X102.069 Y116.986 E0.08255
G1 X101.536 Y116.986 E0.01675
G1 X103.396 Y118.846 E0.08255
G1 X102.862 Y118.846 E0.01675
G1 X101.002 Y116.986 E0.08255
G1 X100.468 Y116.986 E0.01675
G1 X102.329 Y118.846 E0.08255
