; generated by PrusaSlicer 2.3.1+x64 on 2023-02-16 at 19:53:52 UTC

; 

; external perimeters extrusion width = 0.45mm
; perimeters extrusion width = 0.45mm
; infill extrusion width = 0.45mm
; solid infill extrusion width = 0.45mm
; top infill extrusion width = 0.40mm
; support material extrusion width = 0.35mm
; first layer extrusion width = 0.42mm

M73 P0 R39
M73 Q0 S39
M201 X1000 Y1000 Z200 E5000 ; sets maximum accelerations, mm/sec^2
M203 X200 Y200 Z12 E120 ; sets maximum feedrates, mm/sec
M204 P1250 R1250 T1250 ; sets acceleration (P, T) and retract acceleration (R), mm/sec^2
M205 X8.00 Y8.00 Z0.40 E4.50 ; sets the jerk limits, mm/sec
M205 S0 T0 ; sets the minimum extruding and travel feed rate, mm/sec
M107
;TYPE:Custom
M862.3 P "MK3" ; printer model check
M862.1 P0.4 ; nozzle diameter check
M115 U3.9.3 ; tell printer latest fw version
G90 ; use absolute coordinates
M83 ; extruder relative mode
M104 S120 ; set extruder temp
M140 S85 ; set bed temp
M190 S85 ; wait for bed temp
M104 S240 ; set extruder temp
M109 S240 ; wait for extruder temp
G28 W ; home all without mesh bed level
G80 ; mesh bed leveling
G1 Y-3.0 F1000.0 ; go outside print area
G92 E0.0
G1 X60.0 E9.0 F1000.0 ; intro line
G1 X100.0 E12.5 F1000.0 ; intro line
G92 E0.0
M221 S95

; Don't change E values below. Excessive value can damage the printer.

M907 E538 ; set extruder motor current
G21 ; set units to millimeters
G90 ; use absolute coordinates
M83 ; use relative distances for extrusion
M900 K0.08 ; Filament gcode LA 1.5
M900 K45 ; Filament gcode LA 1.0
;LAYER_CHANGE
;Z:0.2
;HEIGHT:0.2
;BEFORE_LAYER_CHANGE
G92 E0.0
;0.2


G1 E-1.00000 F2100.000
G1 Z0.200 F10800.000
;AFTER_LAYER_CHANGE
;0.2
G1 Z0.400
G1 X15.859 Y56.537
G1 Z0.200
G1 E1.00000 F2100.000
M204 S1000
;TYPE:Skirt
;WIDTH:0.42
G1 F1200.000
G1 X16.036 Y55.971 E0.01858
G1 X16.348 Y55.468 E0.01858
G1 X16.775 Y55.057 E0.01858
G1 X17.291 Y54.764 E0.01858
M73 P0 R38
G1 X101.434 Y24.710 E2.80149
G1 X102.136 Y24.585 E0.02237
G1 X106.201 Y24.584 E0.12746
G1 X106.815 Y24.666 E0.01941
G1 X107.387 Y24.903 E0.01941
G1 X107.878 Y25.280 E0.01941
G1 X108.255 Y25.771 E0.01941
G1 X124.373 Y56.004 E1.07422
G1 X124.574 Y56.886 E0.02837
G1 X124.541 Y61.363 E0.14038
G1 X124.371 Y61.923 E0.01835
G1 X124.071 Y62.425 E0.01835
G1 X123.656 Y62.838 E0.01835
G1 X123.154 Y63.138 E0.01835
G1 X122.465 Y63.323 E0.02237
G1 X63.382 Y69.929 E1.86403
G1 X50.946 Y69.726 E0.38997
G1 X17.675 Y63.280 E1.06261
G1 X17.141 Y63.091 E0.01775
G1 X16.668 Y62.780 E0.01775
G1 X16.281 Y62.367 E0.01775
G1 X16.001 Y61.870 E0.01787
G1 X15.821 Y61.025 E0.02708
G1 X15.858 Y56.597 E0.13886
; printing object Battery Bracket v2.stl id:0 copy 0
;WIPE_START
G1 F8640.000
G1 X16.036 Y55.971 E-0.15015
G1 X16.348 Y55.468 E-0.13685
G1 X16.775 Y55.057 E-0.13685
G1 X17.291 Y54.764 E-0.13685
G1 X18.879 Y54.197 E-0.38931
;WIPE_END
G1 E-0.05000 F2100.000
G1 Z0.400 F10800.000
G1 X63.410 Y67.552
G1 Z0.200
G1 E1.00000 F2100.000
;TYPE:Support material
G1 F1200.000
G1 X63.410 Y61.375 E0.19370
G1 X62.656 Y61.375 E0.02365
G1 X62.656 Y67.383 E0.18838
G1 X61.902 Y67.383 E0.02365
G1 X61.902 Y61.375 E0.18838
G1 X61.148 Y61.375 E0.02365
G1 X61.148 Y67.383 E0.18838
G1 X60.394 Y67.383 E0.02365
G1 X60.394 Y61.375 E0.18838
G1 X59.639 Y61.375 E0.02365
G1 X59.639 Y67.383 E0.18838
G1 X58.885 Y67.383 E0.02365
G1 X58.885 Y61.375 E0.18838
G1 X58.131 Y61.375 E0.02365
G1 X58.131 Y67.383 E0.18838
M73 P1 R38
M73 Q1 S39
G1 X57.377 Y67.383 E0.02365
G1 X57.377 Y61.375 E0.18838
G1 X56.623 Y61.375 E0.02365
G1 X56.623 Y67.383 E0.18838
G1 X55.869 Y67.383 E0.02365
G1 X55.869 Y61.375 E0.18838
G1 X55.114 Y61.375 E0.02365
G1 X55.114 Y67.383 E0.18838
G1 X54.360 Y67.383 E0.02365
G1 X54.360 Y61.375 E0.18838
G1 X53.606 Y61.375 E0.02365
G1 X53.606 Y67.383 E0.18838
G1 X52.852 Y67.383 E0.02365
G1 X52.852 Y61.375 E0.18838
G1 X52.098 Y61.375 E0.02365
G1 X52.098 Y67.383 E0.18838
G1 X51.344 Y67.383 E0.02365
G1 X51.344 Y61.205 E0.19370
;WIPE_START
G1 F8640.000
G1 X51.344 Y65.319 E-0.95000
;WIPE_END
G1 E-0.05000 F2100.000
G1 Z0.400 F10800.000
G1 X105.411 Y57.748
G1 Z0.200
G1 E1.00000 F2100.000
;TYPE:Perimeter
G1 F1200.000
G1 X121.411 Y57.748 E0.50167
G1 X121.411 Y60.174 E0.07606
G1 X18.985 Y60.174 E3.21149
G1 X18.985 Y57.748 E0.07606
G1 X94.524 Y57.748 E2.36847
G1 X102.985 Y49.287 E0.37518
G1 X102.985 Y27.748 E0.67534
G1 X105.411 Y27.748 E0.07606
G1 X105.411 Y57.688 E0.93875
G1 X105.788 Y57.371 F10800.000
;TYPE:External perimeter
G1 F1200.000
G1 X121.788 Y57.371 E0.50167
G1 X121.788 Y60.551 E0.09971
G1 X18.608 Y60.551 E3.23514
M73 P2 R38
M73 Q2 S38
G1 X18.608 Y57.371 E0.09971
G1 X94.367 Y57.371 E2.37540
G1 X102.608 Y49.131 E0.36538
G1 X102.608 Y27.371 E0.68226
G1 X105.788 Y27.371 E0.09971
G1 X105.788 Y57.311 E0.93875
G1 X105.802 Y57.771 F10800.000
;WIPE_START
G1 F8640.000
G1 X109.902 Y57.327 E-0.95000
;WIPE_END
G1 E-0.05000 F2100.000
G1 Z0.400 F10800.000
G1 X104.535 Y27.861
G1 Z0.200
G1 E1.00000 F2100.000
;TYPE:Solid infill
;WIDTH:0.420281
G1 F1200.000
G1 X105.128 Y28.455 E0.02632
G1 X105.128 Y28.988 E0.01675
G1 X104.171 Y28.031 E0.04247
G1 X103.637 Y28.031 E0.01675
G1 X105.128 Y29.522 E0.06616
G1 X105.128 Y30.056 E0.01675
G1 X103.268 Y28.195 E0.08255
G1 X103.268 Y28.729 E0.01675
G1 X105.128 Y30.589 E0.08255
G1 X105.128 Y31.123 E0.01675
G1 X103.268 Y29.263 E0.08255
G1 X103.268 Y29.796 E0.01675
G1 X105.128 Y31.657 E0.08255
G1 X105.128 Y32.190 E0.01675
G1 X103.268 Y30.330 E0.08255
G1 X103.268 Y30.864 E0.01675
G1 X105.128 Y32.724 E0.08255
G1 X105.128 Y33.258 E0.01675
G1 X103.268 Y31.397 E0.08255
G1 X103.268 Y31.931 E0.01675
G1 X105.128 Y33.791 E0.08255
G1 X105.128 Y34.325 E0.01675
G1 X103.268 Y32.465 E0.08255
G1 X103.268 Y32.998 E0.01675
G1 X105.128 Y34.859 E0.08255
G1 X105.128 Y35.392 E0.01675
G1 X103.268 Y33.532 E0.08255
G1 X103.268 Y34.066 E0.01675
G1 X105.128 Y35.926 E0.08255
G1 X105.128 Y36.460 E0.01675
G1 X103.268 Y34.599 E0.08255
G1 X103.268 Y35.133 E0.01675
G1 X105.128 Y36.993 E0.08255
G1 X105.128 Y37.527 E0.01675
G1 X103.268 Y35.667 E0.08255
G1 X103.268 Y36.200 E0.01675
G1 X105.128 Y38.061 E0.08255
G1 X105.128 Y38.594 E0.01675
G1 X103.268 Y36.734 E0.08255
G1 X103.268 Y37.268 E0.01675
G1 X105.128 Y39.128 E0.08255
G1 X105.128 Y39.662 E0.01675
G1 X103.268 Y37.801 E0.08255
G1 X103.268 Y38.335 E0.01675
G1 X105.128 Y40.195 E0.08255
G1 X105.128 Y40.729 E0.01675
G1 X103.268 Y38.869 E0.08255
G1 X103.268 Y39.402 E0.01675
G1 X105.128 Y41.263 E0.08255
G1 X105.128 Y41.796 E0.01675
G1 X103.268 Y39.936 E0.08255
G1 X103.268 Y40.470 E0.01675
G1 X105.128 Y42.330 E0.08255
G1 X105.128 Y42.864 E0.01675
G1 X103.268 Y41.003 E0.08255
G1 X103.268 Y41.537 E0.01675
G1 X105.128 Y43.397 E0.08255
G1 X105.128 Y43.931 E0.01675
G1 X103.268 Y42.071 E0.08255
G1 X103.268 Y42.604 E0.01675
G1 X105.128 Y44.465 E0.08255
G1 X105.128 Y44.998 E0.01675
G1 X103.268 Y43.138 E0.08255
G1 X103.268 Y43.672 E0.01675
G1 X105.128 Y45.532 E0.08255
G1 X105.128 Y46.066 E0.01675
G1 X103.268 Y44.205 E0.08255
G1 X103.268 Y44.739 E0.01675
G1 X105.128 Y46.599 E0.08255
G1 X105.128 Y47.133 E0.01675
G1 X103.268 Y45.273 E0.08255
G1 X103.268 Y45.806 E0.01675
G1 X105.128 Y47.667 E0.08255
G1 X105.128 Y48.200 E0.01675
G1 X103.268 Y46.340 E0.08255
G1 X103.268 Y46.874 E0.01675
G1 X105.128 Y48.734 E0.08255
G1 X105.128 Y49.268 E0.01675
G1 X103.268 Y47.407 E0.08255
G1 X103.268 Y47.941 E0.01675
G1 X105.128 Y49.801 E0.08255
G1 X105.128 Y50.335 E0.01675
G1 X103.268 Y48.475 E0.08255
G1 X103.268 Y49.008 E0.01675
G1 X105.128 Y50.869 E0.08255
G1 X105.128 Y51.402 E0.01675
G1 X103.199 Y49.473 E0.08560
G1 X102.932 Y49.740 E0.01184
G1 X105.128 Y51.936 E0.09744
G1 X105.128 Y52.470 E0.01675
G1 X102.665 Y50.007 E0.10929
G1 X102.398 Y50.274 E0.01184
G1 X105.128 Y53.003 E0.12113
G1 X105.128 Y53.537 E0.01675
G1 X102.131 Y50.541 E0.13297
G1 X101.864 Y50.807 E0.01184
G1 X105.128 Y54.071 E0.14481
G1 X105.128 Y54.604 E0.01675
G1 X101.598 Y51.074 E0.15665
G1 X101.331 Y51.341 E0.01184
G1 X105.128 Y55.138 E0.16849
G1 X105.128 Y55.672 E0.01675
G1 X101.064 Y51.608 E0.18033
G1 X100.797 Y51.875 E0.01184
G1 X105.128 Y56.205 E0.19217
G1 X105.128 Y56.739 E0.01675
G1 X100.530 Y52.142 E0.20401
G1 X100.263 Y52.408 E0.01184
G1 X105.297 Y57.442 E0.22338
;WIPE_START
G1 F8640.000
G1 X102.388 Y54.533 E-0.95000
;WIPE_END
G1 E-0.05000 F2100.000
G1 Z0.400 F10800.000
G1 X120.659 Y57.861
G1 Z0.200
G1 E1.00000 F2100.000
G1 F1200.000
G1 X121.128 Y58.330 E0.02079
G1 X121.128 Y58.864 E0.01675
G1 X120.295 Y58.031 E0.03694
G1 X119.762 Y58.031 E0.01675
G1 X121.128 Y59.397 E0.06063
G1 X121.128 Y59.891 E0.01550
G1 X121.088 Y59.891 E0.00124
G1 X119.228 Y58.031 E0.08255
G1 X118.694 Y58.031 E0.01675
G1 X120.554 Y59.891 E0.08255
G1 X120.021 Y59.891 E0.01675
G1 X118.161 Y58.031 E0.08255
G1 X117.627 Y58.031 E0.01675
G1 X119.487 Y59.891 E0.08255
G1 X118.953 Y59.891 E0.01675
G1 X117.093 Y58.031 E0.08255
G1 X116.560 Y58.031 E0.01675
G1 X118.420 Y59.891 E0.08255
G1 X117.886 Y59.891 E0.01675
G1 X116.026 Y58.031 E0.08255
G1 X115.492 Y58.031 E0.01675
G1 X117.352 Y59.891 E0.08255
G1 X116.819 Y59.891 E0.01675
M73 P2 R37
G1 X114.958 Y58.031 E0.08255
G1 X114.425 Y58.031 E0.01675
G1 X116.285 Y59.891 E0.08255
G1 X115.751 Y59.891 E0.01675
G1 X113.891 Y58.031 E0.08255
G1 X113.357 Y58.031 E0.01675
G1 X115.218 Y59.891 E0.08255
G1 X114.684 Y59.891 E0.01675
G1 X112.824 Y58.031 E0.08255
G1 X112.290 Y58.031 E0.01675
G1 X114.150 Y59.891 E0.08255
G1 X113.617 Y59.891 E0.01675
G1 X111.756 Y58.031 E0.08255
G1 X111.223 Y58.031 E0.01675
G1 X113.083 Y59.891 E0.08255
G1 X112.549 Y59.891 E0.01675
G1 X110.689 Y58.031 E0.08255
G1 X110.155 Y58.031 E0.01675
G1 X112.016 Y59.891 E0.08255
G1 X111.482 Y59.891 E0.01675
G1 X109.622 Y58.031 E0.08255
G1 X109.088 Y58.031 E0.01675
G1 X110.948 Y59.891 E0.08255
G1 X110.415 Y59.891 E0.01675
G1 X108.554 Y58.031 E0.08255
G1 X108.021 Y58.031 E0.01675
G1 X109.881 Y59.891 E0.08255
M73 P3 R37
G1 X109.347 Y59.891 E0.01675
G1 X107.487 Y58.031 E0.08255
G1 X106.953 Y58.031 E0.01675
G1 X108.814 Y59.891 E0.08255
G1 X108.280 Y59.891 E0.01675
G1 X106.420 Y58.031 E0.08255
M73 Q3 S38
G1 X105.886 Y58.031 E0.01675
G1 X107.746 Y59.891 E0.08255
G1 X107.213 Y59.891 E0.01675
G1 X99.997 Y52.675 E0.32021
G1 X99.730 Y52.942 E0.01184
G1 X106.679 Y59.891 E0.30837
G1 X106.145 Y59.891 E0.01675
G1 X99.463 Y53.209 E0.29653
G1 X99.196 Y53.476 E0.01184
G1 X105.612 Y59.891 E0.28469
G1 X105.078 Y59.891 E0.01675
G1 X98.929 Y53.743 E0.27285
G1 X98.662 Y54.009 E0.01184
G1 X104.544 Y59.891 E0.26101
G1 X104.011 Y59.891 E0.01675
G1 X98.396 Y54.276 E0.24917
G1 X98.129 Y54.543 E0.01184
G1 X103.477 Y59.891 E0.23733
G1 X102.943 Y59.891 E0.01675
G1 X97.862 Y54.810 E0.22549
G1 X97.595 Y55.077 E0.01184
G1 X102.410 Y59.891 E0.21365
G1 X101.876 Y59.891 E0.01675
G1 X97.328 Y55.344 E0.20180
G1 X97.061 Y55.610 E0.01184
G1 X101.342 Y59.891 E0.18996
G1 X100.809 Y59.891 E0.01675
G1 X96.795 Y55.877 E0.17812
G1 X96.528 Y56.144 E0.01184
G1 X100.275 Y59.891 E0.16628
G1 X99.741 Y59.891 E0.01675
G1 X96.261 Y56.411 E0.15444
G1 X95.994 Y56.678 E0.01184
G1 X99.208 Y59.891 E0.14260
G1 X98.674 Y59.891 E0.01675
G1 X95.727 Y56.945 E0.13076
G1 X95.460 Y57.211 E0.01184
G1 X98.140 Y59.891 E0.11892
G1 X97.607 Y59.891 E0.01675
G1 X95.194 Y57.478 E0.10708
G1 X94.927 Y57.745 E0.01184
G1 X97.073 Y59.891 E0.09524
G1 X96.539 Y59.891 E0.01675
G1 X94.660 Y58.012 E0.08340
G1 X94.641 Y58.031 E0.00085
G1 X94.145 Y58.031 E0.01554
G1 X96.006 Y59.891 E0.08255
G1 X95.472 Y59.891 E0.01675
G1 X93.612 Y58.031 E0.08255
G1 X93.078 Y58.031 E0.01675
G1 X94.938 Y59.891 E0.08255
G1 X94.405 Y59.891 E0.01675
G1 X92.544 Y58.031 E0.08255
G1 X92.011 Y58.031 E0.01675
G1 X93.871 Y59.891 E0.08255
G1 X93.337 Y59.891 E0.01675
G1 X91.477 Y58.031 E0.08255
G1 X90.943 Y58.031 E0.01675
G1 X92.804 Y59.891 E0.08255
G1 X92.270 Y59.891 E0.01675
G1 X90.410 Y58.031 E0.08255
G1 X89.876 Y58.031 E0.01675
G1 X91.736 Y59.891 E0.08255
G1 X91.203 Y59.891 E0.01675
G1 X89.342 Y58.031 E0.08255
G1 X88.809 Y58.031 E0.01675
G1 X90.669 Y59.891 E0.08255
G1 X90.135 Y59.891 E0.01675
G1 X88.275 Y58.031 E0.08255
G1 X87.741 Y58.031 E0.01675
G1 X89.602 Y59.891 E0.08255
G1 X89.068 Y59.891 E0.01675
G1 X87.208 Y58.031 E0.08255
G1 X86.674 Y58.031 E0.01675
G1 X88.534 Y59.891 E0.08255
G1 X88.001 Y59.891 E0.01675
G1 X86.140 Y58.031 E0.08255
G1 X85.607 Y58.031 E0.01675
G1 X87.467 Y59.891 E0.08255
G1 X86.933 Y59.891 E0.01675
G1 X85.073 Y58.031 E0.08255
G1 X84.539 Y58.031 E0.01675
G1 X86.400 Y59.891 E0.08255
G1 X85.866 Y59.891 E0.01675
G1 X84.006 Y58.031 E0.08255
G1 X83.472 Y58.031 E0.01675
G1 X85.332 Y59.891 E0.08255
G1 X84.799 Y59.891 E0.01675
G1 X82.938 Y58.031 E0.08255
G1 X82.405 Y58.031 E0.01675
G1 X84.265 Y59.891 E0.08255
G1 X83.731 Y59.891 E0.01675
G1 X81.871 Y58.031 E0.08255
G1 X81.337 Y58.031 E0.01675
G1 X83.198 Y59.891 E0.08255
G1 X82.664 Y59.891 E0.01675
G1 X80.804 Y58.031 E0.08255
G1 X80.270 Y58.031 E0.01675
G1 X82.130 Y59.891 E0.08255
G1 X81.597 Y59.891 E0.01675
G1 X79.736 Y58.031 E0.08255
G1 X79.203 Y58.031 E0.01675
G1 X81.063 Y59.891 E0.08255
G1 X80.529 Y59.891 E0.01675
G1 X78.669 Y58.031 E0.08255
G1 X78.135 Y58.031 E0.01675
G1 X79.996 Y59.891 E0.08255
G1 X79.462 Y59.891 E0.01675
G1 X77.602 Y58.031 E0.08255
G1 X77.068 Y58.031 E0.01675
G1 X78.928 Y59.891 E0.08255
G1 X78.395 Y59.891 E0.01675
G1 X76.534 Y58.031 E0.08255
G1 X76.001 Y58.031 E0.01675
G1 X77.861 Y59.891 E0.08255
G1 X77.327 Y59.891 E0.01675
G1 X75.467 Y58.031 E0.08255
G1 X74.933 Y58.031 E0.01675
G1 X76.794 Y59.891 E0.08255
G1 X76.260 Y59.891 E0.01675
G1 X74.400 Y58.031 E0.08255
G1 X73.866 Y58.031 E0.01675
G1 X75.726 Y59.891 E0.08255
G1 X75.193 Y59.891 E0.01675
G1 X73.332 Y58.031 E0.08255
G1 X72.799 Y58.031 E0.01675
G1 X74.659 Y59.891 E0.08255
G1 X74.125 Y59.891 E0.01675
G1 X72.265 Y58.031 E0.08255
G1 X71.731 Y58.031 E0.01675
G1 X73.592 Y59.891 E0.08255
G1 X73.058 Y59.891 E0.01675
G1 X71.198 Y58.031 E0.08255
G1 X70.664 Y58.031 E0.01675
G1 X72.524 Y59.891 E0.08255
G1 X71.991 Y59.891 E0.01675
G1 X70.130 Y58.031 E0.08255
G1 X69.597 Y58.031 E0.01675
G1 X71.457 Y59.891 E0.08255
G1 X70.923 Y59.891 E0.01675
G1 X69.063 Y58.031 E0.08255
G1 X68.529 Y58.031 E0.01675
G1 X70.390 Y59.891 E0.08255
G1 X69.856 Y59.891 E0.01675
G1 X67.996 Y58.031 E0.08255
G1 X67.462 Y58.031 E0.01675
G1 X69.322 Y59.891 E0.08255
G1 X68.789 Y59.891 E0.01675
G1 X66.928 Y58.031 E0.08255
G1 X66.395 Y58.031 E0.01675
G1 X68.255 Y59.891 E0.08255
G1 X67.721 Y59.891 E0.01675
G1 X65.861 Y58.031 E0.08255
G1 X65.327 Y58.031 E0.01675
G1 X67.188 Y59.891 E0.08255
G1 X66.654 Y59.891 E0.01675
G1 X64.794 Y58.031 E0.08255
G1 X64.260 Y58.031 E0.01675
G1 X66.120 Y59.891 E0.08255
G1 X65.587 Y59.891 E0.01675
G1 X63.726 Y58.031 E0.08255
G1 X63.193 Y58.031 E0.01675
G1 X65.053 Y59.891 E0.08255
G1 X64.519 Y59.891 E0.01675
G1 X62.659 Y58.031 E0.08255
G1 X62.125 Y58.031 E0.01675
G1 X63.986 Y59.891 E0.08255
G1 X63.452 Y59.891 E0.01675
G1 X61.592 Y58.031 E0.08255
G1 X61.058 Y58.031 E0.01675
G1 X62.918 Y59.891 E0.08255
G1 X62.385 Y59.891 E0.01675
G1 X60.524 Y58.031 E0.08255
G1 X59.991 Y58.031 E0.01675
G1 X61.851 Y59.891 E0.08255
G1 X61.317 Y59.891 E0.01675
G1 X59.457 Y58.031 E0.08255
G1 X58.923 Y58.031 E0.01675
G1 X60.783 Y59.891 E0.08255
G1 X60.250 Y59.891 E0.01675
G1 X58.390 Y58.031 E0.08255
G1 X57.856 Y58.031 E0.01675
G1 X59.716 Y59.891 E0.08255
G1 X59.182 Y59.891 E0.01675
G1 X57.322 Y58.031 E0.08255
G1 X56.789 Y58.031 E0.01675
G1 X58.649 Y59.891 E0.08255
G1 X58.115 Y59.891 E0.01675
G1 X56.255 Y58.031 E0.08255
G1 X55.721 Y58.031 E0.01675
G1 X57.581 Y59.891 E0.08255
G1 X57.048 Y59.891 E0.01675
G1 X55.188 Y58.031 E0.08255
G1 X54.654 Y58.031 E0.01675
G1 X56.514 Y59.891 E0.08255
G1 X55.980 Y59.891 E0.01675
G1 X54.120 Y58.031 E0.08255
G1 X53.587 Y58.031 E0.01675
G1 X55.447 Y59.891 E0.08255
G1 X54.913 Y59.891 E0.01675
G1 X53.053 Y58.031 E0.08255
G1 X52.519 Y58.031 E0.01675
G1 X54.379 Y59.891 E0.08255
G1 X53.846 Y59.891 E0.01675
G1 X51.986 Y58.031 E0.08255
G1 X51.452 Y58.031 E0.01675
G1 X53.312 Y59.891 E0.08255
G1 X52.778 Y59.891 E0.01675
G1 X50.918 Y58.031 E0.08255
G1 X50.385 Y58.031 E0.01675
G1 X52.245 Y59.891 E0.08255
G1 X51.711 Y59.891 E0.01675
G1 X49.851 Y58.031 E0.08255
G1 X49.317 Y58.031 E0.01675
G1 X51.177 Y59.891 E0.08255
