; generated by PrusaSlicer 2.3.1+x64 on 2023-02-16 at 16:42:16 UTC

; 

; external perimeters extrusion width = 0.45mm
; perimeters extrusion width = 0.45mm
; infill extrusion width = 0.45mm
; solid infill extrusion width = 0.45mm
; top infill extrusion width = 0.40mm
; support material extrusion width = 0.35mm
; first layer extrusion width = 0.42mm

M73 P0 R31
M73 Q0 S31
M201 X1000 Y1000 Z200 E5000 ; sets maximum accelerations, mm/sec^2
M203 X200 Y200 Z12 E120 ; sets maximum feedrates, mm/sec
M204 P1250 R1250 T1250 ; sets acceleration (P, T) and retract acceleration (R), mm/sec^2
M205 X8.00 Y8.00 Z0.40 E4.50 ; sets the jerk limits, mm/sec
M205 S0 T0 ; sets the minimum extruding and travel feed rate, mm/sec
M107
;TYPE:Custom
M862.3 P "MK3" ; printer model check
M862.1 P0.4 ; nozzle diameter check
M115 U3.9.3 ; tell printer latest fw version
G90 ; use absolute coordinates
M83 ; extruder relative mode
M104 S120 ; set extruder temp
M140 S85 ; set bed temp
M190 S85 ; wait for bed temp
M104 S240 ; set extruder temp
M109 S240 ; wait for extruder temp
G28 W ; home all without mesh bed level
G80 ; mesh bed leveling
G1 Y-3.0 F1000.0 ; go outside print area
G92 E0.0
G1 X60.0 E9.0 F1000.0 ; intro line
M73 P0 R30
G1 X100.0 E12.5 F1000.0 ; intro line
G92 E0.0
M221 S95

; Don't change E values below. Excessive value can damage the printer.

M907 E538 ; set extruder motor current
G21 ; set units to millimeters
G90 ; use absolute coordinates
M83 ; use relative distances for extrusion
M900 K0.08 ; Filament gcode LA 1.5
M900 K45 ; Filament gcode LA 1.0
;LAYER_CHANGE
;Z:0.2
;HEIGHT:0.2
;BEFORE_LAYER_CHANGE
G92 E0.0
;0.2


G1 E-1.00000 F2100.000
G1 Z0.200 F10800.000
;AFTER_LAYER_CHANGE
;0.2
G1 Z0.400
G1 X88.619 Y126.935
G1 Z0.200
G1 E1.00000 F2100.000
M204 S1000
;TYPE:Skirt
;WIDTH:0.42
G1 F1200.000
G1 X88.019 Y126.314 E0.02708
G1 X87.749 Y125.765 E0.01917
G1 X87.629 Y125.165 E0.01917
G1 X87.633 Y120.783 E0.13739
G1 X87.740 Y120.262 E0.01668
G1 X87.959 Y119.781 E0.01657
G1 X88.282 Y119.358 E0.01669
G1 X88.687 Y119.019 E0.01657
G1 X154.827 Y78.932 E2.42494
G1 X155.327 Y78.720 E0.01704
G1 X155.859 Y78.627 E0.01692
G1 X160.004 Y78.623 E0.12996
G1 X160.895 Y78.798 E0.02849
G1 X161.659 Y79.297 E0.02860
G1 X162.178 Y80.048 E0.02860
G1 X162.376 Y80.934 E0.02849
G1 X162.376 Y125.053 E1.38332
G1 X162.295 Y125.618 E0.01787
G1 X162.082 Y126.146 E0.01787
G1 X161.750 Y126.609 E0.01787
G1 X161.313 Y126.981 E0.01799
G1 X160.768 Y127.250 E0.01906
G1 X135.371 Y135.821 E0.84042
G1 X134.821 Y135.889 E0.01740
G1 X124.977 Y135.889 E0.30863
G1 X124.442 Y135.823 E0.01692
G1 X89.405 Y127.301 E1.13057
M73 Q1 S30
G1 X88.673 Y126.960 E0.02531
; printing object Battery Bracket v1.stl id:0 copy 0
;WIPE_START
G1 F8640.000
G1 X88.019 Y126.314 E-0.21241
G1 X87.749 Y125.765 E-0.14121
G1 X87.629 Y125.165 E-0.14121
G1 X87.631 Y123.194 E-0.45517
;WIPE_END
M73 P1 R30
G1 E-0.05000 F2100.000
G1 Z0.400 F10800.000
G1 X134.804 Y133.512
G1 Z0.200
G1 E1.00000 F2100.000
;TYPE:Support material
G1 F1200.000
G1 X134.804 Y125.414 E0.25394
G1 X134.050 Y125.414 E0.02365
G1 X134.050 Y133.343 E0.24862
G1 X133.296 Y133.343 E0.02365
G1 X133.296 Y125.414 E0.24862
G1 X132.542 Y125.414 E0.02365
G1 X132.542 Y133.343 E0.24862
G1 X131.787 Y133.343 E0.02365
G1 X131.787 Y125.414 E0.24862
G1 X131.033 Y125.414 E0.02365
G1 X131.033 Y133.343 E0.24862
G1 X130.279 Y133.343 E0.02365
G1 X130.279 Y125.414 E0.24862
G1 X129.525 Y125.414 E0.02365
G1 X129.525 Y133.343 E0.24862
G1 X128.771 Y133.343 E0.02365
G1 X128.771 Y125.414 E0.24862
G1 X128.017 Y125.414 E0.02365
G1 X128.017 Y133.343 E0.24862
G1 X127.262 Y133.343 E0.02365
G1 X127.262 Y125.414 E0.24862
G1 X126.508 Y125.414 E0.02365
G1 X126.508 Y133.343 E0.24862
G1 X125.754 Y133.343 E0.02365
G1 X125.754 Y125.414 E0.24862
G1 X125.000 Y125.414 E0.02365
G1 X125.000 Y133.512 E0.25394
;WIPE_START
G1 F8640.000
G1 X125.000 Y129.398 E-0.95000
;WIPE_END
G1 E-0.05000 F2100.000
G1 Z0.400 F10800.000
G1 X150.326 Y121.787
G1 Z0.200
G1 E1.00000 F2100.000
;TYPE:Perimeter
G1 F1200.000
G1 X156.787 Y115.326 E0.28649
G1 X156.787 Y81.787 E1.05159
G1 X159.213 Y81.787 E0.07606
G1 X159.213 Y124.213 E1.33023
G1 X90.787 Y124.213 E2.14544
G1 X90.787 Y121.787 E0.07606
G1 X150.266 Y121.787 E1.86492
M73 P2 R30
M73 Q2 S30
G1 X150.170 Y121.410 F10800.000
;TYPE:External perimeter
G1 F1200.000
G1 X156.410 Y115.170 E0.27670
G1 X156.410 Y81.410 E1.05852
G1 X159.590 Y81.410 E0.09971
G1 X159.590 Y124.590 E1.35388
G1 X90.410 Y124.590 E2.16909
G1 X90.410 Y121.410 E0.09971
G1 X150.110 Y121.410 E1.87185
G1 X150.520 Y121.604 F10800.000
;WIPE_START
G1 F8640.000
G1 X153.033 Y118.515 E-0.95000
;WIPE_END
G1 E-0.05000 F2100.000
G1 Z0.400 F10800.000
G1 X158.337 Y81.900
G1 Z0.200
G1 E1.00000 F2100.000
;TYPE:Solid infill
;WIDTH:0.420298
G1 F1200.000
G1 X158.930 Y82.493 E0.02633
G1 X158.930 Y83.027 E0.01675
G1 X157.973 Y82.070 E0.04248
G1 X157.439 Y82.070 E0.01675
G1 X158.930 Y83.561 E0.06616
G1 X158.930 Y84.094 E0.01675
G1 X157.070 Y82.234 E0.08255
G1 X157.070 Y82.768 E0.01675
G1 X158.930 Y84.628 E0.08255
G1 X158.930 Y85.162 E0.01675
G1 X157.070 Y83.302 E0.08255
G1 X157.070 Y83.835 E0.01675
G1 X158.930 Y85.696 E0.08255
G1 X158.930 Y86.229 E0.01675
G1 X157.070 Y84.369 E0.08255
G1 X157.070 Y84.903 E0.01675
G1 X158.930 Y86.763 E0.08255
G1 X158.930 Y87.297 E0.01675
G1 X157.070 Y85.436 E0.08255
G1 X157.070 Y85.970 E0.01675
G1 X158.930 Y87.830 E0.08255
G1 X158.930 Y88.364 E0.01675
G1 X157.070 Y86.504 E0.08255
G1 X157.070 Y87.037 E0.01675
G1 X158.930 Y88.898 E0.08255
G1 X158.930 Y89.431 E0.01675
G1 X157.070 Y87.571 E0.08255
G1 X157.070 Y88.105 E0.01675
G1 X158.930 Y89.965 E0.08255
G1 X158.930 Y90.499 E0.01675
G1 X157.070 Y88.639 E0.08255
G1 X157.070 Y89.172 E0.01675
G1 X158.930 Y91.032 E0.08255
G1 X158.930 Y91.566 E0.01675
G1 X157.070 Y89.706 E0.08255
G1 X157.070 Y90.240 E0.01675
G1 X158.930 Y92.100 E0.08255
G1 X158.930 Y92.634 E0.01675
G1 X157.070 Y90.773 E0.08255
G1 X157.070 Y91.307 E0.01675
G1 X158.930 Y93.167 E0.08255
G1 X158.930 Y93.701 E0.01675
G1 X157.070 Y91.841 E0.08255
G1 X157.070 Y92.374 E0.01675
G1 X158.930 Y94.235 E0.08255
G1 X158.930 Y94.768 E0.01675
G1 X157.070 Y92.908 E0.08255
G1 X157.070 Y93.442 E0.01675
G1 X158.930 Y95.302 E0.08255
G1 X158.930 Y95.836 E0.01675
G1 X157.070 Y93.975 E0.08255
G1 X157.070 Y94.509 E0.01675
G1 X158.930 Y96.369 E0.08255
G1 X158.930 Y96.903 E0.01675
G1 X157.070 Y95.043 E0.08255
G1 X157.070 Y95.577 E0.01675
G1 X158.930 Y97.437 E0.08255
G1 X158.930 Y97.971 E0.01675
G1 X157.070 Y96.110 E0.08255
G1 X157.070 Y96.644 E0.01675
G1 X158.930 Y98.504 E0.08255
G1 X158.930 Y99.038 E0.01675
G1 X157.070 Y97.178 E0.08255
G1 X157.070 Y97.711 E0.01675
G1 X158.930 Y99.572 E0.08255
G1 X158.930 Y100.105 E0.01675
G1 X157.070 Y98.245 E0.08255
G1 X157.070 Y98.779 E0.01675
G1 X158.930 Y100.639 E0.08255
G1 X158.930 Y101.173 E0.01675
G1 X157.070 Y99.312 E0.08255
G1 X157.070 Y99.846 E0.01675
G1 X158.930 Y101.706 E0.08255
G1 X158.930 Y102.240 E0.01675
G1 X157.070 Y100.380 E0.08255
M73 Q3 S30
G1 X157.070 Y100.914 E0.01675
G1 X158.930 Y102.774 E0.08255
G1 X158.930 Y103.307 E0.01675
G1 X157.070 Y101.447 E0.08255
M73 P3 R30
G1 X157.070 Y101.981 E0.01675
G1 X158.930 Y103.841 E0.08255
G1 X158.930 Y104.375 E0.01675
G1 X157.070 Y102.515 E0.08255
G1 X157.070 Y103.048 E0.01675
G1 X158.930 Y104.909 E0.08255
G1 X158.930 Y105.442 E0.01675
G1 X157.070 Y103.582 E0.08255
G1 X157.070 Y104.116 E0.01675
G1 X158.930 Y105.976 E0.08255
G1 X158.930 Y106.510 E0.01675
G1 X157.070 Y104.649 E0.08255
G1 X157.070 Y105.183 E0.01675
G1 X158.930 Y107.043 E0.08255
G1 X158.930 Y107.577 E0.01675
G1 X157.070 Y105.717 E0.08255
G1 X157.070 Y106.250 E0.01675
G1 X158.930 Y108.111 E0.08255
G1 X158.930 Y108.644 E0.01675
G1 X157.070 Y106.784 E0.08255
G1 X157.070 Y107.318 E0.01675
G1 X158.930 Y109.178 E0.08255
G1 X158.930 Y109.712 E0.01675
G1 X157.070 Y107.852 E0.08255
G1 X157.070 Y108.385 E0.01675
G1 X158.930 Y110.245 E0.08255
G1 X158.930 Y110.779 E0.01675
G1 X157.070 Y108.919 E0.08255
G1 X157.070 Y109.453 E0.01675
G1 X158.930 Y111.313 E0.08255
G1 X158.930 Y111.847 E0.01675
G1 X157.070 Y109.986 E0.08255
G1 X157.070 Y110.520 E0.01675
G1 X158.930 Y112.380 E0.08255
G1 X158.930 Y112.914 E0.01675
G1 X157.070 Y111.054 E0.08255
G1 X157.070 Y111.587 E0.01675
G1 X158.930 Y113.448 E0.08255
G1 X158.930 Y113.981 E0.01675
G1 X157.070 Y112.121 E0.08255
G1 X157.070 Y112.655 E0.01675
G1 X158.930 Y114.515 E0.08255
G1 X158.930 Y115.049 E0.01675
G1 X157.070 Y113.188 E0.08255
G1 X157.070 Y113.722 E0.01675
G1 X158.930 Y115.582 E0.08255
G1 X158.930 Y116.116 E0.01675
G1 X157.070 Y114.256 E0.08255
G1 X157.070 Y114.790 E0.01675
G1 X158.930 Y116.650 E0.08255
G1 X158.930 Y117.183 E0.01675
G1 X157.070 Y115.323 E0.08255
G1 X157.070 Y115.443 E0.00376
G1 X156.863 Y115.650 E0.00918
G1 X158.930 Y117.717 E0.09173
G1 X158.930 Y118.251 E0.01675
G1 X156.596 Y115.917 E0.10357
G1 X156.329 Y116.184 E0.01184
G1 X158.930 Y118.785 E0.11542
G1 X158.930 Y119.318 E0.01675
G1 X156.062 Y116.451 E0.12726
M73 P3 R29
G1 X155.796 Y116.717 E0.01184
G1 X158.930 Y119.852 E0.13910
G1 X158.930 Y120.386 E0.01675
G1 X155.529 Y116.984 E0.15094
G1 X155.262 Y117.251 E0.01184
G1 X158.930 Y120.919 E0.16278
G1 X158.930 Y121.453 E0.01675
G1 X154.995 Y117.518 E0.17462
G1 X154.728 Y117.785 E0.01184
G1 X158.930 Y121.987 E0.18647
G1 X158.930 Y122.520 E0.01675
G1 X154.461 Y118.052 E0.19831
G1 X154.195 Y118.318 E0.01184
G1 X158.930 Y123.054 E0.21015
G1 X158.930 Y123.588 E0.01675
G1 X153.928 Y118.585 E0.22199
G1 X153.661 Y118.852 E0.01184
G1 X158.739 Y123.930 E0.22534
G1 X158.205 Y123.930 E0.01675
G1 X153.394 Y119.119 E0.21350
G1 X153.127 Y119.386 E0.01184
G1 X157.671 Y123.930 E0.20166
G1 X157.138 Y123.930 E0.01675
G1 X152.860 Y119.653 E0.18982
G1 X152.593 Y119.920 E0.01184
G1 X156.604 Y123.930 E0.17797
G1 X156.070 Y123.930 E0.01675
G1 X152.327 Y120.186 E0.16613
G1 X152.060 Y120.453 E0.01184
G1 X155.537 Y123.930 E0.15429
G1 X155.003 Y123.930 E0.01675
G1 X151.793 Y120.720 E0.14245
G1 X151.526 Y120.987 E0.01184
G1 X154.469 Y123.930 E0.13061
G1 X153.936 Y123.930 E0.01675
G1 X151.259 Y121.254 E0.11877
G1 X150.992 Y121.521 E0.01184
G1 X153.402 Y123.930 E0.10692
G1 X152.868 Y123.930 E0.01675
G1 X150.726 Y121.788 E0.09508
G1 X150.459 Y122.054 E0.01184
G1 X152.334 Y123.930 E0.08324
G1 X151.801 Y123.930 E0.01675
G1 X149.941 Y122.070 E0.08255
G1 X149.407 Y122.070 E0.01675
G1 X151.267 Y123.930 E0.08255
G1 X150.733 Y123.930 E0.01675
G1 X148.873 Y122.070 E0.08255
G1 X148.339 Y122.070 E0.01675
G1 X150.200 Y123.930 E0.08255
G1 X149.666 Y123.930 E0.01675
G1 X147.806 Y122.070 E0.08255
G1 X147.272 Y122.070 E0.01675
G1 X149.132 Y123.930 E0.08255
G1 X148.599 Y123.930 E0.01675
G1 X146.738 Y122.070 E0.08255
G1 X146.205 Y122.070 E0.01675
G1 X148.065 Y123.930 E0.08255
G1 X147.531 Y123.930 E0.01675
G1 X145.671 Y122.070 E0.08255
G1 X145.137 Y122.070 E0.01675
G1 X146.998 Y123.930 E0.08255
G1 X146.464 Y123.930 E0.01675
G1 X144.604 Y122.070 E0.08255
G1 X144.070 Y122.070 E0.01675
G1 X145.930 Y123.930 E0.08255
G1 X145.396 Y123.930 E0.01675
G1 X143.536 Y122.070 E0.08255
G1 X143.003 Y122.070 E0.01675
G1 X144.863 Y123.930 E0.08255
G1 X144.329 Y123.930 E0.01675
G1 X142.469 Y122.070 E0.08255
G1 X141.935 Y122.070 E0.01675
G1 X143.795 Y123.930 E0.08255
G1 X143.262 Y123.930 E0.01675
G1 X141.401 Y122.070 E0.08255
G1 X140.868 Y122.070 E0.01675
G1 X142.728 Y123.930 E0.08255
G1 X142.194 Y123.930 E0.01675
G1 X140.334 Y122.070 E0.08255
G1 X139.800 Y122.070 E0.01675
G1 X141.661 Y123.930 E0.08255
G1 X141.127 Y123.930 E0.01675
G1 X139.267 Y122.070 E0.08255
G1 X138.733 Y122.070 E0.01675
G1 X140.593 Y123.930 E0.08255
G1 X140.060 Y123.930 E0.01675
G1 X138.199 Y122.070 E0.08255
G1 X137.666 Y122.070 E0.01675
G1 X139.526 Y123.930 E0.08255
G1 X138.992 Y123.930 E0.01675
G1 X137.132 Y122.070 E0.08255
G1 X136.598 Y122.070 E0.01675
G1 X138.458 Y123.930 E0.08255
G1 X137.925 Y123.930 E0.01675
G1 X136.064 Y122.070 E0.08255
G1 X135.531 Y122.070 E0.01675
G1 X137.391 Y123.930 E0.08255
G1 X136.857 Y123.930 E0.01675
G1 X134.997 Y122.070 E0.08255
G1 X134.463 Y122.070 E0.01675
G1 X136.324 Y123.930 E0.08255
G1 X135.790 Y123.930 E0.01675
G1 X133.930 Y122.070 E0.08255
G1 X133.396 Y122.070 E0.01675
G1 X135.256 Y123.930 E0.08255
G1 X134.723 Y123.930 E0.01675
G1 X132.862 Y122.070 E0.08255
G1 X132.329 Y122.070 E0.01675
G1 X134.189 Y123.930 E0.08255
G1 X133.655 Y123.930 E0.01675
G1 X131.795 Y122.070 E0.08255
G1 X131.261 Y122.070 E0.01675
G1 X133.121 Y123.930 E0.08255
G1 X132.588 Y123.930 E0.01675
G1 X130.728 Y122.070 E0.08255
G1 X130.194 Y122.070 E0.01675
G1 X132.054 Y123.930 E0.08255
G1 X131.520 Y123.930 E0.01675
G1 X129.660 Y122.070 E0.08255
G1 X129.126 Y122.070 E0.01675
G1 X130.987 Y123.930 E0.08255
M73 Q4 S30
G1 X130.453 Y123.930 E0.01675
M73 P4 R29
G1 X128.593 Y122.070 E0.08255
G1 X128.059 Y122.070 E0.01675
G1 X129.919 Y123.930 E0.08255
G1 X129.386 Y123.930 E0.01675
G1 X127.525 Y122.070 E0.08255
G1 X126.992 Y122.070 E0.01675
G1 X128.852 Y123.930 E0.08255
G1 X128.318 Y123.930 E0.01675
G1 X126.458 Y122.070 E0.08255
G1 X125.924 Y122.070 E0.01675
G1 X127.785 Y123.930 E0.08255
G1 X127.251 Y123.930 E0.01675
G1 X125.391 Y122.070 E0.08255
G1 X124.857 Y122.070 E0.01675
G1 X126.717 Y123.930 E0.08255
G1 X126.183 Y123.930 E0.01675
G1 X124.323 Y122.070 E0.08255
G1 X123.790 Y122.070 E0.01675
G1 X125.650 Y123.930 E0.08255
G1 X125.116 Y123.930 E0.01675
G1 X123.256 Y122.070 E0.08255
G1 X122.722 Y122.070 E0.01675
G1 X124.582 Y123.930 E0.08255
G1 X124.049 Y123.930 E0.01675
G1 X122.188 Y122.070 E0.08255
G1 X121.655 Y122.070 E0.01675
G1 X123.515 Y123.930 E0.08255
G1 X122.981 Y123.930 E0.01675
G1 X121.121 Y122.070 E0.08255
G1 X120.587 Y122.070 E0.01675
G1 X122.448 Y123.930 E0.08255
G1 X121.914 Y123.930 E0.01675
G1 X120.054 Y122.070 E0.08255
G1 X119.520 Y122.070 E0.01675
G1 X121.380 Y123.930 E0.08255
G1 X120.847 Y123.930 E0.01675
G1 X118.986 Y122.070 E0.08255
G1 X118.453 Y122.070 E0.01675
G1 X120.313 Y123.930 E0.08255
G1 X119.779 Y123.930 E0.01675
G1 X117.919 Y122.070 E0.08255
G1 X117.385 Y122.070 E0.01675
G1 X119.245 Y123.930 E0.08255
G1 X118.712 Y123.930 E0.01675
G1 X116.852 Y122.070 E0.08255
M73 Q4 S29
G1 X116.318 Y122.070 E0.01675
G1 X118.178 Y123.930 E0.08255
G1 X117.644 Y123.930 E0.01675
G1 X115.784 Y122.070 E0.08255
G1 X115.250 Y122.070 E0.01675
G1 X117.111 Y123.930 E0.08255
G1 X116.577 Y123.930 E0.01675
G1 X114.717 Y122.070 E0.08255
G1 X114.183 Y122.070 E0.01675
G1 X116.043 Y123.930 E0.08255
G1 X115.510 Y123.930 E0.01675
G1 X113.649 Y122.070 E0.08255
G1 X113.116 Y122.070 E0.01675
G1 X114.976 Y123.930 E0.08255
G1 X114.442 Y123.930 E0.01675
G1 X112.582 Y122.070 E0.08255
G1 X112.048 Y122.070 E0.01675
G1 X113.909 Y123.930 E0.08255
G1 X113.375 Y123.930 E0.01675
G1 X111.515 Y122.070 E0.08255
G1 X110.981 Y122.070 E0.01675
G1 X112.841 Y123.930 E0.08255
G1 X112.307 Y123.930 E0.01675
G1 X110.447 Y122.070 E0.08255
G1 X109.914 Y122.070 E0.01675
G1 X111.774 Y123.930 E0.08255
G1 X111.240 Y123.930 E0.01675
G1 X109.380 Y122.070 E0.08255
G1 X108.846 Y122.070 E0.01675
G1 X110.706 Y123.930 E0.08255
G1 X110.173 Y123.930 E0.01675
G1 X108.312 Y122.070 E0.08255
G1 X107.779 Y122.070 E0.01675
G1 X109.639 Y123.930 E0.08255
G1 X109.105 Y123.930 E0.01675
G1 X107.245 Y122.070 E0.08255
G1 X106.711 Y122.070 E0.01675
G1 X108.572 Y123.930 E0.08255
G1 X108.038 Y123.930 E0.01675
G1 X106.178 Y122.070 E0.08255
G1 X105.644 Y122.070 E0.01675
G1 X107.504 Y123.930 E0.08255
G1 X106.971 Y123.930 E0.01675
G1 X105.110 Y122.070 E0.08255
G1 X104.577 Y122.070 E0.01675
G1 X106.437 Y123.930 E0.08255
G1 X105.903 Y123.930 E0.01675
G1 X104.043 Y122.070 E0.08255
G1 X103.509 Y122.070 E0.01675
G1 X105.369 Y123.930 E0.08255
G1 X104.836 Y123.930 E0.01675
G1 X102.976 Y122.070 E0.08255
G1 X102.442 Y122.070 E0.01675
G1 X104.302 Y123.930 E0.08255
G1 X103.768 Y123.930 E0.01675
G1 X101.908 Y122.070 E0.08255
G1 X101.374 Y122.070 E0.01675
G1 X103.235 Y123.930 E0.08255
G1 X102.701 Y123.930 E0.01675
G1 X100.841 Y122.070 E0.08255
G1 X100.307 Y122.070 E0.01675
G1 X102.167 Y123.930 E0.08255
G1 X101.634 Y123.930 E0.01675
G1 X99.773 Y122.070 E0.08255
G1 X99.240 Y122.070 E0.01675
G1 X101.100 Y123.930 E0.08255
G1 X100.566 Y123.930 E0.01675
