; generated by PrusaSlicer 2.3.1+x64 on 2023-02-09 at 20:37:56 UTC

; 

; external perimeters extrusion width = 0.45mm
; perimeters extrusion width = 0.45mm
; infill extrusion width = 0.45mm
; solid infill extrusion width = 0.45mm
; top infill extrusion width = 0.40mm
; first layer extrusion width = 0.42mm

M73 P0 R77
M73 Q0 S77
M201 X1000 Y1000 Z200 E5000 ; sets maximum accelerations, mm/sec^2
M203 X200 Y200 Z12 E120 ; sets maximum feedrates, mm/sec
M204 P1250 R1250 T1250 ; sets acceleration (P, T) and retract acceleration (R), mm/sec^2
M205 X8.00 Y8.00 Z0.40 E4.50 ; sets the jerk limits, mm/sec
M205 S0 T0 ; sets the minimum extruding and travel feed rate, mm/sec
M107
;TYPE:Custom
M862.3 P "MK3" ; printer model check
M862.1 P0.4 ; nozzle diameter check
M115 U3.9.3 ; tell printer latest fw version
G90 ; use absolute coordinates
M83 ; extruder relative mode
M104 S120 ; set extruder temp
M140 S85 ; set bed temp
M190 S85 ; wait for bed temp
M104 S240 ; set extruder temp
M109 S240 ; wait for extruder temp
G28 W ; home all without mesh bed level
G80 ; mesh bed leveling
G1 Y-3.0 F1000.0 ; go outside print area
G92 E0.0
G1 X60.0 E9.0 F1000.0 ; intro line
G1 X100.0 E12.5 F1000.0 ; intro line
G92 E0.0
M221 S95

; Don't change E values below. Excessive value can damage the printer.

M907 E538 ; set extruder motor current
G21 ; set units to millimeters
G90 ; use absolute coordinates
M83 ; use relative distances for extrusion
M900 K0.08 ; Filament gcode LA 1.5
M900 K45 ; Filament gcode LA 1.0
;LAYER_CHANGE
;Z:0.2
;HEIGHT:0.2
;BEFORE_LAYER_CHANGE
G92 E0.0
;0.2


M73 P0 R76
G1 E-1.00000 F2100.000
G1 Z0.200 F10800.000
;AFTER_LAYER_CHANGE
;0.2
G1 Z0.400
G1 X82.979 Y42.515
G1 Z0.200
G1 E1.00000 F2100.000
M204 S1000
;TYPE:Skirt
;WIDTH:0.42
G1 F1200.000
G1 X83.351 Y42.054 E0.01858
G1 X83.826 Y41.699 E0.01858
G1 X84.378 Y41.472 E0.01870
G1 X84.965 Y41.390 E0.01858
G1 X165.137 Y41.393 E2.51375
G1 X165.983 Y41.602 E0.02731
G1 X166.538 Y41.954 E0.02060
G1 X166.975 Y42.444 E0.02060
G1 X167.260 Y43.031 E0.02048
G1 X167.375 Y43.678 E0.02060
G1 X167.377 Y166.241 E3.84288
M73 Q0 S76
G1 X167.285 Y166.888 E0.02048
G1 X167.021 Y167.485 E0.02048
G1 X166.646 Y167.949 E0.01870
G1 X166.167 Y168.304 E0.01870
G1 X165.615 Y168.530 E0.01870
G1 X165.024 Y168.610 E0.01870
G1 X84.989 Y168.611 E2.50945
G1 X84.342 Y168.518 E0.02048
G1 X83.749 Y168.254 E0.02036
G1 X83.282 Y167.877 E0.01882
G1 X82.927 Y167.397 E0.01870
G1 X82.703 Y166.845 E0.01870
G1 X82.623 Y166.250 E0.01882
G1 X82.623 Y43.759 E3.84062
G1 X82.715 Y43.112 E0.02048
G1 X82.955 Y42.570 E0.01860
; printing object Connector Panel.stl id:0 copy 0
;WIPE_START
G1 F8640.000
G1 X83.351 Y42.054 E-0.15027
G1 X83.826 Y41.699 E-0.13685
G1 X84.378 Y41.472 E-0.13772
G1 X84.965 Y41.390 E-0.13685
G1 X86.646 Y41.390 E-0.38832
;WIPE_END
G1 E-0.05000 F2100.000
G1 Z0.400 F10800.000
G1 X119.235 Y122.779
G1 Z0.200
G1 E1.00000 F2100.000
;TYPE:Perimeter
G1 F1200.000
G1 X120.118 Y122.434 E0.02972
G1 X121.021 Y122.147 E0.02972
G1 X121.941 Y121.919 E0.02972
G1 X122.874 Y121.751 E0.02972
G1 X123.816 Y121.644 E0.02972
G1 X124.726 Y121.600 E0.02856
G1 X125.710 Y121.613 E0.03086
G1 X126.656 Y121.690 E0.02975
G1 X127.594 Y121.828 E0.02972
G1 X128.521 Y122.026 E0.02972
G1 X129.397 Y122.273 E0.02856
G1 X130.326 Y122.599 E0.03086
G1 X131.198 Y122.973 E0.02975
G1 X132.043 Y123.402 E0.02972
G1 X132.859 Y123.885 E0.02972
G1 X133.642 Y124.419 E0.02972
G1 X134.389 Y125.004 E0.02972
G1 X135.096 Y125.635 E0.02972
G1 X135.761 Y126.311 E0.02972
G1 X136.380 Y127.028 E0.02972
G1 X136.952 Y127.784 E0.02972
G1 X137.474 Y128.575 E0.02972
G1 X137.944 Y129.399 E0.02972
G1 X138.359 Y130.251 E0.02972
G1 X138.718 Y131.128 E0.02972
G1 X139.020 Y132.027 E0.02972
G1 X139.263 Y132.943 E0.02972
G1 X139.446 Y133.873 E0.02972
G1 X139.564 Y134.777 E0.02856
G1 X139.630 Y135.759 E0.03086
G1 X139.630 Y136.707 E0.02975
G1 X139.568 Y137.653 E0.02972
G1 X139.446 Y138.593 E0.02972
G1 X139.263 Y139.524 E0.02972
G1 X139.020 Y140.440 E0.02972
G1 X138.718 Y141.339 E0.02972
G1 X138.359 Y142.216 E0.02972
G1 X137.944 Y143.068 E0.02972
G1 X137.474 Y143.892 E0.02972
G1 X136.952 Y144.683 E0.02972
G1 X136.403 Y145.409 E0.02856
G1 X135.761 Y146.156 E0.03086
G1 X135.096 Y146.832 E0.02975
G1 X134.389 Y147.463 E0.02972
G1 X133.642 Y148.048 E0.02972
G1 X132.859 Y148.582 E0.02972
G1 X132.043 Y149.065 E0.02972
G1 X131.198 Y149.494 E0.02972
G1 X130.327 Y149.867 E0.02972
G1 X129.433 Y150.184 E0.02972
G1 X128.521 Y150.441 E0.02972
G1 X127.594 Y150.639 E0.02972
G1 X127.125 Y150.708 E0.01486
G1 X126.656 Y150.777 E0.01486
G1 X125.711 Y150.854 E0.02972
G1 X124.763 Y150.869 E0.02972
G1 X123.853 Y150.825 E0.02856
G1 X122.875 Y150.716 E0.03086
G1 X121.941 Y150.548 E0.02975
G1 X121.021 Y150.320 E0.02972
G1 X120.118 Y150.033 E0.02972
G1 X119.235 Y149.688 E0.02972
G1 X118.376 Y149.286 E0.02972
G1 X117.545 Y148.830 E0.02972
G1 X116.745 Y148.321 E0.02972
G1 X115.980 Y147.761 E0.02972
G1 X115.253 Y147.153 E0.02972
G1 X114.566 Y146.500 E0.02972
G1 X113.924 Y145.803 E0.02972
G1 X113.327 Y145.066 E0.02972
G1 X112.780 Y144.292 E0.02972
G1 X112.284 Y143.484 E0.02972
G1 X111.842 Y142.645 E0.02972
G1 X111.454 Y141.780 E0.02972
G1 X111.124 Y140.892 E0.02972
G1 X110.851 Y139.984 E0.02972
G1 X110.638 Y139.060 E0.02972
G1 X110.485 Y138.124 E0.02972
G1 X110.393 Y137.181 E0.02972
G1 X110.362 Y136.233 E0.02972
G1 X110.393 Y135.286 E0.02972
G1 X110.485 Y134.342 E0.02972
G1 X110.638 Y133.407 E0.02972
G1 X110.851 Y132.483 E0.02972
G1 X111.124 Y131.575 E0.02972
G1 X111.454 Y130.687 E0.02972
G1 X111.842 Y129.822 E0.02972
G1 X112.284 Y128.983 E0.02972
G1 X112.780 Y128.175 E0.02972
G1 X113.327 Y127.401 E0.02972
G1 X113.924 Y126.664 E0.02972
G1 X114.566 Y125.967 E0.02972
G1 X115.226 Y125.339 E0.02856
G1 X115.979 Y124.706 E0.03086
G1 X116.745 Y124.146 E0.02975
G1 X117.514 Y123.657 E0.02856
G1 X118.375 Y123.181 E0.03086
G1 X119.180 Y122.805 E0.02786
G1 X119.340 Y123.146 F10800.000
;TYPE:External perimeter
G1 F1200.000
G1 X120.243 Y122.790 E0.03045
G1 X121.124 Y122.510 E0.02896
G1 X122.020 Y122.288 E0.02896
G1 X122.929 Y122.124 E0.02896
G1 X123.847 Y122.020 E0.02896
G1 X124.732 Y121.977 E0.02781
G1 X125.692 Y121.990 E0.03010
G1 X126.613 Y122.065 E0.02897
G1 X127.527 Y122.199 E0.02896
G1 X128.430 Y122.392 E0.02896
G1 X129.283 Y122.633 E0.02781
G1 X130.189 Y122.951 E0.03010
G1 X131.038 Y123.315 E0.02897
G1 X131.862 Y123.733 E0.02896
G1 X132.657 Y124.203 E0.02896
G1 X133.419 Y124.724 E0.02896
G1 X134.147 Y125.293 E0.02896
G1 X134.836 Y125.908 E0.02896
G1 X135.483 Y126.566 E0.02896
G1 X136.087 Y127.265 E0.02896
G1 X136.644 Y128.002 E0.02896
G1 X137.153 Y128.773 E0.02896
G1 X137.610 Y129.575 E0.02896
G1 X138.015 Y130.405 E0.02896
G1 X138.365 Y131.260 E0.02896
G1 X138.659 Y132.135 E0.02896
G1 X138.895 Y133.028 E0.02896
G1 X139.074 Y133.934 E0.02896
G1 X139.188 Y134.814 E0.02781
G1 X139.253 Y135.771 E0.03010
G1 X139.253 Y136.695 E0.02897
G1 X139.193 Y137.617 E0.02896
G1 X139.074 Y138.533 E0.02896
G1 X138.895 Y139.439 E0.02896
G1 X138.659 Y140.332 E0.02896
G1 X138.365 Y141.207 E0.02896
G1 X138.015 Y142.062 E0.02896
G1 X137.610 Y142.892 E0.02896
G1 X137.153 Y143.694 E0.02896
G1 X136.644 Y144.465 E0.02896
G1 X136.109 Y145.173 E0.02781
G1 X135.484 Y145.900 E0.03010
G1 X134.836 Y146.559 E0.02897
G1 X134.147 Y147.174 E0.02896
G1 X133.419 Y147.743 E0.02896
G1 X132.657 Y148.264 E0.02896
G1 X131.862 Y148.734 E0.02896
G1 X131.038 Y149.152 E0.02896
G1 X130.189 Y149.516 E0.02896
G1 X129.319 Y149.824 E0.02896
G1 X128.430 Y150.075 E0.02896
G1 X127.527 Y150.268 E0.02896
G1 X127.070 Y150.335 E0.01448
G1 X126.613 Y150.402 E0.01448
G1 X125.692 Y150.477 E0.02896
G1 X124.769 Y150.492 E0.02896
G1 X123.883 Y150.449 E0.02781
G1 X122.929 Y150.343 E0.03010
G1 X122.020 Y150.179 E0.02897
G1 X121.124 Y149.957 E0.02896
G1 X120.243 Y149.677 E0.02896
G1 X119.383 Y149.341 E0.02896
G1 X118.547 Y148.950 E0.02896
G1 X117.737 Y148.505 E0.02896
G1 X116.958 Y148.010 E0.02896
G1 X116.212 Y147.464 E0.02896
G1 X115.504 Y146.872 E0.02896
G1 X114.835 Y146.235 E0.02896
G1 X114.209 Y145.556 E0.02896
G1 X113.628 Y144.838 E0.02896
G1 X113.095 Y144.084 E0.02896
G1 X112.612 Y143.297 E0.02896
G1 X112.181 Y142.480 E0.02896
G1 X111.803 Y141.637 E0.02896
G1 X111.481 Y140.772 E0.02896
G1 X111.216 Y139.887 E0.02896
G1 X111.008 Y138.987 E0.02896
G1 X110.859 Y138.076 E0.02896
G1 X110.770 Y137.157 E0.02896
G1 X110.740 Y136.233 E0.02896
G1 X110.770 Y135.310 E0.02896
G1 X110.859 Y134.391 E0.02896
G1 X111.008 Y133.480 E0.02896
G1 X111.216 Y132.580 E0.02896
G1 X111.481 Y131.695 E0.02896
G1 X111.803 Y130.830 E0.02896
G1 X112.181 Y129.987 E0.02896
G1 X112.612 Y129.170 E0.02896
G1 X113.095 Y128.383 E0.02896
G1 X113.628 Y127.629 E0.02896
G1 X114.209 Y126.911 E0.02896
G1 X114.835 Y126.232 E0.02896
G1 X115.477 Y125.620 E0.02781
G1 X116.212 Y125.003 E0.03010
G1 X116.958 Y124.457 E0.02897
G1 X117.706 Y123.981 E0.02781
G1 X118.546 Y123.517 E0.03010
G1 X119.286 Y123.172 E0.02559
G1 X119.386 Y122.749 F10800.000
;WIPE_START
G1 F8640.000
G1 X120.243 Y122.790 E-0.23809
G1 X121.124 Y122.510 E-0.21325
G1 X122.020 Y122.288 E-0.21325
G1 X122.929 Y122.124 E-0.21325
G1 X123.240 Y122.089 E-0.07216
;WIPE_END
G1 E-0.05000 F2100.000
G1 Z0.400 F10800.000
G1 X113.723 Y107.877
G1 Z0.200
G1 E1.00000 F2100.000
;TYPE:Perimeter
G1 F1200.000
G1 X112.965 Y108.137 E0.02514
G1 X112.221 Y108.328 E0.02409
G1 X111.400 Y108.476 E0.02615
G1 X110.601 Y108.554 E0.02517
G1 X109.800 Y108.569 E0.02514
G1 X108.999 Y108.523 E0.02514
G1 X108.205 Y108.414 E0.02514
G1 X107.421 Y108.244 E0.02514
G1 X106.653 Y108.014 E0.02514
G1 X105.905 Y107.726 E0.02514
G1 X105.182 Y107.380 E0.02514
G1 X104.488 Y106.979 E0.02514
G1 X103.827 Y106.526 E0.02514
G1 X103.203 Y106.022 E0.02514
G1 X102.620 Y105.472 E0.02514
G1 X102.081 Y104.878 E0.02514
G1 X101.610 Y104.271 E0.02409
G1 X101.150 Y103.576 E0.02615
G1 X100.762 Y102.873 E0.02517
G1 X100.430 Y102.143 E0.02514
G1 X100.156 Y101.390 E0.02514
G1 X99.941 Y100.617 E0.02514
G1 X99.786 Y99.831 E0.02514
G1 X99.693 Y99.035 E0.02514
G1 X99.662 Y98.233 E0.02514
G1 X99.693 Y97.432 E0.02514
G1 X99.786 Y96.636 E0.02514
G1 X99.941 Y95.849 E0.02514
G1 X100.156 Y95.077 E0.02514
G1 X100.430 Y94.324 E0.02514
G1 X100.762 Y93.594 E0.02514
G1 X101.149 Y92.892 E0.02514
G1 X101.590 Y92.222 E0.02514
G1 X102.081 Y91.589 E0.02514
G1 X102.620 Y90.995 E0.02514
G1 X103.178 Y90.468 E0.02409
G1 X103.826 Y89.942 E0.02615
G1 X104.488 Y89.488 E0.02517
G1 X105.182 Y89.087 E0.02514
G1 X105.905 Y88.741 E0.02514
G1 X106.653 Y88.452 E0.02514
G1 X107.421 Y88.223 E0.02514
G1 X108.205 Y88.053 E0.02514
G1 X108.999 Y87.944 E0.02514
G1 X109.766 Y87.900 E0.02409
G1 X110.600 Y87.913 E0.02615
G1 X111.399 Y87.991 E0.02517
G1 X112.189 Y88.130 E0.02514
G1 X112.965 Y88.330 E0.02514
G1 X113.723 Y88.590 E0.02514
G1 X114.460 Y88.907 E0.02514
G1 X115.169 Y89.281 E0.02514
G1 X115.847 Y89.708 E0.02514
G1 X116.490 Y90.187 E0.02514
G1 X117.094 Y90.714 E0.02514
G1 X117.655 Y91.286 E0.02514
G1 X118.171 Y91.901 E0.02514
G1 X118.637 Y92.553 E0.02514
G1 X119.051 Y93.239 E0.02514
G1 X119.411 Y93.956 E0.02514
G1 X119.714 Y94.698 E0.02514
G1 X119.959 Y95.461 E0.02514
G1 X120.144 Y96.241 E0.02514
G1 X120.268 Y97.033 E0.02514
G1 X120.330 Y97.833 E0.02514
G1 X120.330 Y98.634 E0.02514
G1 X120.268 Y99.434 E0.02514
G1 X120.144 Y100.226 E0.02514
G1 X119.959 Y101.006 E0.02514
G1 X119.714 Y101.769 E0.02514
G1 X119.411 Y102.511 E0.02514
G1 X119.051 Y103.228 E0.02514
G1 X118.637 Y103.914 E0.02514
G1 X118.171 Y104.566 E0.02514
G1 X117.655 Y105.180 E0.02514
G1 X117.094 Y105.753 E0.02514
G1 X116.490 Y106.280 E0.02514
G1 X115.847 Y106.759 E0.02514
G1 X115.169 Y107.186 E0.02514
G1 X114.460 Y107.560 E0.02514
G1 X113.778 Y107.854 E0.02326
G1 X113.629 Y107.507 F10800.000
;TYPE:External perimeter
G1 F1200.000
G1 X112.857 Y107.775 E0.02564
G1 X112.140 Y107.960 E0.02319
G1 X111.348 Y108.102 E0.02523
G1 X110.579 Y108.177 E0.02423
G1 X109.807 Y108.192 E0.02422
G1 X109.036 Y108.147 E0.02422
G1 X108.270 Y108.042 E0.02422
G1 X107.515 Y107.879 E0.02422
G1 X106.776 Y107.657 E0.02422
G1 X106.055 Y107.379 E0.02422
G1 X105.358 Y107.046 E0.02422
G1 X104.689 Y106.660 E0.02422
G1 X104.052 Y106.223 E0.02422
G1 X103.451 Y105.738 E0.02422
G1 X102.889 Y105.208 E0.02422
G1 X102.370 Y104.636 E0.02422
G1 X101.917 Y104.051 E0.02319
G1 X101.472 Y103.380 E0.02523
G1 X101.099 Y102.704 E0.02423
G1 X100.779 Y102.000 E0.02422
G1 X100.515 Y101.275 E0.02422
G1 X100.308 Y100.530 E0.02422
G1 X100.159 Y99.773 E0.02422
G1 X100.070 Y99.005 E0.02422
G1 X100.040 Y98.233 E0.02422
G1 X100.070 Y97.462 E0.02422
G1 X100.159 Y96.694 E0.02422
G1 X100.308 Y95.936 E0.02422
G1 X100.515 Y95.192 E0.02422
G1 X100.780 Y94.466 E0.02422
G1 X101.099 Y93.763 E0.02422
G1 X101.472 Y93.087 E0.02422
G1 X101.897 Y92.442 E0.02422
G1 X102.370 Y91.831 E0.02422
G1 X102.889 Y91.259 E0.02422
G1 X103.427 Y90.751 E0.02319
G1 X104.052 Y90.244 E0.02523
G1 X104.689 Y89.807 E0.02423
G1 X105.358 Y89.421 E0.02422
G1 X106.055 Y89.088 E0.02422
G1 X106.776 Y88.810 E0.02422
G1 X107.515 Y88.588 E0.02422
G1 X108.270 Y88.424 E0.02422
G1 X109.036 Y88.320 E0.02422
G1 X109.774 Y88.277 E0.02319
G1 X110.579 Y88.290 E0.02523
G1 X111.348 Y88.365 E0.02423
G1 X112.109 Y88.499 E0.02422
G1 X112.857 Y88.692 E0.02422
G1 X113.587 Y88.942 E0.02422
G1 X114.297 Y89.248 E0.02422
G1 X114.980 Y89.608 E0.02422
G1 X115.634 Y90.019 E0.02422
G1 X116.253 Y90.481 E0.02422
G1 X116.835 Y90.989 E0.02422
G1 X117.376 Y91.540 E0.02422
G1 X117.873 Y92.132 E0.02422
G1 X118.322 Y92.760 E0.02422
G1 X118.721 Y93.422 E0.02422
G1 X119.068 Y94.112 E0.02422
G1 X119.360 Y94.827 E0.02422
G1 X119.595 Y95.562 E0.02422
G1 X119.774 Y96.314 E0.02422
G1 X119.893 Y97.077 E0.02422
G1 X119.953 Y97.847 E0.02422
G1 X119.953 Y98.620 E0.02422
G1 X119.893 Y99.390 E0.02422
G1 X119.774 Y100.153 E0.02422
G1 X119.595 Y100.905 E0.02422
G1 X119.360 Y101.640 E0.02422
G1 X119.067 Y102.355 E0.02422
G1 X118.721 Y103.045 E0.02422
G1 X118.322 Y103.707 E0.02422
G1 X117.873 Y104.335 E0.02422
G1 X117.376 Y104.927 E0.02422
G1 X116.835 Y105.478 E0.02422
G1 X116.253 Y105.986 E0.02422
G1 X115.634 Y106.447 E0.02422
G1 X114.980 Y106.859 E0.02422
G1 X114.297 Y107.219 E0.02422
G1 X113.684 Y107.484 E0.02092
G1 X113.569 Y107.903 F10800.000
;WIPE_START
G1 F8640.000
G1 X112.857 Y107.775 E-0.20262
G1 X112.140 Y107.960 E-0.17079
G1 X111.348 Y108.102 E-0.18583
G1 X110.579 Y108.177 E-0.17843
G1 X109.807 Y108.192 E-0.17836
G1 X109.660 Y108.183 E-0.03397
;WIPE_END
G1 E-0.05000 F2100.000
G1 Z0.400 F10800.000
G1 X110.775 Y78.536
G1 Z0.200
G1 E1.00000 F2100.000
;TYPE:Perimeter
G1 F1200.000
G1 X109.800 Y78.569 E0.03062
G1 X108.999 Y78.523 E0.02514
M73 Q1 S76
G1 X108.205 Y78.414 E0.02514
G1 X107.825 Y78.332 E0.01218
G1 X107.421 Y78.244 E0.01296
G1 X106.653 Y78.014 E0.02514
G1 X105.905 Y77.726 E0.02514
G1 X105.182 Y77.380 E0.02514
G1 X104.517 Y76.996 E0.02409
G1 X103.828 Y76.526 E0.02615
G1 X103.203 Y76.022 E0.02517
G1 X102.620 Y75.472 E0.02514
M73 P1 R76
G1 X102.359 Y75.184 E0.01218
G1 X102.081 Y74.878 E0.01296
G1 X101.590 Y74.245 E0.02514
G1 X101.149 Y73.575 E0.02514
G1 X100.762 Y72.873 E0.02514
G1 X100.430 Y72.143 E0.02514
G1 X100.156 Y71.390 E0.02514
G1 X99.941 Y70.617 E0.02514
G1 X99.786 Y69.831 E0.02514
G1 X99.693 Y69.035 E0.02514
G1 X99.662 Y68.233 E0.02514
G1 X99.693 Y67.432 E0.02514
G1 X99.786 Y66.636 E0.02514
G1 X99.941 Y65.849 E0.02514
G1 X100.156 Y65.077 E0.02514
G1 X100.430 Y64.324 E0.02514
G1 X100.762 Y63.594 E0.02514
G1 X101.149 Y62.892 E0.02514
G1 X101.590 Y62.222 E0.02514
G1 X102.081 Y61.589 E0.02514
G1 X102.620 Y60.995 E0.02514
G1 X103.203 Y60.445 E0.02514
G1 X103.827 Y59.941 E0.02514
G1 X104.488 Y59.488 E0.02514
G1 X105.182 Y59.087 E0.02514
G1 X105.905 Y58.741 E0.02514
G1 X106.279 Y58.597 E0.01257
G1 X106.653 Y58.452 E0.01257
G1 X107.421 Y58.223 E0.02514
G1 X108.205 Y58.053 E0.02514
G1 X108.999 Y57.944 E0.02514
G1 X109.766 Y57.900 E0.02409
G1 X110.600 Y57.913 E0.02615
G1 X111.399 Y57.991 E0.02517
G1 X112.189 Y58.130 E0.02514
G1 X112.933 Y58.322 E0.02409
G1 X113.723 Y58.589 E0.02615
G1 X114.460 Y58.907 E0.02517
G1 X115.169 Y59.281 E0.02514
G1 X115.847 Y59.708 E0.02514
G1 X116.490 Y60.187 E0.02514
