; generated by PrusaSlicer 2.3.1+x64 on 2023-02-10 at 15:02:09 UTC

; 

; external perimeters extrusion width = 0.45mm
; perimeters extrusion width = 0.45mm
; infill extrusion width = 0.45mm
; solid infill extrusion width = 0.45mm
; top infill extrusion width = 0.40mm
; first layer extrusion width = 0.42mm

M73 P0 R76
M73 Q0 S76
M201 X1000 Y1000 Z200 E5000 ; sets maximum accelerations, mm/sec^2
M203 X200 Y200 Z12 E120 ; sets maximum feedrates, mm/sec
M204 P1250 R1250 T1250 ; sets acceleration (P, T) and retract acceleration (R), mm/sec^2
M205 X8.00 Y8.00 Z0.40 E4.50 ; sets the jerk limits, mm/sec
M205 S0 T0 ; sets the minimum extruding and travel feed rate, mm/sec
M107
;TYPE:Custom
M862.3 P "MK3" ; printer model check
M862.1 P0.4 ; nozzle diameter check
M115 U3.9.3 ; tell printer latest fw version
G90 ; use absolute coordinates
M83 ; extruder relative mode
M104 S120 ; set extruder temp
M140 S85 ; set bed temp
M190 S85 ; wait for bed temp
M104 S240 ; set extruder temp
M109 S240 ; wait for extruder temp
G28 W ; home all without mesh bed level
G80 ; mesh bed leveling
G1 Y-3.0 F1000.0 ; go outside print area
G92 E0.0
G1 X60.0 E9.0 F1000.0 ; intro line
G1 X100.0 E12.5 F1000.0 ; intro line
G92 E0.0
M221 S95

; Don't change E values below. Excessive value can damage the printer.

M907 E538 ; set extruder motor current
G21 ; set units to millimeters
G90 ; use absolute coordinates
M83 ; use relative distances for extrusion
M900 K0.08 ; Filament gcode LA 1.5
M900 K45 ; Filament gcode LA 1.0
;LAYER_CHANGE
;Z:0.2
;HEIGHT:0.2
;BEFORE_LAYER_CHANGE
G92 E0.0
;0.2


G1 E-1.00000 F2100.000
G1 Z0.200 F10800.000
;AFTER_LAYER_CHANGE
;0.2
G1 Z0.400
G1 X82.723 Y44.317
G1 Z0.200
G1 E1.00000 F2100.000
M204 S1000
;TYPE:Skirt
;WIDTH:0.42
G1 F1200.000
G1 X83.010 Y43.700 E0.02130
G1 X83.382 Y43.259 E0.01811
G1 X83.853 Y42.918 E0.01823
G1 X84.392 Y42.702 E0.01823
G1 X84.968 Y42.623 E0.01823
G1 X165.004 Y42.623 E2.50945
G1 X165.906 Y42.802 E0.02884
G1 X166.670 Y43.308 E0.02872
G1 X167.185 Y44.065 E0.02872
G1 X167.377 Y44.961 E0.02872
G1 X167.377 Y165.008 E3.76398
M73 P0 R75
G1 X167.277 Y165.683 E0.02142
G1 X166.990 Y166.300 E0.02130
G1 X166.613 Y166.746 E0.01835
G1 X166.140 Y167.086 E0.01823
G1 X165.596 Y167.301 E0.01835
G1 X165.020 Y167.377 E0.01823
G1 X84.989 Y167.377 E2.50933
G1 X84.317 Y167.277 E0.02130
G1 X83.700 Y166.990 E0.02130
G1 X83.254 Y166.613 E0.01835
G1 X82.913 Y166.137 E0.01835
G1 X82.698 Y165.593 E0.01835
G1 X82.623 Y165.013 E0.01835
G1 X82.623 Y44.992 E3.76315
G1 X82.714 Y44.376 E0.01954
; printing object Connector Panel Keyed.stl id:0 copy 0
;WIPE_START
G1 F8640.000
G1 X83.010 Y43.700 E-0.17022
G1 X83.382 Y43.259 E-0.13336
G1 X83.853 Y42.918 E-0.13423
G1 X84.392 Y42.702 E-0.13423
G1 X84.968 Y42.623 E-0.13423
G1 X86.024 Y42.623 E-0.24374
;WIPE_END
G1 E-0.05000 F2100.000
G1 Z0.400 F10800.000
G1 X143.035 Y119.887
M73 Q0 S75
G1 Z0.200
G1 E1.00000 F2100.000
;TYPE:Perimeter
G1 F1200.000
G1 X136.965 Y119.887 E0.19032
G1 X136.110 Y119.578 E0.02852
G1 X135.379 Y119.247 E0.02516
G1 X134.675 Y118.861 E0.02516
G1 X134.004 Y118.421 E0.02515
G1 X133.369 Y117.931 E0.02515
G1 X132.799 Y117.415 E0.02411
G1 X132.223 Y116.811 E0.02617
G1 X131.718 Y116.187 E0.02518
G1 X131.263 Y115.526 E0.02516
G1 X130.861 Y114.832 E0.02515
G1 X130.514 Y114.108 E0.02515
G1 X130.224 Y113.360 E0.02515
G1 X129.993 Y112.592 E0.02516
G1 X129.822 Y111.808 E0.02515
G1 X129.712 Y111.013 E0.02515
G1 X129.665 Y110.213 E0.02515
G1 X129.679 Y109.410 E0.02515
G1 X129.756 Y108.612 E0.02516
G1 X129.894 Y107.822 E0.02516
G1 X130.094 Y107.044 E0.02515
G1 X130.353 Y106.285 E0.02515
G1 X130.670 Y105.548 E0.02516
G1 X131.043 Y104.838 E0.02516
G1 X131.453 Y104.187 E0.02411
G1 X131.949 Y103.516 E0.02617
G1 X132.476 Y102.910 E0.02518
G1 X133.049 Y102.348 E0.02515
G1 X133.663 Y101.832 E0.02515
G1 X134.316 Y101.365 E0.02516
G1 X135.002 Y100.951 E0.02515
G1 X135.719 Y100.590 E0.02515
G1 X136.462 Y100.287 E0.02516
G1 X137.226 Y100.042 E0.02515
G1 X138.006 Y99.856 E0.02515
G1 X138.799 Y99.732 E0.02516
G1 X139.599 Y99.670 E0.02516
G1 X140.401 Y99.670 E0.02515
G1 X141.201 Y99.732 E0.02516
G1 X141.994 Y99.856 E0.02516
G1 X142.774 Y100.042 E0.02515
G1 X143.506 Y100.276 E0.02411
G1 X144.280 Y100.590 E0.02617
G1 X144.998 Y100.951 E0.02518
G1 X145.684 Y101.365 E0.02515
G1 X146.337 Y101.832 E0.02516
G1 X146.951 Y102.348 E0.02516
G1 X147.524 Y102.910 E0.02515
G1 X148.051 Y103.515 E0.02516
G1 X148.529 Y104.159 E0.02515
G1 X148.957 Y104.838 E0.02515
G1 X149.330 Y105.548 E0.02516
G1 X149.647 Y106.285 E0.02516
G1 X149.906 Y107.044 E0.02515
G1 X150.106 Y107.822 E0.02515
G1 X150.244 Y108.612 E0.02516
G1 X150.321 Y109.410 E0.02516
G1 X150.335 Y110.213 E0.02515
G1 X150.288 Y111.013 E0.02515
G1 X150.178 Y111.808 E0.02515
G1 X150.007 Y112.592 E0.02515
G1 X149.776 Y113.360 E0.02516
G1 X149.486 Y114.108 E0.02515
G1 X149.139 Y114.832 E0.02515
G1 X148.737 Y115.526 E0.02515
G1 X148.282 Y116.187 E0.02516
G1 X147.777 Y116.810 E0.02515
G1 X147.226 Y117.393 E0.02516
G1 X146.631 Y117.931 E0.02515
G1 X145.996 Y118.421 E0.02516
G1 X145.325 Y118.861 E0.02515
G1 X144.621 Y119.247 E0.02516
G1 X143.890 Y119.578 E0.02516
G1 X143.091 Y119.867 E0.02664
G1 X142.969 Y119.510 F10800.000
;TYPE:External perimeter
G1 F1200.000
G1 X137.031 Y119.510 E0.18617
G1 X136.252 Y119.228 E0.02599
G1 X135.547 Y118.910 E0.02424
G1 X134.870 Y118.537 E0.02424
G1 X134.223 Y118.114 E0.02424
G1 X133.611 Y117.641 E0.02424
G1 X133.062 Y117.145 E0.02321
G1 X132.507 Y116.562 E0.02525
G1 X132.020 Y115.961 E0.02425
G1 X131.582 Y115.324 E0.02424
G1 X131.195 Y114.655 E0.02424
G1 X130.860 Y113.958 E0.02424
G1 X130.581 Y113.238 E0.02424
G1 X130.358 Y112.497 E0.02424
G1 X130.193 Y111.742 E0.02424
G1 X130.088 Y110.976 E0.02424
G1 X130.042 Y110.205 E0.02424
G1 X130.056 Y109.432 E0.02424
G1 X130.130 Y108.662 E0.02424
G1 X130.263 Y107.901 E0.02424
G1 X130.455 Y107.152 E0.02424
G1 X130.705 Y106.421 E0.02424
G1 X131.011 Y105.711 E0.02424
G1 X131.370 Y105.026 E0.02424
G1 X131.765 Y104.400 E0.02321
G1 X132.243 Y103.752 E0.02525
G1 X132.751 Y103.169 E0.02425
G1 X133.303 Y102.628 E0.02424
G1 X133.895 Y102.130 E0.02424
G1 X134.523 Y101.681 E0.02424
G1 X135.185 Y101.281 E0.02424
G1 X135.875 Y100.934 E0.02424
G1 X136.591 Y100.641 E0.02424
G1 X137.327 Y100.405 E0.02424
G1 X138.079 Y100.227 E0.02424
G1 X138.843 Y100.107 E0.02424
G1 X139.614 Y100.047 E0.02424
G1 X140.386 Y100.047 E0.02424
G1 X141.157 Y100.107 E0.02424
G1 X141.921 Y100.227 E0.02424
G1 X142.673 Y100.405 E0.02424
G1 X143.378 Y100.631 E0.02321
G1 X144.124 Y100.934 E0.02525
G1 X144.815 Y101.281 E0.02425
G1 X145.477 Y101.681 E0.02424
G1 X146.105 Y102.130 E0.02424
G1 X146.697 Y102.628 E0.02424
G1 X147.249 Y103.169 E0.02424
G1 X147.757 Y103.752 E0.02424
G1 X148.218 Y104.372 E0.02424
G1 X148.630 Y105.026 E0.02424
G1 X148.989 Y105.711 E0.02424
G1 X149.295 Y106.421 E0.02424
G1 X149.545 Y107.152 E0.02424
G1 X149.737 Y107.901 E0.02424
G1 X149.870 Y108.662 E0.02424
G1 X149.944 Y109.432 E0.02424
G1 X149.958 Y110.205 E0.02424
G1 X149.912 Y110.976 E0.02424
G1 X149.807 Y111.742 E0.02424
G1 X149.642 Y112.497 E0.02424
G1 X149.419 Y113.238 E0.02424
G1 X149.140 Y113.958 E0.02424
G1 X148.805 Y114.655 E0.02424
G1 X148.418 Y115.324 E0.02424
G1 X147.980 Y115.961 E0.02424
G1 X147.493 Y116.562 E0.02424
G1 X146.962 Y117.123 E0.02424
G1 X146.389 Y117.641 E0.02424
G1 X145.777 Y118.114 E0.02424
G1 X145.130 Y118.537 E0.02424
G1 X144.453 Y118.910 E0.02424
G1 X143.748 Y119.228 E0.02424
G1 X143.025 Y119.490 E0.02411
G1 X142.815 Y119.879 F10800.000
;WIPE_START
G1 F8640.000
G1 X138.911 Y119.504 E-0.95000
;WIPE_END
G1 E-0.05000 F2100.000
G1 Z0.400 F10800.000
G1 X143.035 Y149.887
G1 Z0.200
G1 E1.00000 F2100.000
;TYPE:Perimeter
G1 F1200.000
G1 X136.965 Y149.887 E0.19032
G1 X136.110 Y149.578 E0.02852
G1 X135.379 Y149.247 E0.02516
G1 X134.675 Y148.861 E0.02516
G1 X134.004 Y148.421 E0.02515
G1 X133.369 Y147.931 E0.02516
G1 X132.774 Y147.393 E0.02516
G1 X132.223 Y146.810 E0.02515
G1 X131.718 Y146.187 E0.02515
G1 X131.263 Y145.526 E0.02516
G1 X130.861 Y144.832 E0.02515
G1 X130.514 Y144.108 E0.02515
G1 X130.224 Y143.360 E0.02515
G1 X129.993 Y142.592 E0.02516
G1 X129.822 Y141.808 E0.02515
G1 X129.712 Y141.013 E0.02516
G1 X129.665 Y140.213 E0.02515
G1 X129.679 Y139.410 E0.02515
G1 X129.756 Y138.612 E0.02515
G1 X129.894 Y137.822 E0.02516
G1 X130.094 Y137.044 E0.02515
G1 X130.353 Y136.285 E0.02516
G1 X130.670 Y135.548 E0.02515
G1 X131.043 Y134.838 E0.02515
G1 X131.471 Y134.159 E0.02515
G1 X131.949 Y133.515 E0.02516
G1 X132.476 Y132.910 E0.02516
G1 X133.049 Y132.348 E0.02515
G1 X133.663 Y131.832 E0.02515
G1 X134.316 Y131.365 E0.02516
G1 X135.002 Y130.951 E0.02516
G1 X135.719 Y130.590 E0.02515
G1 X136.462 Y130.287 E0.02515
G1 X137.226 Y130.042 E0.02516
G1 X138.006 Y129.856 E0.02516
G1 X138.799 Y129.732 E0.02515
G1 X139.599 Y129.670 E0.02515
G1 X140.401 Y129.670 E0.02516
G1 X141.201 Y129.732 E0.02515
G1 X141.994 Y129.856 E0.02515
G1 X142.774 Y130.042 E0.02516
G1 X143.538 Y130.287 E0.02516
G1 X144.281 Y130.590 E0.02515
G1 X144.998 Y130.951 E0.02515
G1 X145.684 Y131.365 E0.02516
G1 X146.337 Y131.832 E0.02515
G1 X146.951 Y132.348 E0.02515
G1 X147.524 Y132.910 E0.02515
G1 X148.051 Y133.515 E0.02516
G1 X148.529 Y134.159 E0.02516
G1 X148.957 Y134.838 E0.02515
G1 X149.330 Y135.548 E0.02515
G1 X149.647 Y136.285 E0.02515
G1 X149.906 Y137.044 E0.02516
G1 X150.106 Y137.822 E0.02515
G1 X150.244 Y138.612 E0.02516
G1 X150.321 Y139.410 E0.02516
G1 X150.335 Y140.213 E0.02515
G1 X150.288 Y141.013 E0.02515
G1 X150.178 Y141.808 E0.02516
G1 X150.007 Y142.592 E0.02515
G1 X149.776 Y143.360 E0.02516
G1 X149.486 Y144.108 E0.02515
G1 X149.139 Y144.832 E0.02515
G1 X148.737 Y145.526 E0.02515
G1 X148.282 Y146.187 E0.02516
G1 X147.777 Y146.810 E0.02515
G1 X147.226 Y147.393 E0.02516
G1 X146.631 Y147.931 E0.02515
G1 X145.996 Y148.421 E0.02516
G1 X145.325 Y148.861 E0.02515
G1 X144.621 Y149.247 E0.02516
G1 X143.890 Y149.578 E0.02516
G1 X143.091 Y149.867 E0.02664
G1 X142.969 Y149.510 F10800.000
;TYPE:External perimeter
G1 F1200.000
G1 X137.031 Y149.510 E0.18617
G1 X136.252 Y149.228 E0.02599
G1 X135.547 Y148.910 E0.02424
G1 X134.870 Y148.537 E0.02424
G1 X134.223 Y148.114 E0.02424
G1 X133.611 Y147.641 E0.02424
G1 X133.038 Y147.123 E0.02424
G1 X132.507 Y146.562 E0.02424
G1 X132.020 Y145.961 E0.02424
G1 X131.582 Y145.324 E0.02424
G1 X131.195 Y144.655 E0.02424
G1 X130.860 Y143.958 E0.02424
G1 X130.581 Y143.238 E0.02424
G1 X130.358 Y142.497 E0.02424
G1 X130.193 Y141.742 E0.02424
G1 X130.088 Y140.976 E0.02424
G1 X130.042 Y140.205 E0.02424
G1 X130.056 Y139.432 E0.02424
G1 X130.130 Y138.662 E0.02424
G1 X130.263 Y137.901 E0.02424
G1 X130.455 Y137.152 E0.02424
G1 X130.705 Y136.421 E0.02424
G1 X131.011 Y135.711 E0.02424
G1 X131.370 Y135.026 E0.02424
G1 X131.782 Y134.372 E0.02424
G1 X132.243 Y133.752 E0.02424
G1 X132.751 Y133.169 E0.02424
G1 X133.303 Y132.628 E0.02424
G1 X133.895 Y132.130 E0.02424
G1 X134.523 Y131.681 E0.02424
G1 X135.185 Y131.281 E0.02424
G1 X135.875 Y130.934 E0.02424
G1 X136.591 Y130.641 E0.02424
G1 X137.327 Y130.405 E0.02424
G1 X138.079 Y130.227 E0.02424
G1 X138.843 Y130.107 E0.02424
G1 X139.614 Y130.047 E0.02424
G1 X140.386 Y130.047 E0.02424
G1 X141.157 Y130.107 E0.02424
G1 X141.921 Y130.227 E0.02424
G1 X142.673 Y130.405 E0.02424
G1 X143.409 Y130.641 E0.02424
G1 X144.125 Y130.934 E0.02424
G1 X144.815 Y131.281 E0.02424
G1 X145.477 Y131.681 E0.02424
G1 X146.105 Y132.130 E0.02424
G1 X146.697 Y132.628 E0.02424
G1 X147.249 Y133.169 E0.02424
G1 X147.757 Y133.752 E0.02424
G1 X148.218 Y134.372 E0.02424
G1 X148.630 Y135.026 E0.02424
G1 X148.989 Y135.711 E0.02424
G1 X149.295 Y136.421 E0.02424
G1 X149.545 Y137.152 E0.02424
G1 X149.737 Y137.901 E0.02424
G1 X149.870 Y138.662 E0.02424
G1 X149.944 Y139.432 E0.02424
G1 X149.958 Y140.205 E0.02424
G1 X149.912 Y140.976 E0.02424
G1 X149.807 Y141.742 E0.02424
G1 X149.642 Y142.497 E0.02424
G1 X149.419 Y143.238 E0.02424
G1 X149.140 Y143.958 E0.02424
G1 X148.805 Y144.655 E0.02424
G1 X148.418 Y145.324 E0.02424
G1 X147.980 Y145.961 E0.02424
G1 X147.493 Y146.562 E0.02424
G1 X146.962 Y147.123 E0.02424
G1 X146.389 Y147.641 E0.02424
G1 X145.777 Y148.114 E0.02424
G1 X145.130 Y148.537 E0.02424
G1 X144.453 Y148.910 E0.02424
G1 X143.748 Y149.228 E0.02424
G1 X143.025 Y149.490 E0.02411
G1 X142.815 Y149.879 F10800.000
;WIPE_START
G1 F8640.000
G1 X138.911 Y149.504 E-0.95000
;WIPE_END
G1 E-0.05000 F2100.000
G1 Z0.400 F10800.000
G1 X113.035 Y149.887
G1 Z0.200
G1 E1.00000 F2100.000
;TYPE:Perimeter
G1 F1200.000
G1 X106.965 Y149.887 E0.19032
G1 X106.110 Y149.578 E0.02852
G1 X105.379 Y149.247 E0.02516
G1 X104.675 Y148.861 E0.02516
G1 X104.004 Y148.421 E0.02515
G1 X103.369 Y147.931 E0.02515
G1 X102.774 Y147.393 E0.02516
G1 X102.223 Y146.810 E0.02516
G1 X101.718 Y146.187 E0.02515
G1 X101.263 Y145.526 E0.02516
G1 X100.861 Y144.832 E0.02515
G1 X100.514 Y144.108 E0.02515
G1 X100.224 Y143.360 E0.02515
G1 X99.993 Y142.592 E0.02516
G1 X99.822 Y141.808 E0.02515
G1 X99.712 Y141.013 E0.02516
G1 X99.665 Y140.213 E0.02515
G1 X99.679 Y139.410 E0.02515
G1 X99.756 Y138.612 E0.02515
G1 X99.894 Y137.822 E0.02515
G1 X100.094 Y137.044 E0.02515
G1 X100.353 Y136.285 E0.02516
G1 X100.670 Y135.548 E0.02515
G1 X101.043 Y134.838 E0.02515
G1 X101.471 Y134.159 E0.02515
G1 X101.949 Y133.515 E0.02516
G1 X102.476 Y132.910 E0.02516
G1 X103.049 Y132.348 E0.02515
G1 X103.663 Y131.832 E0.02515
G1 X104.316 Y131.365 E0.02515
G1 X105.002 Y130.951 E0.02516
G1 X105.719 Y130.590 E0.02515
G1 X106.462 Y130.287 E0.02515
G1 X107.226 Y130.042 E0.02516
G1 X108.006 Y129.856 E0.02516
G1 X108.799 Y129.732 E0.02515
G1 X109.599 Y129.670 E0.02515
G1 X110.401 Y129.670 E0.02516
G1 X111.201 Y129.732 E0.02515
G1 X111.994 Y129.856 E0.02515
G1 X112.774 Y130.042 E0.02516
G1 X113.538 Y130.287 E0.02516
G1 X114.281 Y130.590 E0.02515
G1 X114.998 Y130.951 E0.02515
G1 X115.684 Y131.365 E0.02516
G1 X116.337 Y131.832 E0.02515
G1 X116.951 Y132.348 E0.02515
G1 X117.524 Y132.910 E0.02515
G1 X118.051 Y133.515 E0.02516
G1 X118.529 Y134.159 E0.02516
G1 X118.957 Y134.838 E0.02515
G1 X119.330 Y135.548 E0.02515
G1 X119.647 Y136.285 E0.02515
G1 X119.906 Y137.044 E0.02516
G1 X120.106 Y137.822 E0.02515
G1 X120.244 Y138.612 E0.02515
M73 Q1 S75
G1 X120.321 Y139.410 E0.02516
G1 X120.335 Y140.213 E0.02515
G1 X120.288 Y141.013 E0.02515
G1 X120.178 Y141.808 E0.02516
G1 X120.007 Y142.592 E0.02515
G1 X119.776 Y143.360 E0.02516
G1 X119.486 Y144.108 E0.02515
M73 P1 R75
G1 X119.139 Y144.832 E0.02515
G1 X118.737 Y145.526 E0.02515
G1 X118.282 Y146.187 E0.02516
G1 X117.777 Y146.810 E0.02515
G1 X117.226 Y147.393 E0.02516
G1 X116.631 Y147.931 E0.02515
G1 X115.996 Y148.421 E0.02515
G1 X115.325 Y148.861 E0.02515
G1 X114.621 Y149.247 E0.02516
G1 X113.890 Y149.578 E0.02516
G1 X113.091 Y149.867 E0.02664
G1 X112.969 Y149.510 F10800.000
;TYPE:External perimeter
G1 F1200.000
G1 X107.031 Y149.510 E0.18617
G1 X106.252 Y149.228 E0.02599
G1 X105.547 Y148.910 E0.02424
G1 X104.870 Y148.537 E0.02424
G1 X104.223 Y148.114 E0.02424
G1 X103.611 Y147.641 E0.02424
G1 X103.038 Y147.123 E0.02424
G1 X102.507 Y146.562 E0.02424
G1 X102.020 Y145.961 E0.02424
G1 X101.582 Y145.324 E0.02424
G1 X101.195 Y144.655 E0.02424
G1 X100.860 Y143.958 E0.02424
G1 X100.581 Y143.238 E0.02424
G1 X100.358 Y142.497 E0.02424
G1 X100.193 Y141.742 E0.02424
G1 X100.088 Y140.976 E0.02424
G1 X100.042 Y140.205 E0.02424
G1 X100.056 Y139.432 E0.02424
G1 X100.130 Y138.662 E0.02424
G1 X100.263 Y137.901 E0.02424
G1 X100.455 Y137.152 E0.02424
G1 X100.705 Y136.421 E0.02424
G1 X101.011 Y135.711 E0.02424
G1 X101.370 Y135.026 E0.02424
G1 X101.782 Y134.372 E0.02424
G1 X102.243 Y133.752 E0.02424
G1 X102.751 Y133.169 E0.02424
G1 X103.303 Y132.628 E0.02424
G1 X103.895 Y132.130 E0.02424
G1 X104.523 Y131.681 E0.02424
G1 X105.185 Y131.281 E0.02424
G1 X105.875 Y130.934 E0.02424
G1 X106.591 Y130.641 E0.02424
G1 X107.327 Y130.405 E0.02424
G1 X108.079 Y130.227 E0.02424
G1 X108.843 Y130.107 E0.02424
G1 X109.614 Y130.047 E0.02424
G1 X110.386 Y130.047 E0.02424
G1 X111.157 Y130.107 E0.02424
G1 X111.921 Y130.227 E0.02424
G1 X112.673 Y130.405 E0.02424
G1 X113.409 Y130.641 E0.02424
G1 X114.125 Y130.934 E0.02424
