; generated by PrusaSlicer 2.3.1+x64 on 2023-02-03 at 21:55:52 UTC

; 

; external perimeters extrusion width = 0.45mm
; perimeters extrusion width = 0.45mm
; infill extrusion width = 0.45mm
; solid infill extrusion width = 0.45mm
; top infill extrusion width = 0.40mm
; first layer extrusion width = 0.42mm

M73 P0 R128
M73 Q0 S129
M201 X1000 Y1000 Z200 E5000 ; sets maximum accelerations, mm/sec^2
M203 X200 Y200 Z12 E120 ; sets maximum feedrates, mm/sec
M204 P1250 R1250 T1250 ; sets acceleration (P, T) and retract acceleration (R), mm/sec^2
M205 X8.00 Y8.00 Z0.40 E4.50 ; sets the jerk limits, mm/sec
M205 S0 T0 ; sets the minimum extruding and travel feed rate, mm/sec
M107
;TYPE:Custom
M862.3 P "MK3" ; printer model check
M862.1 P0.4 ; nozzle diameter check
M115 U3.9.3 ; tell printer latest fw version
G90 ; use absolute coordinates
M83 ; extruder relative mode
M104 S120 ; set extruder temp
M140 S85 ; set bed temp
M190 S85 ; wait for bed temp
M104 S240 ; set extruder temp
M109 S240 ; wait for extruder temp
G28 W ; home all without mesh bed level
G80 ; mesh bed leveling
G1 Y-3.0 F1000.0 ; go outside print area
G92 E0.0
G1 X60.0 E9.0 F1000.0 ; intro line
G1 X100.0 E12.5 F1000.0 ; intro line
G92 E0.0
M221 S95

; Don't change E values below. Excessive value can damage the printer.

M907 E538 ; set extruder motor current
G21 ; set units to millimeters
G90 ; use absolute coordinates
M83 ; use relative distances for extrusion
M900 K0.08 ; Filament gcode LA 1.5
M900 K45 ; Filament gcode LA 1.0
;LAYER_CHANGE
;Z:0.2
;HEIGHT:0.2
;BEFORE_LAYER_CHANGE
G92 E0.0
;0.2


G1 E-1.00000 F2100.000
G1 Z0.200 F10800.000
;AFTER_LAYER_CHANGE
;0.2
G1 Z0.400
G1 X42.539 Y65.009
G1 Z0.200
G1 E1.00000 F2100.000
M204 S1000
;TYPE:Skirt
;WIDTH:0.42
G1 F1200.000
G1 X43.825 Y64.027 E0.05074
G1 X47.655 Y61.869 E0.13784
G1 X49.212 Y61.153 E0.05372
G1 X50.303 Y60.806 E0.03591
G1 X51.425 Y60.574 E0.03592
G1 X53.160 Y60.436 E0.05455
G1 X196.821 Y60.435 E4.50441
G1 X198.778 Y60.606 E0.06160
G1 X200.781 Y61.150 E0.06505
M73 P0 R127
G1 X202.365 Y61.880 E0.05469
G1 X206.681 Y64.355 E0.15601
G1 X207.874 Y65.443 E0.05060
G1 X208.724 Y66.678 E0.04703
G1 X209.320 Y68.181 E0.05069
G1 X209.521 Y69.313 E0.03605
G1 X209.515 Y140.753 E2.23996
G1 X209.328 Y141.792 E0.03309
G1 X208.828 Y143.127 E0.04469
G1 X208.298 Y144.011 E0.03232
G1 X207.459 Y144.994 E0.04051
G1 X206.175 Y145.973 E0.05062
G1 X202.345 Y148.131 E0.13784
G1 X200.788 Y148.847 E0.05372
G1 X199.697 Y149.194 E0.03591
G1 X198.575 Y149.426 E0.03592
G1 X196.840 Y149.564 E0.05455
G1 X53.110 Y149.563 E4.50656
M73 Q0 S128
G1 X51.418 Y149.425 E0.05325
G1 X50.296 Y149.192 E0.03591
G1 X49.209 Y148.846 E0.03578
G1 X47.648 Y148.127 E0.05386
G1 X43.230 Y145.580 E0.15992
G1 X42.090 Y144.516 E0.04888
G1 X41.214 Y143.209 E0.04933
G1 X40.641 Y141.675 E0.05134
G1 X40.448 Y140.077 E0.05047
G1 X40.482 Y69.273 E2.22001
G1 X40.670 Y68.216 E0.03369
G1 X41.170 Y66.877 E0.04481
G1 X41.702 Y65.989 E0.03244
G1 X42.500 Y65.055 E0.03851
; printing object Enclosure.stl id:0 copy 0
;WIPE_START
G1 F8640.000
G1 X43.825 Y64.027 E-0.38722
G1 X45.948 Y62.831 E-0.56278
;WIPE_END
G1 E-0.05000 F2100.000
G1 Z0.400 F10800.000
G1 X197.674 Y97.309
G1 Z0.200
G1 E1.00000 F2100.000
;TYPE:Perimeter
G1 F1200.000
G1 X197.788 Y96.881 E0.01388
G1 X197.975 Y96.480 E0.01388
G1 X198.229 Y96.117 E0.01388
G1 X198.542 Y95.804 E0.01388
G1 X198.905 Y95.550 E0.01388
G1 X199.306 Y95.363 E0.01388
G1 X199.734 Y95.249 E0.01388
G1 X200.141 Y95.213 E0.01280
G1 X201.209 Y95.213 E0.03351
G1 X201.616 Y95.249 E0.01280
G1 X202.044 Y95.363 E0.01388
G1 X202.445 Y95.550 E0.01388
G1 X202.808 Y95.804 E0.01388
G1 X203.121 Y96.117 E0.01388
G1 X203.375 Y96.480 E0.01388
G1 X203.562 Y96.881 E0.01388
G1 X203.676 Y97.309 E0.01388
G1 X203.712 Y97.716 E0.01280
G1 X203.712 Y112.284 E0.45679
G1 X203.676 Y112.691 E0.01280
G1 X203.562 Y113.119 E0.01388
G1 X203.375 Y113.520 E0.01388
G1 X203.121 Y113.883 E0.01388
G1 X202.808 Y114.196 E0.01388
G1 X202.445 Y114.450 E0.01388
G1 X202.044 Y114.637 E0.01388
G1 X201.616 Y114.751 E0.01388
G1 X201.209 Y114.787 E0.01280
G1 X200.141 Y114.787 E0.03351
G1 X199.734 Y114.751 E0.01280
G1 X199.306 Y114.637 E0.01388
G1 X198.905 Y114.450 E0.01388
G1 X198.542 Y114.196 E0.01388
G1 X198.229 Y113.883 E0.01388
G1 X197.975 Y113.520 E0.01388
G1 X197.788 Y113.119 E0.01388
G1 X197.674 Y112.691 E0.01388
G1 X197.638 Y112.284 E0.01280
G1 X197.638 Y97.716 E0.45679
G1 X197.668 Y97.369 E0.01092
G1 X198.044 Y97.402 F10800.000
;TYPE:External perimeter
G1 F1200.000
G1 X198.144 Y97.011 E0.01265
G1 X198.303 Y96.669 E0.01181
G1 X198.519 Y96.361 E0.01181
G1 X198.786 Y96.094 E0.01181
G1 X199.094 Y95.878 E0.01181
G1 X199.436 Y95.719 E0.01181
G1 X199.800 Y95.621 E0.01181
G1 X200.157 Y95.590 E0.01125
G1 X201.193 Y95.590 E0.03248
G1 X201.550 Y95.621 E0.01125
G1 X201.914 Y95.719 E0.01181
G1 X202.256 Y95.878 E0.01181
G1 X202.564 Y96.094 E0.01181
G1 X202.831 Y96.361 E0.01181
G1 X203.047 Y96.669 E0.01181
G1 X203.206 Y97.011 E0.01181
G1 X203.304 Y97.375 E0.01181
G1 X203.335 Y97.732 E0.01125
G1 X203.335 Y112.268 E0.45576
G1 X203.304 Y112.625 E0.01125
G1 X203.206 Y112.989 E0.01181
G1 X203.047 Y113.331 E0.01181
G1 X202.831 Y113.639 E0.01181
G1 X202.564 Y113.906 E0.01181
G1 X202.256 Y114.122 E0.01181
G1 X201.914 Y114.281 E0.01181
G1 X201.550 Y114.379 E0.01181
G1 X201.193 Y114.410 E0.01125
G1 X200.157 Y114.410 E0.03248
G1 X199.800 Y114.379 E0.01125
G1 X199.436 Y114.281 E0.01181
G1 X199.094 Y114.122 E0.01181
G1 X198.786 Y113.906 E0.01181
G1 X198.519 Y113.639 E0.01181
G1 X198.303 Y113.331 E0.01181
G1 X198.144 Y112.989 E0.01181
G1 X198.046 Y112.625 E0.01181
G1 X198.015 Y112.268 E0.01125
G1 X198.015 Y97.732 E0.45576
G1 X198.039 Y97.461 E0.00852
G1 X197.736 Y97.147 F10800.000
;WIPE_START
G1 F8640.000
G1 X198.144 Y97.011 E-0.10684
G1 X198.303 Y96.669 E-0.08700
G1 X198.519 Y96.361 E-0.08700
G1 X198.786 Y96.094 E-0.08700
G1 X199.094 Y95.878 E-0.08700
G1 X199.436 Y95.719 E-0.08700
G1 X199.800 Y95.621 E-0.08700
G1 X200.157 Y95.590 E-0.08285
G1 X201.189 Y95.590 E-0.23830
;WIPE_END
G1 E-0.05000 F2100.000
G1 Z0.400 F10800.000
G1 X200.147 Y74.806
G1 Z0.200
G1 E1.00000 F2100.000
;TYPE:Perimeter
G1 F1200.000
G1 X199.635 Y74.669 E0.01662
G1 X199.155 Y74.445 E0.01662
G1 X198.772 Y74.177 E0.01465
G1 X198.350 Y73.772 E0.01837
G1 X198.042 Y73.333 E0.01680
G1 X197.818 Y72.852 E0.01662
G1 X197.681 Y72.340 E0.01662
G1 X197.635 Y71.812 E0.01662
G1 X197.681 Y71.285 E0.01662
G1 X197.818 Y70.773 E0.01662
G1 X198.042 Y70.292 E0.01662
G1 X198.346 Y69.858 E0.01662
G1 X198.721 Y69.484 E0.01662
G1 X199.155 Y69.180 E0.01662
G1 X199.635 Y68.956 E0.01662
G1 X200.147 Y68.819 E0.01662
G1 X200.612 Y68.778 E0.01465
G1 X201.197 Y68.817 E0.01837
G1 X201.715 Y68.956 E0.01680
G1 X202.195 Y69.180 E0.01662
G1 X202.629 Y69.484 E0.01662
G1 X203.004 Y69.858 E0.01662
G1 X203.308 Y70.292 E0.01662
G1 X203.532 Y70.773 E0.01662
G1 X203.669 Y71.285 E0.01662
G1 X203.715 Y71.812 E0.01662
G1 X203.669 Y72.340 E0.01662
G1 X203.532 Y72.852 E0.01662
G1 X203.308 Y73.333 E0.01662
G1 X203.004 Y73.767 E0.01662
G1 X202.629 Y74.141 E0.01662
G1 X202.195 Y74.445 E0.01662
G1 X201.715 Y74.669 E0.01662
G1 X201.203 Y74.806 E0.01662
G1 X200.675 Y74.853 E0.01662
G1 X200.207 Y74.812 E0.01473
G1 X200.240 Y74.436 F10800.000
;TYPE:External perimeter
G1 F1200.000
G1 X199.765 Y74.314 E0.01538
G1 X199.344 Y74.117 E0.01455
G1 X199.012 Y73.885 E0.01270
G1 X198.637 Y73.525 E0.01630
G1 X198.370 Y73.143 E0.01461
G1 X198.174 Y72.723 E0.01455
G1 X198.054 Y72.275 E0.01455
G1 X198.013 Y71.812 E0.01455
G1 X198.054 Y71.350 E0.01455
G1 X198.174 Y70.902 E0.01455
G1 X198.370 Y70.482 E0.01455
G1 X198.636 Y70.102 E0.01455
G1 X198.964 Y69.774 E0.01455
G1 X199.344 Y69.508 E0.01455
G1 X199.765 Y69.311 E0.01455
G1 X200.213 Y69.191 E0.01455
G1 X200.616 Y69.156 E0.01270
G1 X201.135 Y69.191 E0.01630
G1 X201.585 Y69.311 E0.01461
G1 X202.006 Y69.508 E0.01455
G1 X202.386 Y69.774 E0.01455
G1 X202.714 Y70.102 E0.01455
G1 X202.980 Y70.482 E0.01455
G1 X203.176 Y70.902 E0.01455
G1 X203.296 Y71.350 E0.01455
G1 X203.337 Y71.812 E0.01455
G1 X203.296 Y72.275 E0.01455
G1 X203.176 Y72.723 E0.01455
G1 X202.980 Y73.143 E0.01455
G1 X202.714 Y73.523 E0.01455
G1 X202.386 Y73.851 E0.01455
G1 X202.006 Y74.117 E0.01455
G1 X201.585 Y74.314 E0.01455
G1 X201.137 Y74.434 E0.01455
G1 X200.675 Y74.474 E0.01455
G1 X200.300 Y74.441 E0.01182
G1 X199.985 Y74.744 F10800.000
;WIPE_START
G1 F8640.000
G1 X199.765 Y74.314 E-0.12696
G1 X199.344 Y74.117 E-0.10713
G1 X199.012 Y73.885 E-0.09353
G1 X198.637 Y73.525 E-0.12005
G1 X198.370 Y73.143 E-0.10762
G1 X198.174 Y72.723 E-0.10712
G1 X198.054 Y72.275 E-0.10713
G1 X198.013 Y71.812 E-0.10713
G1 X198.041 Y71.496 E-0.07334
;WIPE_END
G1 E-0.05000 F2100.000
G1 Z0.400 F10800.000
G1 X201.197 Y135.192
G1 Z0.200
G1 E1.00000 F2100.000
;TYPE:Perimeter
G1 F1200.000
G1 X201.715 Y135.331 E0.01680
G1 X202.195 Y135.555 E0.01662
G1 X202.629 Y135.859 E0.01662
G1 X203.004 Y136.233 E0.01662
G1 X203.308 Y136.667 E0.01662
G1 X203.532 Y137.148 E0.01662
G1 X203.669 Y137.660 E0.01662
G1 X203.715 Y138.188 E0.01662
G1 X203.669 Y138.715 E0.01662
G1 X203.532 Y139.227 E0.01662
G1 X203.308 Y139.708 E0.01662
G1 X203.004 Y140.142 E0.01662
G1 X202.629 Y140.516 E0.01662
G1 X202.195 Y140.820 E0.01662
G1 X201.715 Y141.044 E0.01662
G1 X201.203 Y141.181 E0.01662
G1 X200.675 Y141.228 E0.01662
G1 X200.147 Y141.181 E0.01662
G1 X199.635 Y141.044 E0.01662
G1 X199.155 Y140.820 E0.01662
G1 X198.721 Y140.516 E0.01662
G1 X198.346 Y140.142 E0.01662
G1 X198.042 Y139.708 E0.01662
G1 X197.818 Y139.227 E0.01662
G1 X197.681 Y138.715 E0.01662
G1 X197.635 Y138.188 E0.01662
G1 X197.681 Y137.660 E0.01662
G1 X197.818 Y137.148 E0.01662
G1 X198.042 Y136.667 E0.01662
G1 X198.346 Y136.233 E0.01662
G1 X198.721 Y135.859 E0.01662
G1 X199.155 Y135.555 E0.01662
G1 X199.635 Y135.331 E0.01662
G1 X200.147 Y135.194 E0.01662
G1 X200.612 Y135.153 E0.01465
G1 X201.137 Y135.188 E0.01649
G1 X201.112 Y135.564 F10800.000
;TYPE:External perimeter
G1 F1200.000
G1 X201.585 Y135.686 E0.01533
G1 X202.006 Y135.883 E0.01455
G1 X202.386 Y136.149 E0.01455
G1 X202.714 Y136.477 E0.01455
G1 X202.980 Y136.857 E0.01455
G1 X203.176 Y137.277 E0.01455
G1 X203.296 Y137.725 E0.01455
G1 X203.337 Y138.188 E0.01455
G1 X203.296 Y138.650 E0.01455
G1 X203.176 Y139.098 E0.01455
G1 X202.980 Y139.518 E0.01455
G1 X202.714 Y139.898 E0.01455
G1 X202.386 Y140.226 E0.01455
G1 X202.006 Y140.492 E0.01455
G1 X201.585 Y140.689 E0.01455
G1 X201.137 Y140.809 E0.01455
G1 X200.675 Y140.849 E0.01455
G1 X200.213 Y140.809 E0.01455
G1 X199.765 Y140.689 E0.01455
G1 X199.344 Y140.492 E0.01455
G1 X198.964 Y140.226 E0.01455
G1 X198.636 Y139.898 E0.01455
G1 X198.370 Y139.518 E0.01455
G1 X198.174 Y139.098 E0.01455
G1 X198.054 Y138.650 E0.01455
G1 X198.013 Y138.188 E0.01455
G1 X198.054 Y137.725 E0.01455
G1 X198.174 Y137.277 E0.01455
G1 X198.370 Y136.857 E0.01455
G1 X198.636 Y136.477 E0.01455
G1 X198.964 Y136.149 E0.01455
G1 X199.344 Y135.883 E0.01455
G1 X199.765 Y135.686 E0.01455
G1 X200.213 Y135.566 E0.01455
G1 X200.616 Y135.531 E0.01270
G1 X201.052 Y135.560 E0.01369
G1 X201.367 Y135.256 F10800.000
;WIPE_START
G1 F8640.000
G1 X201.585 Y135.686 E-0.12651
G1 X202.006 Y135.883 E-0.10713
G1 X202.386 Y136.149 E-0.10713
G1 X202.714 Y136.477 E-0.10713
G1 X202.980 Y136.857 E-0.10713
G1 X203.176 Y137.277 E-0.10712
G1 X203.296 Y137.725 E-0.10713
G1 X203.337 Y138.188 E-0.10713
G1 X203.309 Y138.505 E-0.07361
;WIPE_END
G1 E-0.05000 F2100.000
G1 Z0.400 F10800.000
G1 X52.365 Y138.188
G1 Z0.200
G1 E1.00000 F2100.000
;TYPE:Perimeter
G1 F1200.000
G1 X52.319 Y138.715 E0.01662
G1 X52.182 Y139.227 E0.01662
G1 X51.958 Y139.708 E0.01662
G1 X51.654 Y140.142 E0.01662
G1 X51.279 Y140.516 E0.01662
G1 X50.845 Y140.820 E0.01662
G1 X50.365 Y141.044 E0.01662
G1 X49.853 Y141.181 E0.01662
G1 X49.325 Y141.228 E0.01662
G1 X48.797 Y141.181 E0.01662
G1 X48.285 Y141.044 E0.01662
G1 X47.805 Y140.820 E0.01662
G1 X47.371 Y140.516 E0.01662
G1 X46.996 Y140.142 E0.01662
G1 X46.692 Y139.708 E0.01662
G1 X46.468 Y139.227 E0.01662
G1 X46.331 Y138.715 E0.01662
G1 X46.285 Y138.188 E0.01662
G1 X46.331 Y137.660 E0.01662
G1 X46.468 Y137.148 E0.01662
G1 X46.692 Y136.667 E0.01662
G1 X46.996 Y136.233 E0.01662
G1 X47.371 Y135.859 E0.01662
G1 X47.805 Y135.555 E0.01662
G1 X48.285 Y135.331 E0.01662
G1 X48.797 Y135.194 E0.01662
G1 X49.262 Y135.153 E0.01465
G1 X49.847 Y135.192 E0.01837
G1 X50.365 Y135.331 E0.01680
G1 X50.845 Y135.555 E0.01662
G1 X51.279 Y135.859 E0.01662
G1 X51.654 Y136.233 E0.01662
G1 X51.958 Y136.667 E0.01662
G1 X52.182 Y137.148 E0.01662
G1 X52.319 Y137.660 E0.01662
G1 X52.360 Y138.128 E0.01473
G1 X51.984 Y138.161 F10800.000
;TYPE:External perimeter
G1 F1200.000
G1 X51.946 Y138.650 E0.01538
G1 X51.826 Y139.098 E0.01455
G1 X51.630 Y139.518 E0.01455
G1 X51.364 Y139.898 E0.01455
G1 X51.036 Y140.226 E0.01455
G1 X50.656 Y140.492 E0.01455
G1 X50.235 Y140.689 E0.01455
G1 X49.787 Y140.809 E0.01455
G1 X49.325 Y140.849 E0.01455
G1 X48.863 Y140.809 E0.01455
G1 X48.415 Y140.689 E0.01455
G1 X47.994 Y140.492 E0.01455
G1 X47.614 Y140.226 E0.01455
G1 X47.286 Y139.898 E0.01455
G1 X47.020 Y139.518 E0.01455
G1 X46.824 Y139.098 E0.01455
G1 X46.704 Y138.650 E0.01455
G1 X46.663 Y138.188 E0.01455
G1 X46.704 Y137.725 E0.01455
G1 X46.824 Y137.277 E0.01455
G1 X47.020 Y136.857 E0.01455
G1 X47.286 Y136.477 E0.01455
G1 X47.614 Y136.149 E0.01455
G1 X47.994 Y135.883 E0.01455
G1 X48.415 Y135.686 E0.01455
G1 X48.863 Y135.566 E0.01455
G1 X49.266 Y135.531 E0.01270
G1 X49.785 Y135.566 E0.01630
G1 X50.235 Y135.686 E0.01461
G1 X50.656 Y135.883 E0.01455
G1 X51.036 Y136.149 E0.01455
G1 X51.364 Y136.477 E0.01455
G1 X51.630 Y136.857 E0.01455
G1 X51.826 Y137.277 E0.01455
G1 X51.946 Y137.725 E0.01455
G1 X51.979 Y138.101 E0.01182
G1 X52.332 Y138.358 F10800.000
;WIPE_START
G1 F8640.000
G1 X51.946 Y138.650 E-0.12696
G1 X51.826 Y139.098 E-0.10713
G1 X51.630 Y139.518 E-0.10712
G1 X51.364 Y139.898 E-0.10713
G1 X51.036 Y140.226 E-0.10712
G1 X50.656 Y140.492 E-0.10713
G1 X50.235 Y140.689 E-0.10713
G1 X49.787 Y140.809 E-0.10713
G1 X49.472 Y140.836 E-0.07316
;WIPE_END
G1 E-0.05000 F2100.000
G1 Z0.400 F10800.000
G1 X50.266 Y114.751
G1 Z0.200
G1 E1.00000 F2100.000
;TYPE:Perimeter
G1 F1200.000
G1 X49.859 Y114.787 E0.01280
G1 X48.791 Y114.787 E0.03351
G1 X48.384 Y114.751 E0.01280
G1 X47.956 Y114.637 E0.01388
G1 X47.555 Y114.450 E0.01388
G1 X47.192 Y114.196 E0.01388
G1 X46.879 Y113.883 E0.01388
G1 X46.625 Y113.520 E0.01388
G1 X46.438 Y113.119 E0.01388
G1 X46.324 Y112.691 E0.01388
G1 X46.288 Y112.284 E0.01280
G1 X46.288 Y97.716 E0.45679
G1 X46.324 Y97.309 E0.01280
G1 X46.438 Y96.881 E0.01388
G1 X46.625 Y96.480 E0.01388
G1 X46.879 Y96.117 E0.01388
G1 X47.192 Y95.804 E0.01388
G1 X47.555 Y95.550 E0.01388
G1 X47.956 Y95.363 E0.01388
G1 X48.384 Y95.249 E0.01388
G1 X48.791 Y95.213 E0.01280
G1 X49.859 Y95.213 E0.03351
G1 X50.266 Y95.249 E0.01280
G1 X50.694 Y95.363 E0.01388
G1 X51.095 Y95.550 E0.01388
G1 X51.458 Y95.804 E0.01388
G1 X51.771 Y96.117 E0.01388
G1 X52.025 Y96.480 E0.01388
G1 X52.212 Y96.881 E0.01388
G1 X52.326 Y97.309 E0.01388
G1 X52.362 Y97.716 E0.01280
G1 X52.362 Y112.284 E0.45679
G1 X52.326 Y112.691 E0.01280
G1 X52.212 Y113.119 E0.01388
G1 X52.025 Y113.520 E0.01388
G1 X51.771 Y113.883 E0.01388
G1 X51.458 Y114.196 E0.01388
G1 X51.095 Y114.450 E0.01388
G1 X50.694 Y114.637 E0.01388
G1 X50.324 Y114.736 E0.01200
G1 X50.226 Y114.372 F10800.000
;TYPE:External perimeter
G1 F1200.000
G1 X49.843 Y114.410 E0.01209
G1 X48.807 Y114.410 E0.03248
G1 X48.450 Y114.379 E0.01125
G1 X48.086 Y114.281 E0.01181
G1 X47.744 Y114.122 E0.01181
G1 X47.436 Y113.906 E0.01181
G1 X47.169 Y113.639 E0.01181
G1 X46.953 Y113.331 E0.01181
G1 X46.794 Y112.989 E0.01181
G1 X46.696 Y112.625 E0.01181
G1 X46.665 Y112.268 E0.01125
G1 X46.665 Y97.732 E0.45576
G1 X46.696 Y97.375 E0.01125
G1 X46.794 Y97.011 E0.01181
G1 X46.953 Y96.669 E0.01181
G1 X47.169 Y96.361 E0.01181
G1 X47.436 Y96.094 E0.01181
G1 X47.744 Y95.878 E0.01181
G1 X48.086 Y95.719 E0.01181
G1 X48.450 Y95.621 E0.01181
G1 X48.807 Y95.590 E0.01125
G1 X49.843 Y95.590 E0.03248
G1 X50.200 Y95.621 E0.01125
G1 X50.564 Y95.719 E0.01181
G1 X50.906 Y95.878 E0.01181
