; generated by PrusaSlicer 2.3.1+x64 on 2022-05-01 at 15:40:48 UTC

; 

; external perimeters extrusion width = 0.45mm
; perimeters extrusion width = 0.45mm
; infill extrusion width = 0.45mm
; solid infill extrusion width = 0.45mm
; top infill extrusion width = 0.40mm
; first layer extrusion width = 0.42mm

M73 P0 R53
M73 Q0 S53
M201 X1000 Y1000 Z200 E5000 ; sets maximum accelerations, mm/sec^2
M203 X200 Y200 Z12 E120 ; sets maximum feedrates, mm/sec
M204 P1250 R1250 T1250 ; sets acceleration (P, T) and retract acceleration (R), mm/sec^2
M205 X8.00 Y8.00 Z0.40 E4.50 ; sets the jerk limits, mm/sec
M205 S0 T0 ; sets the minimum extruding and travel feed rate, mm/sec
M107
;TYPE:Custom
M862.3 P "MK3" ; printer model check
M862.1 P0.4 ; nozzle diameter check
M115 U3.9.3 ; tell printer latest fw version
G90 ; use absolute coordinates
M83 ; extruder relative mode
M104 S120 ; set extruder temp
M140 S85 ; set bed temp
M190 S85 ; wait for bed temp
M104 S200 ; set extruder temp
M109 S200 ; wait for extruder temp
G28 W ; home all without mesh bed level
G80 ; mesh bed leveling
G1 Y-3.0 F1000.0 ; go outside print area
G92 E0.0
G1 X60.0 E9.0 F1000.0 ; intro line
G1 X100.0 E12.5 F1000.0 ; intro line
G92 E0.0
M221 S95

; Don't change E values below. Excessive value can damage the printer.
M907 E430 ; set extruder motor current
G21 ; set units to millimeters
G90 ; use absolute coordinates
M83 ; use relative distances for extrusion
M900 K0.08 ; Filament gcode LA 1.5
M900 K45 ; Filament gcode LA 1.0
;LAYER_CHANGE
;Z:0.2
;HEIGHT:0.2
;BEFORE_LAYER_CHANGE
G92 E0.0
;0.2


G1 E-1.40000 F2100.000
G1 Z0.200 F10800.000
;AFTER_LAYER_CHANGE
;0.2
G1 Z0.400
G1 X78.030 Y87.449
G1 Z0.200
G1 E1.40000 F2100.000
M204 S1000
;TYPE:Skirt
;WIDTH:0.42
G1 F1200.000
G1 X78.265 Y86.783 E0.02213
G1 X78.687 Y86.213 E0.02225
G1 X79.258 Y85.792 E0.02225
G1 X79.929 Y85.559 E0.02225
G1 X88.369 Y85.519 E0.26465
G1 X185.900 Y100.580 E3.09428
G1 X186.521 Y100.818 E0.02083
G1 X187.050 Y101.219 E0.02083
G1 X187.449 Y101.751 E0.02083
G1 X187.683 Y102.369 E0.02071
G1 X187.742 Y102.871 E0.01585
G1 X187.742 Y107.896 E0.15755
G1 X187.681 Y108.432 E0.01692
G1 X187.384 Y109.150 E0.02437
G1 X186.871 Y109.735 E0.02437
G1 X182.650 Y112.849 E0.16449
G1 X181.863 Y113.204 E0.02708
G1 X98.835 Y130.226 E2.65741
G1 X80.365 Y130.273 E0.57911
G1 X79.829 Y130.212 E0.01692
G1 X79.117 Y129.919 E0.02414
G1 X78.536 Y129.414 E0.02414
G1 X78.147 Y128.750 E0.02414
G1 X77.990 Y127.996 E0.02414
G1 X78.030 Y87.509 E1.26944
; printing object F Mount v3.stl id:0 copy 0
;WIPE_START
G1 F8640.000
G1 X78.265 Y86.783 E-0.17612
G1 X78.687 Y86.213 E-0.16385
G1 X79.258 Y85.792 E-0.16385
G1 X79.929 Y85.559 E-0.16385
G1 X82.797 Y85.545 E-0.66232
;WIPE_END
G1 E-0.07000 F2100.000
G1 Z0.400 F10800.000
G1 X96.630 Y103.683
G1 Z0.200
G1 E1.40000 F2100.000
;TYPE:Perimeter
G1 F1200.000
G1 X184.578 Y103.683 E2.75756
G1 X184.578 Y107.109 E0.10741
G1 X180.508 Y107.109 E0.12761
G1 X180.508 Y110.109 E0.09406
G1 X176.082 Y110.109 E0.13877
G1 X176.082 Y107.109 E0.09406
G1 X105.578 Y107.109 E2.21061
G1 X105.578 Y110.109 E0.09406
G1 X101.152 Y110.109 E0.13877
G1 X101.152 Y107.109 E0.09406
G1 X97.578 Y107.109 E0.11207
G1 X97.578 Y127.109 E0.62709
M73 P1 R53
M73 Q1 S53
G1 X81.152 Y127.109 E0.51502
M73 P1 R52
G1 X81.152 Y88.683 E1.20482
G1 X87.578 Y88.683 E0.20148
G1 X87.578 Y118.683 E0.94063
G1 X91.152 Y118.683 E0.11207
G1 X91.152 Y103.683 E0.47031
G1 X96.570 Y103.683 E0.16987
G1 X96.570 Y103.306 F10800.000
;TYPE:External perimeter
G1 F1200.000
G1 X184.955 Y103.306 E2.77126
G1 X184.955 Y107.486 E0.13106
G1 X180.885 Y107.486 E0.12761
G1 X180.885 Y110.486 E0.09406
G1 X175.705 Y110.486 E0.16242
G1 X175.705 Y107.486 E0.09406
G1 X105.955 Y107.486 E2.18696
G1 X105.955 Y110.486 E0.09406
G1 X100.775 Y110.486 E0.16242
G1 X100.775 Y107.486 E0.09406
G1 X97.955 Y107.486 E0.08842
G1 X97.955 Y127.486 E0.62709
G1 X80.775 Y127.486 E0.53867
G1 X80.775 Y88.306 E1.22846
M73 Q1 S52
G1 X87.955 Y88.306 E0.22512
G1 X87.955 Y118.306 E0.94063
G1 X90.775 Y118.306 E0.08842
G1 X90.775 Y103.306 E0.47031
G1 X96.510 Y103.306 E0.17981
G1 X96.889 Y103.547 F10800.000
;WIPE_START
G1 F8640.000
G1 X102.270 Y103.306 E-1.33000
;WIPE_END
G1 E-0.07000 F2100.000
G1 Z0.400 F10800.000
G1 X183.702 Y103.796
G1 Z0.200
G1 E1.40000 F2100.000
;TYPE:Solid infill
;WIDTH:0.420266
G1 F1200.000
G1 X184.295 Y104.389 E0.02632
G1 X184.295 Y104.923 E0.01674
G1 X183.338 Y103.966 E0.04247
G1 X182.805 Y103.966 E0.01674
G1 X184.295 Y105.456 E0.06615
G1 X184.295 Y105.990 E0.01674
G1 X182.271 Y103.966 E0.08983
G1 X181.737 Y103.966 E0.01674
G1 X184.295 Y106.524 E0.11351
G1 X184.295 Y106.826 E0.00948
G1 X184.064 Y106.826 E0.00726
G1 X181.204 Y103.966 E0.12692
G1 X180.670 Y103.966 E0.01674
G1 X183.530 Y106.826 E0.12692
G1 X182.997 Y106.826 E0.01674
G1 X180.136 Y103.966 E0.12692
G1 X179.603 Y103.966 E0.01674
G1 X182.463 Y106.826 E0.12692
G1 X181.929 Y106.826 E0.01674
G1 X179.069 Y103.966 E0.12692
G1 X178.535 Y103.966 E0.01674
G1 X181.396 Y106.826 E0.12692
G1 X180.862 Y106.826 E0.01674
G1 X178.002 Y103.966 E0.12692
G1 X177.468 Y103.966 E0.01674
G1 X180.328 Y106.826 E0.12692
G1 X180.225 Y106.826 E0.00323
G1 X180.225 Y107.256 E0.01351
G1 X176.934 Y103.966 E0.14603
G1 X176.401 Y103.966 E0.01674
G1 X180.225 Y107.790 E0.16971
G1 X180.225 Y108.324 E0.01674
G1 X175.867 Y103.966 E0.19339
G1 X175.333 Y103.966 E0.01674
G1 X180.225 Y108.857 E0.21707
G1 X180.225 Y109.391 E0.01674
G1 X174.800 Y103.966 E0.24074
G1 X174.266 Y103.966 E0.01674
G1 X180.126 Y109.826 E0.26004
G1 X179.593 Y109.826 E0.01674
G1 X173.733 Y103.966 E0.26004
G1 X173.199 Y103.966 E0.01674
G1 X179.059 Y109.826 E0.26004
G1 X178.525 Y109.826 E0.01674
G1 X176.365 Y107.665 E0.09586
G1 X176.365 Y108.199 E0.01674
G1 X177.992 Y109.826 E0.07218
G1 X177.458 Y109.826 E0.01674
G1 X176.365 Y108.733 E0.04851
G1 X176.365 Y109.266 E0.01674
G1 X176.925 Y109.826 E0.02483
G1 X176.391 Y109.826 E0.01674
G1 X176.195 Y109.630 E0.00868
;WIPE_START
G1 F8640.000
G1 X176.391 Y109.826 E-0.06385
G1 X176.925 Y109.826 E-0.12322
G1 X176.365 Y109.266 E-0.18270
G1 X176.365 Y108.733 E-0.12322
G1 X177.458 Y109.826 E-0.35696
G1 X177.992 Y109.826 E-0.12322
G1 X176.899 Y108.733 E-0.35684
;WIPE_END
G1 E-0.07000 F2100.000
G1 Z0.400 F10800.000
G1 X175.695 Y106.996
G1 Z0.200
G1 E1.40000 F2100.000
G1 F1200.000
G1 X172.665 Y103.966 E0.13445
G1 X172.132 Y103.966 E0.01674
G1 X174.992 Y106.826 E0.12692
G1 X174.458 Y106.826 E0.01674
G1 X171.598 Y103.966 E0.12692
G1 X171.064 Y103.966 E0.01674
G1 X173.925 Y106.826 E0.12692
G1 X173.391 Y106.826 E0.01674
G1 X170.531 Y103.966 E0.12692
M73 Q2 S52
G1 X169.997 Y103.966 E0.01674
G1 X172.857 Y106.826 E0.12692
M73 P2 R52
G1 X172.324 Y106.826 E0.01674
G1 X169.463 Y103.966 E0.12692
G1 X168.930 Y103.966 E0.01674
G1 X171.790 Y106.826 E0.12692
G1 X171.256 Y106.826 E0.01674
G1 X168.396 Y103.966 E0.12692
G1 X167.862 Y103.966 E0.01674
G1 X170.723 Y106.826 E0.12692
G1 X170.189 Y106.826 E0.01674
G1 X167.329 Y103.966 E0.12692
G1 X166.795 Y103.966 E0.01674
G1 X169.655 Y106.826 E0.12692
G1 X169.122 Y106.826 E0.01674
G1 X166.261 Y103.966 E0.12692
G1 X165.728 Y103.966 E0.01674
G1 X168.588 Y106.826 E0.12692
G1 X168.054 Y106.826 E0.01674
G1 X165.194 Y103.966 E0.12692
G1 X164.661 Y103.966 E0.01674
G1 X167.521 Y106.826 E0.12692
G1 X166.987 Y106.826 E0.01674
G1 X164.127 Y103.966 E0.12692
G1 X163.593 Y103.966 E0.01674
G1 X166.453 Y106.826 E0.12692
G1 X165.920 Y106.826 E0.01674
G1 X163.060 Y103.966 E0.12692
G1 X162.526 Y103.966 E0.01674
G1 X165.386 Y106.826 E0.12692
G1 X164.853 Y106.826 E0.01674
G1 X161.992 Y103.966 E0.12692
G1 X161.459 Y103.966 E0.01674
G1 X164.319 Y106.826 E0.12692
G1 X163.785 Y106.826 E0.01674
G1 X160.925 Y103.966 E0.12692
G1 X160.391 Y103.966 E0.01674
G1 X163.252 Y106.826 E0.12692
G1 X162.718 Y106.826 E0.01674
G1 X159.858 Y103.966 E0.12692
G1 X159.324 Y103.966 E0.01674
G1 X162.184 Y106.826 E0.12692
G1 X161.651 Y106.826 E0.01674
G1 X158.790 Y103.966 E0.12692
G1 X158.257 Y103.966 E0.01674
G1 X161.117 Y106.826 E0.12692
G1 X160.583 Y106.826 E0.01674
G1 X157.723 Y103.966 E0.12692
G1 X157.189 Y103.966 E0.01674
G1 X160.050 Y106.826 E0.12692
G1 X159.516 Y106.826 E0.01674
G1 X156.656 Y103.966 E0.12692
G1 X156.122 Y103.966 E0.01674
G1 X158.982 Y106.826 E0.12692
G1 X158.449 Y106.826 E0.01674
G1 X155.589 Y103.966 E0.12692
G1 X155.055 Y103.966 E0.01674
G1 X157.915 Y106.826 E0.12692
G1 X157.381 Y106.826 E0.01674
G1 X154.521 Y103.966 E0.12692
G1 X153.988 Y103.966 E0.01674
G1 X156.848 Y106.826 E0.12692
G1 X156.314 Y106.826 E0.01674
G1 X153.454 Y103.966 E0.12692
G1 X152.920 Y103.966 E0.01674
G1 X155.781 Y106.826 E0.12692
G1 X155.247 Y106.826 E0.01674
G1 X152.387 Y103.966 E0.12692
G1 X151.853 Y103.966 E0.01674
G1 X154.713 Y106.826 E0.12692
G1 X154.180 Y106.826 E0.01674
G1 X151.319 Y103.966 E0.12692
G1 X150.786 Y103.966 E0.01674
G1 X153.646 Y106.826 E0.12692
G1 X153.112 Y106.826 E0.01674
G1 X150.252 Y103.966 E0.12692
G1 X149.718 Y103.966 E0.01674
G1 X152.579 Y106.826 E0.12692
G1 X152.045 Y106.826 E0.01674
G1 X149.185 Y103.966 E0.12692
G1 X148.651 Y103.966 E0.01674
G1 X151.511 Y106.826 E0.12692
G1 X150.978 Y106.826 E0.01674
G1 X148.117 Y103.966 E0.12692
G1 X147.584 Y103.966 E0.01674
G1 X150.444 Y106.826 E0.12692
G1 X149.910 Y106.826 E0.01674
G1 X147.050 Y103.966 E0.12692
G1 X146.517 Y103.966 E0.01674
G1 X149.377 Y106.826 E0.12692
G1 X148.843 Y106.826 E0.01674
G1 X145.983 Y103.966 E0.12692
G1 X145.449 Y103.966 E0.01674
G1 X148.309 Y106.826 E0.12692
G1 X147.776 Y106.826 E0.01674
G1 X144.916 Y103.966 E0.12692
G1 X144.382 Y103.966 E0.01674
G1 X147.242 Y106.826 E0.12692
G1 X146.709 Y106.826 E0.01674
G1 X143.848 Y103.966 E0.12692
G1 X143.315 Y103.966 E0.01674
G1 X146.175 Y106.826 E0.12692
G1 X145.641 Y106.826 E0.01674
G1 X142.781 Y103.966 E0.12692
G1 X142.247 Y103.966 E0.01674
G1 X145.108 Y106.826 E0.12692
G1 X144.574 Y106.826 E0.01674
G1 X141.714 Y103.966 E0.12692
G1 X141.180 Y103.966 E0.01674
G1 X144.040 Y106.826 E0.12692
G1 X143.507 Y106.826 E0.01674
G1 X140.646 Y103.966 E0.12692
G1 X140.113 Y103.966 E0.01674
G1 X142.973 Y106.826 E0.12692
G1 X142.439 Y106.826 E0.01674
G1 X139.579 Y103.966 E0.12692
G1 X139.045 Y103.966 E0.01674
G1 X141.906 Y106.826 E0.12692
G1 X141.372 Y106.826 E0.01674
G1 X138.512 Y103.966 E0.12692
G1 X137.978 Y103.966 E0.01674
G1 X140.838 Y106.826 E0.12692
G1 X140.305 Y106.826 E0.01674
G1 X137.444 Y103.966 E0.12692
G1 X136.911 Y103.966 E0.01674
G1 X139.771 Y106.826 E0.12692
G1 X139.237 Y106.826 E0.01674
G1 X136.377 Y103.966 E0.12692
G1 X135.844 Y103.966 E0.01674
G1 X138.704 Y106.826 E0.12692
G1 X138.170 Y106.826 E0.01674
G1 X135.310 Y103.966 E0.12692
G1 X134.776 Y103.966 E0.01674
G1 X137.636 Y106.826 E0.12692
G1 X137.103 Y106.826 E0.01674
G1 X134.243 Y103.966 E0.12692
G1 X133.709 Y103.966 E0.01674
G1 X136.569 Y106.826 E0.12692
G1 X136.036 Y106.826 E0.01674
G1 X133.175 Y103.966 E0.12692
G1 X132.642 Y103.966 E0.01674
G1 X135.502 Y106.826 E0.12692
G1 X134.968 Y106.826 E0.01674
G1 X132.108 Y103.966 E0.12692
G1 X131.574 Y103.966 E0.01674
G1 X134.435 Y106.826 E0.12692
G1 X133.901 Y106.826 E0.01674
G1 X131.041 Y103.966 E0.12692
G1 X130.507 Y103.966 E0.01674
G1 X133.367 Y106.826 E0.12692
G1 X132.834 Y106.826 E0.01674
G1 X129.973 Y103.966 E0.12692
G1 X129.440 Y103.966 E0.01674
G1 X132.300 Y106.826 E0.12692
G1 X131.766 Y106.826 E0.01674
G1 X128.906 Y103.966 E0.12692
G1 X128.372 Y103.966 E0.01674
G1 X131.233 Y106.826 E0.12692
G1 X130.699 Y106.826 E0.01674
G1 X127.839 Y103.966 E0.12692
G1 X127.305 Y103.966 E0.01674
G1 X130.165 Y106.826 E0.12692
G1 X129.632 Y106.826 E0.01674
G1 X126.772 Y103.966 E0.12692
G1 X126.238 Y103.966 E0.01674
G1 X129.098 Y106.826 E0.12692
G1 X128.564 Y106.826 E0.01674
G1 X125.704 Y103.966 E0.12692
G1 X125.171 Y103.966 E0.01674
G1 X128.031 Y106.826 E0.12692
G1 X127.497 Y106.826 E0.01674
G1 X124.637 Y103.966 E0.12692
G1 X124.103 Y103.966 E0.01674
G1 X126.964 Y106.826 E0.12692
G1 X126.430 Y106.826 E0.01674
G1 X123.570 Y103.966 E0.12692
G1 X123.036 Y103.966 E0.01674
G1 X125.896 Y106.826 E0.12692
G1 X125.363 Y106.826 E0.01674
G1 X122.502 Y103.966 E0.12692
G1 X121.969 Y103.966 E0.01674
G1 X124.829 Y106.826 E0.12692
G1 X124.295 Y106.826 E0.01674
G1 X121.435 Y103.966 E0.12692
G1 X120.901 Y103.966 E0.01674
G1 X123.762 Y106.826 E0.12692
G1 X123.228 Y106.826 E0.01674
G1 X120.368 Y103.966 E0.12692
G1 X119.834 Y103.966 E0.01674
G1 X122.694 Y106.826 E0.12692
G1 X122.161 Y106.826 E0.01674
G1 X119.300 Y103.966 E0.12692
G1 X118.767 Y103.966 E0.01674
G1 X121.627 Y106.826 E0.12692
G1 X121.093 Y106.826 E0.01674
G1 X118.233 Y103.966 E0.12692
G1 X117.700 Y103.966 E0.01674
G1 X120.560 Y106.826 E0.12692
G1 X120.026 Y106.826 E0.01674
G1 X117.166 Y103.966 E0.12692
G1 X116.632 Y103.966 E0.01674
G1 X119.492 Y106.826 E0.12692
G1 X118.959 Y106.826 E0.01674
G1 X116.099 Y103.966 E0.12692
G1 X115.565 Y103.966 E0.01674
G1 X118.425 Y106.826 E0.12692
G1 X117.892 Y106.826 E0.01674
G1 X115.031 Y103.966 E0.12692
G1 X114.498 Y103.966 E0.01674
G1 X117.358 Y106.826 E0.12692
G1 X116.824 Y106.826 E0.01674
G1 X113.964 Y103.966 E0.12692
G1 X113.430 Y103.966 E0.01674
G1 X116.291 Y106.826 E0.12692
G1 X115.757 Y106.826 E0.01674
G1 X112.897 Y103.966 E0.12692
G1 X112.363 Y103.966 E0.01674
G1 X115.223 Y106.826 E0.12692
G1 X114.690 Y106.826 E0.01674
G1 X111.829 Y103.966 E0.12692
G1 X111.296 Y103.966 E0.01674
G1 X114.156 Y106.826 E0.12692
G1 X113.622 Y106.826 E0.01674
G1 X110.762 Y103.966 E0.12692
G1 X110.228 Y103.966 E0.01674
G1 X113.089 Y106.826 E0.12692
G1 X112.555 Y106.826 E0.01674
G1 X109.695 Y103.966 E0.12692
G1 X109.161 Y103.966 E0.01674
G1 X112.021 Y106.826 E0.12692
G1 X111.488 Y106.826 E0.01674
G1 X108.628 Y103.966 E0.12692
G1 X108.094 Y103.966 E0.01674
G1 X110.954 Y106.826 E0.12692
G1 X110.420 Y106.826 E0.01674
G1 X107.560 Y103.966 E0.12692
G1 X107.027 Y103.966 E0.01674
G1 X109.887 Y106.826 E0.12692
G1 X109.353 Y106.826 E0.01674
G1 X106.493 Y103.966 E0.12692
M73 P2 R51
G1 X105.959 Y103.966 E0.01674
G1 X108.820 Y106.826 E0.12692
G1 X108.286 Y106.826 E0.01674
G1 X105.426 Y103.966 E0.12692
G1 X104.892 Y103.966 E0.01674
G1 X107.752 Y106.826 E0.12692
G1 X107.219 Y106.826 E0.01674
G1 X104.358 Y103.966 E0.12692
G1 X103.825 Y103.966 E0.01674
G1 X106.685 Y106.826 E0.12692
G1 X106.151 Y106.826 E0.01674
G1 X103.291 Y103.966 E0.12692
G1 X102.757 Y103.966 E0.01674
G1 X105.618 Y106.826 E0.12692
G1 X105.295 Y106.826 E0.01011
G1 X105.295 Y107.037 E0.00663
G1 X102.224 Y103.966 E0.13630
G1 X101.690 Y103.966 E0.01674
G1 X105.295 Y107.571 E0.15997
G1 X105.295 Y108.104 E0.01674
G1 X101.156 Y103.966 E0.18365
G1 X100.623 Y103.966 E0.01674
G1 X105.295 Y108.638 E0.20733
G1 X105.295 Y109.172 E0.01674
G1 X100.089 Y103.966 E0.23101
M73 P3 R51
M73 Q3 S52
G1 X99.555 Y103.966 E0.01674
G1 X105.295 Y109.705 E0.25469
G1 X105.295 Y109.826 E0.00378
G1 X104.882 Y109.826 E0.01297
G1 X99.022 Y103.966 E0.26004
G1 X98.488 Y103.966 E0.01674
G1 X104.348 Y109.826 E0.26004
G1 X103.815 Y109.826 E0.01674
G1 X101.435 Y107.446 E0.10560
G1 X101.435 Y107.980 E0.01674
G1 X103.281 Y109.826 E0.08192
G1 X102.748 Y109.826 E0.01674
G1 X101.435 Y108.513 E0.05824
G1 X101.435 Y109.047 E0.01674
G1 X102.214 Y109.826 E0.03456
G1 X101.680 Y109.826 E0.01674
G1 X101.265 Y109.411 E0.01841
;WIPE_START
G1 F8640.000
G1 X101.680 Y109.826 E-0.13546
G1 X102.214 Y109.826 E-0.12322
G1 X101.435 Y109.047 E-0.25431
G1 X101.435 Y108.513 E-0.12322
G1 X102.748 Y109.826 E-0.42857
G1 X103.281 Y109.826 E-0.12322
G1 X102.846 Y109.391 E-0.14200
;WIPE_END
G1 E-0.07000 F2100.000
G1 Z0.400 F10800.000
G1 X100.984 Y106.996
G1 Z0.200
G1 E1.40000 F2100.000
G1 F1200.000
G1 X97.955 Y103.966 E0.13445
G1 X97.421 Y103.966 E0.01674
G1 X100.281 Y106.826 E0.12692
G1 X99.747 Y106.826 E0.01674
G1 X96.887 Y103.966 E0.12692
G1 X96.354 Y103.966 E0.01674
G1 X99.214 Y106.826 E0.12692
G1 X98.680 Y106.826 E0.01674
G1 X95.820 Y103.966 E0.12692
G1 X95.286 Y103.966 E0.01674
G1 X98.147 Y106.826 E0.12692
G1 X97.613 Y106.826 E0.01674
G1 X94.753 Y103.966 E0.12692
G1 X94.219 Y103.966 E0.01674
G1 X97.295 Y107.042 E0.13650
G1 X97.295 Y107.576 E0.01674
G1 X93.685 Y103.966 E0.16018
G1 X93.152 Y103.966 E0.01674
G1 X97.295 Y108.109 E0.18386
G1 X97.295 Y108.643 E0.01674
