; generated by PrusaSlicer 2.3.1+x64 on 2022-05-01 at 16:51:34 UTC

; 

; external perimeters extrusion width = 0.45mm
; perimeters extrusion width = 0.45mm
; infill extrusion width = 0.45mm
; solid infill extrusion width = 0.45mm
; top infill extrusion width = 0.40mm
; first layer extrusion width = 0.42mm

M73 P0 R105
M73 Q0 S106
M201 X1000 Y1000 Z200 E5000 ; sets maximum accelerations, mm/sec^2
M203 X200 Y200 Z12 E120 ; sets maximum feedrates, mm/sec
M204 P1250 R1250 T1250 ; sets acceleration (P, T) and retract acceleration (R), mm/sec^2
M205 X8.00 Y8.00 Z0.40 E4.50 ; sets the jerk limits, mm/sec
M205 S0 T0 ; sets the minimum extruding and travel feed rate, mm/sec
M107
;TYPE:Custom
M862.3 P "MK3" ; printer model check
M862.1 P0.4 ; nozzle diameter check
M115 U3.9.3 ; tell printer latest fw version
G90 ; use absolute coordinates
M83 ; extruder relative mode
M104 S120 ; set extruder temp
M140 S85 ; set bed temp
M190 S85 ; wait for bed temp
M104 S200 ; set extruder temp
M109 S200 ; wait for extruder temp
G28 W ; home all without mesh bed level
G80 ; mesh bed leveling
G1 Y-3.0 F1000.0 ; go outside print area
G92 E0.0
G1 X60.0 E9.0 F1000.0 ; intro line
G1 X100.0 E12.5 F1000.0 ; intro line
G92 E0.0
M221 S95

; Don't change E values below. Excessive value can damage the printer.
M907 E430 ; set extruder motor current
G21 ; set units to millimeters
G90 ; use absolute coordinates
M83 ; use relative distances for extrusion
M900 K0.08 ; Filament gcode LA 1.5
M900 K45 ; Filament gcode LA 1.0
;LAYER_CHANGE
;Z:0.2
;HEIGHT:0.2
;BEFORE_LAYER_CHANGE
G92 E0.0
;0.2


G1 E-1.40000 F2100.000
G1 Z0.200 F10800.000
;AFTER_LAYER_CHANGE
;0.2
G1 Z0.400
G1 X67.543 Y68.114
G1 Z0.200
G1 E1.40000 F2100.000
M204 S1000
;TYPE:Skirt
;WIDTH:0.42
G1 F1200.000
G1 X68.131 Y67.617 E0.02414
G1 X68.850 Y67.332 E0.02426
G1 X69.337 Y67.278 E0.01538
G1 X77.357 Y67.278 E0.25147
G1 X174.721 Y82.306 E3.08891
G1 X175.248 Y82.452 E0.01716
G1 X175.725 Y82.713 E0.01704
G1 X176.206 Y83.166 E0.02071
G1 X176.546 Y83.736 E0.02083
G1 X182.857 Y99.471 E0.53154
G1 X183.008 Y100.071 E0.01941
G1 X183.023 Y140.368 E1.26347
G1 X182.908 Y141.076 E0.02249
G1 X182.587 Y141.717 E0.02249
G1 X182.250 Y142.099 E0.01597
G1 X181.840 Y142.401 E0.01597
G1 X181.371 Y142.609 E0.01609
G1 X180.872 Y142.712 E0.01597
G1 X172.331 Y142.701 E0.26779
G1 X75.276 Y127.693 E3.07928
G1 X74.752 Y127.548 E0.01704
G1 X74.275 Y127.287 E0.01704
G1 X73.794 Y126.834 E0.02071
G1 X73.454 Y126.264 E0.02083
G1 X67.143 Y110.529 E0.53154
G1 X66.995 Y109.951 E0.01870
G1 X66.980 Y69.533 E1.26729
G1 X67.145 Y68.777 E0.02426
G1 X67.512 Y68.166 E0.02237
; printing object F Mount v3.stl id:1 copy 0
;WIPE_START
G1 F8640.000
G1 X68.131 Y67.617 E-0.19093
G1 X68.850 Y67.332 E-0.17862
G1 X69.337 Y67.278 E-0.11325
G1 X73.006 Y67.278 E-0.84719
;WIPE_END
G1 E-0.07000 F2100.000
G1 Z0.400 F10800.000
G1 X169.859 Y120.732
G1 Z0.200
G1 E1.40000 F2100.000
;TYPE:Perimeter
G1 F1200.000
G1 X169.859 Y124.558 E0.11996
G1 X76.433 Y124.558 E2.92930
M73 Q0 S105
G1 X76.433 Y121.132 E0.10741
G1 X80.503 Y121.132 E0.12761
G1 X80.503 Y118.132 E0.09406
G1 X84.929 Y118.132 E0.13877
G1 X84.929 Y121.132 E0.09406
G1 X155.433 Y121.132 E2.21061
G1 X155.433 Y118.132 E0.09406
G1 X159.859 Y118.132 E0.13877
G1 X159.859 Y121.132 E0.09406
G1 X163.433 Y121.132 E0.11207
G1 X163.433 Y101.132 E0.62709
G1 X179.859 Y101.132 E0.51502
G1 X179.859 Y139.558 E1.20482
G1 X173.433 Y139.558 E0.20148
G1 X173.433 Y109.558 E0.94063
G1 X169.859 Y109.558 E0.11207
G1 X169.859 Y120.672 E0.34848
G1 X170.236 Y120.672 F10800.000
;TYPE:External perimeter
G1 F1200.000
G1 X170.236 Y124.935 E0.13366
G1 X76.056 Y124.935 E2.95295
G1 X76.056 Y120.755 E0.13106
G1 X80.126 Y120.755 E0.12761
G1 X80.126 Y117.755 E0.09406
G1 X85.306 Y117.755 E0.16242
G1 X85.306 Y120.755 E0.09406
G1 X155.056 Y120.755 E2.18696
G1 X155.056 Y117.755 E0.09406
G1 X160.236 Y117.755 E0.16242
G1 X160.236 Y120.755 E0.09406
G1 X163.056 Y120.755 E0.08842
G1 X163.056 Y100.755 E0.62709
G1 X180.236 Y100.755 E0.53867
G1 X180.236 Y139.935 E1.22846
G1 X173.056 Y139.935 E0.22512
G1 X173.056 Y109.935 E0.94063
M73 P0 R104
G1 X170.236 Y109.935 E0.08842
G1 X170.236 Y120.612 E0.33477
G1 X169.874 Y120.842 F10800.000
;WIPE_START
G1 F8640.000
G1 X170.236 Y124.935 E-0.99818
G1 X168.799 Y124.935 E-0.33182
;WIPE_END
G1 E-0.07000 F2100.000
G1 Z0.400 F10800.000
G1 X179.746 Y102.008
G1 Z0.200
G1 E1.40000 F2100.000
;TYPE:Solid infill
;WIDTH:0.420266
G1 F1200.000
G1 X179.153 Y101.415 E0.02632
G1 X178.619 Y101.415 E0.01674
G1 X179.576 Y102.372 E0.04247
G1 X179.576 Y102.906 E0.01674
G1 X178.086 Y101.415 E0.06615
G1 X177.552 Y101.415 E0.01674
G1 X179.576 Y103.439 E0.08983
G1 X179.576 Y103.973 E0.01674
G1 X177.018 Y101.415 E0.11351
G1 X176.485 Y101.415 E0.01674
G1 X179.576 Y104.507 E0.13719
G1 X179.576 Y105.040 E0.01674
G1 X175.951 Y101.415 E0.16087
G1 X175.417 Y101.415 E0.01674
G1 X179.576 Y105.574 E0.18455
G1 X179.576 Y106.108 E0.01674
G1 X174.884 Y101.415 E0.20823
G1 X174.350 Y101.415 E0.01674
G1 X179.576 Y106.641 E0.23191
G1 X179.576 Y107.175 E0.01674
G1 X173.816 Y101.415 E0.25559
G1 X173.283 Y101.415 E0.01674
G1 X179.576 Y107.709 E0.27927
G1 X179.576 Y108.242 E0.01674
G1 X172.749 Y101.415 E0.30295
G1 X172.216 Y101.415 E0.01674
G1 X179.576 Y108.776 E0.32662
M73 P1 R104
M73 Q1 S105
G1 X179.576 Y109.310 E0.01674
G1 X171.682 Y101.415 E0.35030
G1 X171.148 Y101.415 E0.01674
G1 X179.576 Y109.843 E0.37398
G1 X179.576 Y110.377 E0.01674
G1 X170.615 Y101.415 E0.39766
G1 X170.081 Y101.415 E0.01674
G1 X179.576 Y110.911 E0.42134
G1 X179.576 Y111.444 E0.01674
G1 X169.547 Y101.415 E0.44502
G1 X169.014 Y101.415 E0.01674
G1 X179.576 Y111.978 E0.46870
G1 X179.576 Y112.511 E0.01674
G1 X168.480 Y101.415 E0.49238
G1 X167.946 Y101.415 E0.01674
G1 X179.576 Y113.045 E0.51606
G1 X179.576 Y113.579 E0.01674
G1 X167.413 Y101.415 E0.53974
G1 X166.879 Y101.415 E0.01674
G1 X179.576 Y114.112 E0.56342
G1 X179.576 Y114.646 E0.01674
G1 X166.345 Y101.415 E0.58710
G1 X165.812 Y101.415 E0.01674
G1 X179.576 Y115.180 E0.61078
G1 X179.576 Y115.713 E0.01674
G1 X173.716 Y109.853 E0.26004
G1 X173.716 Y110.387 E0.01674
G1 X179.576 Y116.247 E0.26004
G1 X179.576 Y116.781 E0.01674
G1 X173.716 Y110.920 E0.26004
G1 X173.716 Y111.454 E0.01674
G1 X179.576 Y117.314 E0.26004
G1 X179.576 Y117.848 E0.01674
G1 X173.716 Y111.988 E0.26004
G1 X173.716 Y112.521 E0.01674
G1 X179.576 Y118.382 E0.26004
G1 X179.576 Y118.915 E0.01674
G1 X173.716 Y113.055 E0.26004
G1 X173.716 Y113.589 E0.01674
G1 X179.576 Y119.449 E0.26004
G1 X179.576 Y119.983 E0.01674
G1 X173.716 Y114.122 E0.26004
G1 X173.716 Y114.656 E0.01674
G1 X179.576 Y120.516 E0.26004
G1 X179.576 Y121.050 E0.01674
G1 X173.716 Y115.190 E0.26004
G1 X173.716 Y115.723 E0.01674
G1 X179.576 Y121.583 E0.26004
G1 X179.576 Y122.117 E0.01674
G1 X173.716 Y116.257 E0.26004
G1 X173.716 Y116.791 E0.01674
G1 X179.576 Y122.651 E0.26004
G1 X179.576 Y123.184 E0.01674
G1 X173.716 Y117.324 E0.26004
G1 X173.716 Y117.858 E0.01674
G1 X179.576 Y123.718 E0.26004
G1 X179.576 Y124.252 E0.01674
G1 X173.716 Y118.391 E0.26004
G1 X173.716 Y118.925 E0.01674
G1 X179.576 Y124.785 E0.26004
G1 X179.576 Y125.319 E0.01674
G1 X173.716 Y119.459 E0.26004
G1 X173.716 Y119.992 E0.01674
G1 X179.576 Y125.853 E0.26004
G1 X179.576 Y126.386 E0.01674
G1 X173.716 Y120.526 E0.26004
G1 X173.716 Y121.060 E0.01674
G1 X179.576 Y126.920 E0.26004
G1 X179.576 Y127.454 E0.01674
G1 X173.716 Y121.593 E0.26004
G1 X173.716 Y122.127 E0.01674
G1 X179.576 Y127.987 E0.26004
G1 X179.576 Y128.521 E0.01674
G1 X173.716 Y122.661 E0.26004
G1 X173.716 Y123.194 E0.01674
G1 X179.576 Y129.055 E0.26004
G1 X179.576 Y129.588 E0.01674
G1 X173.716 Y123.728 E0.26004
G1 X173.716 Y124.262 E0.01674
G1 X179.576 Y130.122 E0.26004
G1 X179.576 Y130.656 E0.01674
G1 X173.716 Y124.795 E0.26004
G1 X173.716 Y125.329 E0.01674
G1 X179.576 Y131.189 E0.26004
G1 X179.576 Y131.723 E0.01674
G1 X173.716 Y125.863 E0.26004
G1 X173.716 Y126.396 E0.01674
G1 X179.576 Y132.256 E0.26004
G1 X179.576 Y132.790 E0.01674
G1 X173.716 Y126.930 E0.26004
G1 X173.716 Y127.464 E0.01674
G1 X179.576 Y133.324 E0.26004
M73 Q1 S104
G1 X179.576 Y133.857 E0.01674
G1 X173.716 Y127.997 E0.26004
G1 X173.716 Y128.531 E0.01674
G1 X179.576 Y134.391 E0.26004
G1 X179.576 Y134.925 E0.01674
G1 X173.716 Y129.064 E0.26004
G1 X173.716 Y129.598 E0.01674
G1 X179.576 Y135.458 E0.26004
G1 X179.576 Y135.992 E0.01674
G1 X173.716 Y130.132 E0.26004
G1 X173.716 Y130.665 E0.01674
G1 X179.576 Y136.526 E0.26004
G1 X179.576 Y137.059 E0.01674
G1 X173.716 Y131.199 E0.26004
G1 X173.716 Y131.733 E0.01674
G1 X179.576 Y137.593 E0.26004
G1 X179.576 Y138.127 E0.01674
G1 X173.716 Y132.266 E0.26004
G1 X173.716 Y132.800 E0.01674
G1 X179.576 Y138.660 E0.26004
G1 X179.576 Y139.194 E0.01674
G1 X173.716 Y133.334 E0.26004
G1 X173.716 Y133.867 E0.01674
G1 X179.124 Y139.275 E0.23997
G1 X178.591 Y139.275 E0.01674
G1 X173.716 Y134.401 E0.21629
G1 X173.716 Y134.935 E0.01674
G1 X178.057 Y139.275 E0.19261
G1 X177.523 Y139.275 E0.01674
G1 X173.716 Y135.468 E0.16893
G1 X173.716 Y136.002 E0.01674
G1 X176.990 Y139.275 E0.14525
G1 X176.456 Y139.275 E0.01674
G1 X173.716 Y136.536 E0.12157
G1 X173.716 Y137.069 E0.01674
G1 X175.922 Y139.275 E0.09789
G1 X175.389 Y139.275 E0.01674
G1 X173.716 Y137.603 E0.07421
G1 X173.716 Y138.136 E0.01674
G1 X174.855 Y139.275 E0.05053
G1 X174.321 Y139.275 E0.01674
G1 X173.716 Y138.670 E0.02685
G1 X173.716 Y139.204 E0.01674
G1 X173.957 Y139.445 E0.01070
;WIPE_START
G1 F8640.000
G1 X173.716 Y139.204 E-0.07878
G1 X173.716 Y138.670 E-0.12322
G1 X174.321 Y139.275 E-0.19763
G1 X174.855 Y139.275 E-0.12322
G1 X173.716 Y138.136 E-0.37189
G1 X173.716 Y137.603 E-0.12322
G1 X174.672 Y138.558 E-0.31205
;WIPE_END
G1 E-0.07000 F2100.000
G1 Z0.400 F10800.000
G1 X173.308 Y109.445
G1 Z0.200
G1 E1.40000 F2100.000
G1 F1200.000
G1 X165.278 Y101.415 E0.35631
G1 X164.744 Y101.415 E0.01674
G1 X172.605 Y109.275 E0.34878
G1 X172.071 Y109.275 E0.01674
G1 X164.211 Y101.415 E0.34878
G1 X163.716 Y101.415 E0.01552
G1 X163.716 Y101.454 E0.00122
G1 X171.537 Y109.275 E0.34705
G1 X171.004 Y109.275 E0.01674
G1 X163.716 Y101.988 E0.32337
G1 X163.716 Y102.521 E0.01674
G1 X170.470 Y109.275 E0.29969
G1 X169.936 Y109.275 E0.01674
G1 X163.716 Y103.055 E0.27601
G1 X163.716 Y103.589 E0.01674
G1 X169.576 Y109.449 E0.26004
G1 X169.576 Y109.983 E0.01674
G1 X163.716 Y104.122 E0.26004
G1 X163.716 Y104.656 E0.01674
G1 X169.576 Y110.516 E0.26004
G1 X169.576 Y111.050 E0.01674
G1 X163.716 Y105.190 E0.26004
G1 X163.716 Y105.723 E0.01674
G1 X169.576 Y111.583 E0.26004
G1 X169.576 Y112.117 E0.01674
G1 X163.716 Y106.257 E0.26004
G1 X163.716 Y106.791 E0.01674
G1 X169.576 Y112.651 E0.26004
G1 X169.576 Y113.184 E0.01674
G1 X163.716 Y107.324 E0.26004
G1 X163.716 Y107.858 E0.01674
G1 X169.576 Y113.718 E0.26004
G1 X169.576 Y114.252 E0.01674
G1 X163.716 Y108.391 E0.26004
G1 X163.716 Y108.925 E0.01674
G1 X169.576 Y114.785 E0.26004
G1 X169.576 Y115.319 E0.01674
G1 X163.716 Y109.459 E0.26004
G1 X163.716 Y109.992 E0.01674
G1 X169.576 Y115.853 E0.26004
G1 X169.576 Y116.386 E0.01674
G1 X163.716 Y110.526 E0.26004
G1 X163.716 Y111.060 E0.01674
G1 X169.576 Y116.920 E0.26004
G1 X169.576 Y117.454 E0.01674
G1 X163.716 Y111.593 E0.26004
G1 X163.716 Y112.127 E0.01674
G1 X169.576 Y117.987 E0.26004
G1 X169.576 Y118.521 E0.01674
G1 X163.716 Y112.661 E0.26004
G1 X163.716 Y113.194 E0.01674
G1 X169.576 Y119.055 E0.26004
G1 X169.576 Y119.588 E0.01674
G1 X163.716 Y113.728 E0.26004
G1 X163.716 Y114.262 E0.01674
G1 X169.576 Y120.122 E0.26004
G1 X169.576 Y120.656 E0.01674
G1 X163.716 Y114.795 E0.26004
G1 X163.716 Y115.329 E0.01674
G1 X169.576 Y121.189 E0.26004
G1 X169.576 Y121.723 E0.01674
G1 X163.716 Y115.863 E0.26004
G1 X163.716 Y116.396 E0.01674
G1 X169.576 Y122.256 E0.26004
G1 X169.576 Y122.790 E0.01674
G1 X163.716 Y116.930 E0.26004
G1 X163.716 Y117.464 E0.01674
G1 X169.576 Y123.324 E0.26004
G1 X169.576 Y123.857 E0.01674
G1 X163.716 Y117.997 E0.26004
G1 X163.716 Y118.531 E0.01674
G1 X169.461 Y124.275 E0.25490
G1 X168.927 Y124.275 E0.01674
G1 X163.716 Y119.064 E0.23122
G1 X163.716 Y119.598 E0.01674
G1 X168.393 Y124.275 E0.20754
G1 X167.860 Y124.275 E0.01674
G1 X163.716 Y120.132 E0.18386
G1 X163.716 Y120.665 E0.01674
G1 X167.326 Y124.275 E0.16018
G1 X166.792 Y124.275 E0.01674
G1 X163.716 Y121.199 E0.13650
G1 X163.716 Y121.415 E0.00678
G1 X163.399 Y121.415 E0.00997
G1 X166.259 Y124.275 E0.12692
G1 X165.725 Y124.275 E0.01674
G1 X162.865 Y121.415 E0.12692
G1 X162.331 Y121.415 E0.01674
G1 X165.192 Y124.275 E0.12692
G1 X164.658 Y124.275 E0.01674
G1 X161.798 Y121.415 E0.12692
G1 X161.264 Y121.415 E0.01674
G1 X164.124 Y124.275 E0.12692
M73 P1 R103
G1 X163.591 Y124.275 E0.01674
G1 X160.730 Y121.415 E0.12692
G1 X160.197 Y121.415 E0.01674
G1 X163.227 Y124.445 E0.13445
;WIPE_START
G1 F8640.000
G1 X160.197 Y121.415 E-0.98941
G1 X160.730 Y121.415 E-0.12322
G1 X161.396 Y122.081 E-0.21737
;WIPE_END
G1 E-0.07000 F2100.000
G1 Z0.400 F10800.000
G1 X159.746 Y118.830
G1 Z0.200
G1 E1.40000 F2100.000
G1 F1200.000
G1 X159.331 Y118.415 E0.01841
G1 X158.798 Y118.415 E0.01674
G1 X159.576 Y119.194 E0.03456
G1 X159.576 Y119.728 E0.01674
G1 X158.264 Y118.415 E0.05824
G1 X157.730 Y118.415 E0.01674
G1 X159.576 Y120.261 E0.08192
G1 X159.576 Y120.795 E0.01674
G1 X157.197 Y118.415 E0.10560
G1 X156.663 Y118.415 E0.01674
G1 X162.523 Y124.275 E0.26004
G1 X161.990 Y124.275 E0.01674
G1 X156.129 Y118.415 E0.26004
G1 X155.716 Y118.415 E0.01296
G1 X155.716 Y118.536 E0.00378
G1 X161.456 Y124.275 E0.25469
G1 X160.922 Y124.275 E0.01674
G1 X155.716 Y119.069 E0.23101
G1 X155.716 Y119.603 E0.01674
G1 X160.389 Y124.275 E0.20733
G1 X159.855 Y124.275 E0.01674
G1 X155.716 Y120.136 E0.18365
G1 X155.716 Y120.670 E0.01674
G1 X159.321 Y124.275 E0.15997
G1 X158.788 Y124.275 E0.01674
G1 X155.716 Y121.204 E0.13629
G1 X155.716 Y121.415 E0.00663
G1 X155.394 Y121.415 E0.01011
G1 X158.254 Y124.275 E0.12692
G1 X157.720 Y124.275 E0.01674
G1 X154.860 Y121.415 E0.12692
G1 X154.327 Y121.415 E0.01674
G1 X157.187 Y124.275 E0.12692
G1 X156.653 Y124.275 E0.01674
G1 X153.793 Y121.415 E0.12692
G1 X153.259 Y121.415 E0.01674
G1 X156.119 Y124.275 E0.12692
G1 X155.586 Y124.275 E0.01674
G1 X152.726 Y121.415 E0.12692
G1 X152.192 Y121.415 E0.01674
G1 X155.052 Y124.275 E0.12692
G1 X154.519 Y124.275 E0.01674
G1 X151.658 Y121.415 E0.12692
G1 X151.125 Y121.415 E0.01674
G1 X153.985 Y124.275 E0.12692
G1 X153.451 Y124.275 E0.01674
G1 X150.591 Y121.415 E0.12692
G1 X150.057 Y121.415 E0.01674
G1 X152.918 Y124.275 E0.12692
G1 X152.384 Y124.275 E0.01674
G1 X149.524 Y121.415 E0.12692
G1 X148.990 Y121.415 E0.01674
G1 X151.850 Y124.275 E0.12692
G1 X151.317 Y124.275 E0.01674
G1 X148.456 Y121.415 E0.12692
G1 X147.923 Y121.415 E0.01674
G1 X150.783 Y124.275 E0.12692
G1 X150.249 Y124.275 E0.01674
G1 X147.389 Y121.415 E0.12692
G1 X146.855 Y121.415 E0.01674
G1 X149.716 Y124.275 E0.12692
G1 X149.182 Y124.275 E0.01674
G1 X146.322 Y121.415 E0.12692
G1 X145.788 Y121.415 E0.01674
G1 X148.648 Y124.275 E0.12692
G1 X148.115 Y124.275 E0.01674
G1 X145.255 Y121.415 E0.12692
G1 X144.721 Y121.415 E0.01674
G1 X147.581 Y124.275 E0.12692
G1 X147.047 Y124.275 E0.01674
G1 X144.187 Y121.415 E0.12692
G1 X143.654 Y121.415 E0.01674
G1 X146.514 Y124.275 E0.12692
M73 P2 R103
M73 Q2 S104
G1 X145.980 Y124.275 E0.01674
G1 X143.120 Y121.415 E0.12692
G1 X142.586 Y121.415 E0.01674
G1 X145.447 Y124.275 E0.12692
G1 X144.913 Y124.275 E0.01674
G1 X142.053 Y121.415 E0.12692
G1 X141.519 Y121.415 E0.01674
G1 X144.379 Y124.275 E0.12692
G1 X143.846 Y124.275 E0.01674
G1 X140.985 Y121.415 E0.12692
G1 X140.452 Y121.415 E0.01674
G1 X143.312 Y124.275 E0.12692
G1 X142.778 Y124.275 E0.01674
G1 X139.918 Y121.415 E0.12692
G1 X139.384 Y121.415 E0.01674
G1 X142.245 Y124.275 E0.12692
G1 X141.711 Y124.275 E0.01674
G1 X138.851 Y121.415 E0.12692
G1 X138.317 Y121.415 E0.01674
G1 X141.177 Y124.275 E0.12692
G1 X140.644 Y124.275 E0.01674
G1 X137.783 Y121.415 E0.12692
G1 X137.250 Y121.415 E0.01674
G1 X140.110 Y124.275 E0.12692
G1 X139.576 Y124.275 E0.01674
G1 X136.716 Y121.415 E0.12692
G1 X136.183 Y121.415 E0.01674
G1 X139.043 Y124.275 E0.12692
G1 X138.509 Y124.275 E0.01674
G1 X135.649 Y121.415 E0.12692
